looks/cb_deut_pq.cube
LUT_3D_SIZE 9
0.0000007 0.0000007 0.0000007
0.1407264 0.0000007 0.1265746
0.2745637 0.0000007 0.2524948
0.4053014 0.0000007 0.3781040
0.5339330 0.0000007 0.5034938
0.6609555 0.0000007 0.6287217
0.7866691 0.0000007 0.7538142
0.9112872 0.0000007 0.8787901
1.0000000 0.0000007 1.0000000
0.0000007 0.1333780 0.0000007
0.1249998 0.1249998 0.0000007
0.2720606 0.0000007 0.2438339
0.4046661 0.0000007 0.3759317
0.5337459 0.0000007 0.5028498
0.6608993 0.0000007 0.6285197
0.7866505 0.0000007 0.7537502
0.9112787 0.0000007 0.8787694
1.0000000 0.0000007 1.0000000
0.0000007 0.2631797 0.0000007
0.0000007 0.2617582 0.0000007
0.2500004 0.2500015 0.0002356
0.3996531 0.1622194 0.3574611
0.5322941 0.0000007 0.4977550
0.6604437 0.0000007 0.6269320
0.7865059 0.0000007 0.7532420
0.9112358 0.0000007 0.8786081
1.0000000 0.0000007 1.0000000
0.0000007 0.3913299 0.0000007
0.0000007 0.3909635 0.0000007
0.0000007 0.3881105 0.0000007
0.3749991 0.3749991 0.0000007
0.5258798 0.3073042 0.4728517
0.6584871 0.0000007 0.6199145
0.7858908 0.0000007 0.7510532
0.9110472 0.0000007 0.8779260
1.0000000 0.0000007 1.0000000
0.0000007 0.5183418 0.0000007
0.0000007 0.5182313 0.0000007
0.0000007 0.5173970 0.0000007
0.0000007 0.5137491 0.0000007
0.4999972 0.4999972 0.0001165
0.6513917 0.4379958 0.5912168
0.7837080 0.0000007 0.7430789
0.9103745 0.0000007 0.8755158
1.0000000 0.0000007 1.0000000
0.0000007 0.6444844 0.0000007
0.0000007 0.6444509 0.0000007
0.0000007 0.6441891 0.0000007
0.0000007 0.6430575 0.0000007
0.2563538 0.6390222 0.0000007
0.6249967 0.6249967 0.0002490
0.7764121 0.5645393 0.7127622
0.9081797 0.0000007 0.8674174
1.0000000 0.0000007 1.0000000
0.0000007 0.7699198 0.0000007
0.0000007 0.7699089 0.0000007
0.0000007 0.7698254 0.0000007
0.0000007 0.7694662 0.0000007
0.0000007 0.7681937 0.0000007
0.4180929 0.7640429 0.0000007
0.7499983 0.7499983 0.0000007
0.9010627 0.6887156 0.8373486
1.0000000 0.0000007 0.9928166
0.0000007 0.8947541 0.0000007
0.0000007 0.8947499 0.0000007
0.0000007 0.8947162 0.0000007
0.0000007 0.8946067 0.0000007
0.0000007 0.8942111 0.0000007
0.0000007 0.8929327 0.0000007
0.5407208 0.8888614 0.0000007
0.8750090 0.8750008 0.0000007
1.0000000 0.8107393 0.9646164
0.0000007 1.0000000 0.0000007
0.0000007 1.0000000 0.0000007
0.0000007 1.0000000 0.0000007
0.0000007 1.0000000 0.0000007
0.0000007 1.0000000 0.0000007
0.0000007 1.0000000 0.0000007
0.0000007 1.0000000 0.0000007
0.6355943 1.0000000 0.0000007
1.0000000 1.0000000 0.0028123
0.0000007 0.0000129 0.1249998
0.1407264 0.0000007 0.1598364
0.2745637 0.0000007 0.2601018
0.4053014 0.0000007 0.3801585
0.5339330 0.0000007 0.5041147
0.6609555 0.0000007 0.6289238
0.7866691 0.0000007 0.7538782
0.9112872 0.0000007 0.8788149
1.0000000 0.0000007 1.0000000
0.0000007 0.1333780 0.0000007
0.1249998 0.1249998 0.1249998
0.2720606 0.0000007 0.2522088
0.4046661 0.0000007 0.3780267
0.5337459 0.0000007 0.5034723
0.6608931 0.0000007 0.6287158
0.7866505 0.0000007 0.7538142
0.9112872 0.0000007 0.8787984
1.0000000 0.0000007 1.0000000
0.0000007 0.2631797 0.0000007
0.0000007 0.2617582 0.0000007
0.2500004 0.2500015 0.1250004
0.3996531 0.1622194 0.3599836
0.5322941 0.0000007 0.4984067
0.6604437 0.0000007 0.6271336
0.7865059 0.0000007 0.7533024
0.9112444 0.0000007 0.8786371
1.0000000 0.0000007 1.0000000
0.0000007 0.3913299 0.0000007
0.0000007 0.3909635 0.0000007
0.0000007 0.3881105 0.0000007
0.3749991 0.3750027 0.1250016
0.5258848 0.3073057 0.4736802
0.6584871 0.0000007 0.6201285
0.7858908 0.0000007 0.7511240
0.9110472 0.0000007 0.8779466
1.0000000 0.0000007 1.0000000
0.0000007 0.5183418 0.0000007
0.0000007 0.5182313 0.0000007
0.0000007 0.5173970 0.0000007
0.0000007 0.5137491 0.0000007
0.4999972 0.4999972 0.1250010
0.6513917 0.4379937 0.5914966
0.7837080 0.0000007 0.7431490
0.9103745 0.0000007 0.8755364
1.0000000 0.0000007 1.0000000
0.0000007 0.6444844 0.0000007
0.0000007 0.6444509 0.0000007
0.0000007 0.6441891 0.0000007
0.0000007 0.6430575 0.0000007
0.2563550 0.6390222 0.0000007
0.6249967 0.6249967 0.1250004
0.7764121 0.5645393 0.7128598
0.9081797 0.0000007 0.8674296
1.0000000 0.0000007 1.0000000
0.0000007 0.7699198 0.0000007
0.0000007 0.7699089 0.0000007
0.0000007 0.7698254 0.0000007
0.0000007 0.7694662 0.0000007
0.0000007 0.7681937 0.0000007
0.4180890 0.7640429 0.0000007
0.7499983 0.7499983 0.1249998
0.9010627 0.6887156 0.8373841
1.0000000 0.0000007 0.9928260
0.0000007 0.8947541 0.0000007
0.0000007 0.8947499 0.0000007
0.0000007 0.8947162 0.0000007
0.0000007 0.8946067 0.0000007
0.0000007 0.8942111 0.0000007
0.0000007 0.8929327 0.0000007
0.5407157 0.8888614 0.0000007
0.8750090 0.8750008 0.1249974
1.0000000 0.8107393 0.9646254
0.0000007 1.0000000 0.0000007
0.0000007 1.0000000 0.0000007
0.0000007 1.0000000 0.0000007
0.0000007 1.0000000 0.0000007
0.0000007 1.0000000 0.0000007
0.0000007 1.0000000 0.0000007
0.0000007 1.0000000 0.0000007
0.6355943 1.0000000 0.0000007
1.0000000 1.0000000 0.1250076
0.0000007 0.0000300 0.2500004
0.1407264 0.0000007 0.2580866
0.2745637 0.0000007 0.3034987
0.4053014 0.0000007 0.3946603
0.5339330 0.0000007 0.5087623
0.6609555 0.0000007 0.6304270
0.7866691 0.0000007 0.7543654
0.9112872 0.0000007 0.8789680
1.0000000 0.0000007 1.0000000
0.0000007 0.1333780 0.2410695
0.1249998 0.1249998 0.2500004
0.2720606 0.0000007 0.2987230
0.4046661 0.0000007 0.3928216
0.5337459 0.0000007 0.5081477
0.6608931 0.0000007 0.6302214
0.7866505 0.0000007 0.7542979
0.9112787 0.0000007 0.8789473
1.0000000 0.0000007 1.0000000
0.0000007 0.2631797 0.0000007
0.0000007 0.2617582 0.1112719
0.2500004 0.2500015 0.2500004
0.3996531 0.1622194 0.3774605
0.5322941 0.0000007 0.5033029
0.6604437 0.0000007 0.6286623
0.7865059 0.0000007 0.7537964
0.9112358 0.0000007 0.8787901
1.0000000 0.0000007 1.0000000
0.0000007 0.3913299 0.0000007
0.0000007 0.3909635 0.0000007
0.0000007 0.3881105 0.0000007
0.3749991 0.3750027 0.2500015
0.5258798 0.3073057 0.4798113
0.6584871 0.0000007 0.6217549
0.7858908 0.0000007 0.7516237
0.9110472 0.0000007 0.8781161
1.0000000 0.0000007 1.0000000
0.0000007 0.5183418 0.0000007
0.0000007 0.5182313 0.0000007
0.0000007 0.5173970 0.0000007
0.0000007 0.5137491 0.0000007
0.4999972 0.4999972 0.2500004
0.6513917 0.4379958 0.5935990
0.7837080 0.0000007 0.7436891
0.9103659 0.0000007 0.8757054
1.0000000 0.0000007 1.0000000
0.0000007 0.6444844 0.0000007
0.0000007 0.6444509 0.0000007
0.0000007 0.6441891 0.0000007
0.0000007 0.6430575 0.0000007
0.2563526 0.6390222 0.0000007
0.6249967 0.6250026 0.2500039
0.7764121 0.5645393 0.7135633
0.9081797 0.0000007 0.8676093
1.0000000 0.0000007 1.0000000
0.0000007 0.7699198 0.0000007
0.0000007 0.7699089 0.0000007
0.0000007 0.7698254 0.0000007
0.0000007 0.7694662 0.0000007
0.0000007 0.7681937 0.0000007
0.4180890 0.7640429 0.0000007
0.7499983 0.7499983 0.2500051
0.9010627 0.6887156 0.8376090
1.0000000 0.0000007 0.9928773
0.0000007 0.8947541 0.0000007
0.0000007 0.8947499 0.0000007
0.0000007 0.8947162 0.0000007
0.0000007 0.8946067 0.0000007
0.0000007 0.8942111 0.0000007
0.0000007 0.8929327 0.0000007
0.5407208 0.8888698 0.0000007
0.8750008 0.8750008 0.2500231
1.0000000 0.8107393 0.9646889
0.0000007 1.0000000 0.0000007
0.0000007 1.0000000 0.0000007
0.0000007 1.0000000 0.0000007
0.0000007 1.0000000 0.0000007
0.0000007 1.0000000 0.0000007
0.0000007 1.0000000 0.0000007
0.0000007 1.0000000 0.0000007
0.6355943 1.0000000 0.0000007
1.0000000 1.0000000 0.2499059
0.0000007 0.0000812 0.3749991
0.1407264 0.0000007 0.3771912
0.2745637 0.0000007 0.3925863
0.4053014 0.0000007 0.4402981
0.5339330 0.0000007 0.5265679
0.6609555 0.0000007 0.6366075
0.7866691 0.0000007 0.7564139
0.9112872 0.0000007 0.8796136
1.0000000 0.0000007 1.0000000
0.0000007 0.1333793 0.3727593
0.1250004 0.1249998 0.3750027
0.2720606 0.0000007 0.3907144
0.4046661 0.0000007 0.4391246
0.5337459 0.0000007 0.5260493
0.6608993 0.0000007 0.6364210
0.7866505 0.0000007 0.7563497
0.9112787 0.0000007 0.8796012
1.0000000 0.0000007 1.0000000
0.0000007 0.2631797 0.3536267
0.0000007 0.2617582 0.3563395
0.2500004 0.2500015 0.3749991
0.3996531 0.1622194 0.4296227
0.5322941 0.0000007 0.5219552
0.6604437 0.0000007 0.6349458
0.7865059 0.0000007 0.7558576
0.9112358 0.0000007 0.8794315
1.0000000 0.0000007 1.0000000
0.0000007 0.3913299 0.0000007
0.0000007 0.3909635 0.0000007
0.0000007 0.3881105 0.2398935
0.3749991 0.3750027 0.3749991
0.5258798 0.3073042 0.5025733
0.6584871 0.0000007 0.6284335
0.7858908 0.0000007 0.7537217
0.9110472 0.0000007 0.8787694
1.0000000 0.0000007 1.0000000
0.0000007 0.5183418 0.0000007
0.0000007 0.5182313 0.0000007
0.0000007 0.5173970 0.0000007
0.0000007 0.5137540 0.0000007
0.4999972 0.4999972 0.3750027
0.6513917 0.4379937 0.6021453
0.7837080 0.0000007 0.7459411
0.9103745 0.0000007 0.8763694
1.0000000 0.0000007 1.0000000
0.0000007 0.6444844 0.0000007
0.0000007 0.6444509 0.0000007
0.0000007 0.6441891 0.0000007
0.0000007 0.6430575 0.0000007
0.2563538 0.6390222 0.0000007
0.6249967 0.6249967 0.3749991
0.7764121 0.5645393 0.7165195
0.9081797 0.0000007 0.8683245
1.0000000 0.0000007 1.0000000
0.0000007 0.7699198 0.0000007
0.0000007 0.7699089 0.0000007
0.0000007 0.7698254 0.0000007
0.0000007 0.7694662 0.0000007
0.0000007 0.7681937 0.0000007
0.4180890 0.7640429 0.0000007
0.7500018 0.7499983 0.3750009
0.9010627 0.6887156 0.8385642
1.0000000 0.0000007 0.9930966
0.0000007 0.8947541 0.0000007
0.0000007 0.8947499 0.0000007
0.0000007 0.8947162 0.0000007
0.0000007 0.8946067 0.0000007
0.0000007 0.8942111 0.0000007
0.0000007 0.8929327 0.0000007
0.5407208 0.8888614 0.0000007
0.8750090 0.8750008 0.3750027
1.0000000 0.8107393 0.9649747
0.0000007 1.0000000 0.0000007
0.0000007 1.0000000 0.0000007
0.0000007 1.0000000 0.0000007
0.0000007 1.0000000 0.0000007
0.0000007 1.0000000 0.0000007
0.0000007 1.0000000 0.0000007
0.0000007 1.0000000 0.0000007
0.6355943 1.0000000 0.0000007
1.0000000 1.0000000 0.3750277
0.0000007 0.0001694 0.4999972
0.1407264 0.0000007 0.5006590
0.2745650 0.0000007 0.5056225
0.4053014 0.0000007 0.5245112
0.5339330 0.0000007 0.5725532
0.6609555 0.0000007 0.6558108
0.7866691 0.0000007 0.7632687
0.9112872 0.0000007 0.8818564
1.0000000 0.0000007 1.0000000
0.0000007 0.1333793 0.4993315
0.1249992 0.1249992 0.4999972
0.2720606 0.0000007 0.5049925
0.4046661 0.0000007 0.5239797
0.5337459 0.0000007 0.5722145
0.6608993 0.0000007 0.6556528
0.7866505 0.0000007 0.7632111
0.9112787 0.0000007 0.8818399
1.0000000 0.0000007 1.0000000
0.0000007 0.2631797 0.4940587
0.0000007 0.2617582 0.4947597
0.2500015 0.2500004 0.4999972
0.3996531 0.1622202 0.5198079
0.5322915 0.0000007 0.5695531
0.6604437 0.0000007 0.6544118
0.7865059 0.0000007 0.7627434
0.9112358 0.0000007 0.8816780
1.0000000 0.0000007 1.0000000
0.0000007 0.3913299 0.4681682
0.0000007 0.3909672 0.4690642
0.0000007 0.3881105 0.4756776
0.3749991 0.3749991 0.4999972
0.5258798 0.3073057 0.5574486
0.6584871 0.0000007 0.6489800
0.7858908 0.0000007 0.7607462
0.9110472 0.0000007 0.8810267
1.0000000 0.0000007 1.0000000
0.0000007 0.5183418 0.0000007
0.0000007 0.5182313 0.0000007
0.0000007 0.5173970 0.1897679
0.0000007 0.5137540 0.3659165
0.4999972 0.4999972 0.4999972
0.6513917 0.4379937 0.6276230
0.7837080 0.0000007 0.7534623
0.9103745 0.0000007 0.8786826
1.0000000 0.0000007 1.0000000
0.0000007 0.6444844 0.0000007
0.0000007 0.6444509 0.0000007
0.0000007 0.6441891 0.0000007
0.0000007 0.6430575 0.0000007
0.2563538 0.6390222 0.0000007
0.6249967 0.6249967 0.4999972
0.7764121 0.5645393 0.7262485
0.9081882 0.0000007 0.8708217
1.0000000 0.0000007 1.0000000
0.0000007 0.7699198 0.0000007
0.0000007 0.7699089 0.0000007
0.0000007 0.7698254 0.0000007
0.0000007 0.7694662 0.0000007
0.0000007 0.7681937 0.0000007
0.4180890 0.7640429 0.0000007
0.7499983 0.7499983 0.4999972
0.9010627 0.6887156 0.8418408
1.0000000 0.0000007 0.9938437
0.0000007 0.8947541 0.0000007
0.0000007 0.8947499 0.0000007
0.0000007 0.8947162 0.0000007
0.0000007 0.8946067 0.0000007
0.0000007 0.8942111 0.0000007
0.0000007 0.8929327 0.0000007
0.5407157 0.8888698 0.0000007
0.8750090 0.8750008 0.4999972
1.0000000 0.8107393 0.9659778
0.0000007 1.0000000 0.0000007
0.0000007 1.0000000 0.0000007
0.0000007 1.0000000 0.0000007
0.0000007 1.0000000 0.0000007
0.0000007 1.0000000 0.0000007
0.0000007 1.0000000 0.0000007
0.0000007 1.0000000 0.0000007
0.6355943 1.0000000 0.0000007
1.0000000 1.0000000 0.4999996
0.0000007 0.0002490 0.6249967
0.1407264 0.0000007 0.6252065
0.2745650 0.0000007 0.6268224
0.4053014 0.0000007 0.6334290
0.5339330 0.0000007 0.6537783
0.6609555 0.0000007 0.7014015
0.7866691 0.0000007 0.7827149
0.9112872 0.0000007 0.8887317
1.0000000 0.0000007 1.0000000
0.0000007 0.1333786 0.6247870
0.1249992 0.1250004 0.6249967
0.2720606 0.0000007 0.6266121
0.4046699 0.0000007 0.6332344
0.5337459 0.0000007 0.6536207
0.6608993 0.0000007 0.7012956
0.7866505 0.0000007 0.7826669
0.9112787 0.0000007 0.8887108
1.0000000 0.0000007 1.0000000
0.0000007 0.2631797 0.6231439
0.0000007 0.2617582 0.6233619
0.2500015 0.2500004 0.6249967
0.3996531 0.1622202 0.6317097
0.5322915 0.0000007 0.6523588
0.6604437 0.0000007 0.7004783
0.7865059 0.0000007 0.7822759
0.9112358 0.0000007 0.8885644
1.0000000 0.0000007 1.0000000
0.0000007 0.3913299 0.6158740
0.0000007 0.3909635 0.6161041
0.0000007 0.3881178 0.6178544
0.3749991 0.3749991 0.6249967
0.5258848 0.3073042 0.6468185
0.6584871 0.0000007 0.6969258
0.7858908 0.0000007 0.7806071
0.9110472 0.0000007 0.8879498
1.0000000 0.0000007 1.0000000
0.0000007 0.5183418 0.5859427
0.0000007 0.5182313 0.5862450
0.0000007 0.5173970 0.5885350
0.0000007 0.5137540 0.5977694
0.4999972 0.4999972 0.6249967
0.6513917 0.4379958 0.6835738
0.7837080 0.0000007 0.7745694
0.9103745 0.0000007 0.8857543
1.0000000 0.0000007 1.0000000
0.0000007 0.6444844 0.0000007
0.0000007 0.6444509 0.0000007
0.0000007 0.6441891 0.0000007
0.0000007 0.6430575 0.3294220
0.2563526 0.6390222 0.4913043
0.6249967 0.6249967 0.6249967
0.7764121 0.5645393 0.7526277
0.9081797 0.0000007 0.8784178
1.0000000 0.0000007 1.0000000
0.0000007 0.7699198 0.0000007
0.0000007 0.7699089 0.0000007
0.0000007 0.7698254 0.0000007
0.0000007 0.7694662 0.0000007
0.0000007 0.7681937 0.0000007
0.4180929 0.7640429 0.0000007
0.7499983 0.7499983 0.6249967
0.9010627 0.6887156 0.8516985
1.0000000 0.0000007 0.9962381
0.0000007 0.8947541 0.0000007
0.0000007 0.8947499 0.0000007
0.0000007 0.8947246 0.0000007
0.0000007 0.8946067 0.0000007
0.0000007 0.8942111 0.0000007
0.0000007 0.8929327 0.0000007
0.5407208 0.8888614 0.0000007
0.8750090 0.8750008 0.6249967
1.0000000 0.8107393 0.9690938
0.0000007 1.0000000 0.0000007
0.0000007 1.0000000 0.0000007
0.0000007 1.0000000 0.0000007
0.0000007 1.0000000 0.0000007
0.0000007 1.0000000 0.0000007
0.0000007 1.0000000 0.0000007
0.0000007 1.0000000 0.0000007
0.6355943 1.0000000 0.0000007
1.0000000 1.0000000 0.6250026
0.0000007 0.0005519 0.7499983
0.1407251 0.0000007 0.7500655
0.2745650 0.0000007 0.7505893
0.4053052 0.0000007 0.7527874
0.5339330 0.0000007 0.7601115
0.6609555 0.0000007 0.7807286
0.7866691 0.0000007 0.8275186
0.9112872 0.0000007 0.9076457
1.0000000 0.0000007 1.0000000
0.0000007 0.1333786 0.7499276
0.1249998 0.1249998 0.7499983
0.2720606 0.0000007 0.7505220
0.4046661 0.0000007 0.7527199
0.5337409 0.0000007 0.7600469
0.6608931 0.0000007 0.7806771
0.7866505 0.0000007 0.8274873
0.9112787 0.0000007 0.9076201
1.0000000 0.0000007 1.0000000
0.0000007 0.2631797 0.7494078
0.0000007 0.2617582 0.7494749
0.2499992 0.2500004 0.7499983
0.3996531 0.1622186 0.7522054
0.5322915 0.0000007 0.7595668
0.6604437 0.0000007 0.7802833
0.7865059 0.0000007 0.8272302
0.9112444 0.0000007 0.9075005
1.0000000 0.0000007 1.0000000
0.0000007 0.3913262 0.7471454
0.0000007 0.3909672 0.7472124
0.0000007 0.3881105 0.7477483
0.3749991 0.3750027 0.7499983
0.5258798 0.3073057 0.7575063
0.6584871 0.0000007 0.7785784
0.7858908 0.0000007 0.8261281
0.9110472 0.0000007 0.9069883
1.0000000 0.0000007 1.0000000
0.0000007 0.5183418 0.7388669
0.0000007 0.5182313 0.7389436
0.0000007 0.5173970 0.7395190
0.0000007 0.5137491 0.7419441
0.4999972 0.4999972 0.7499983
0.6513917 0.4379958 0.7724214
0.7837080 0.0000007 0.8221911
0.9103745 0.0000007 0.9051593
1.0000000 0.0000007 1.0000000
0.0000007 0.6444844 0.7071795
0.0000007 0.6444509 0.7072830
0.0000007 0.6441891 0.7080513
0.0000007 0.6430575 0.7112668
0.2563514 0.6390222 0.7217900
0.6249967 0.6249967 0.7499983
0.7764121 0.5645393 0.8085380
0.9081797 0.0000007 0.8990889
1.0000000 0.0000007 1.0000000
0.0000007 0.7699198 0.0000007
0.0000007 0.7699089 0.0000007
0.0000007 0.7698254 0.0000007
0.0000007 0.7694662 0.0000007
0.0000007 0.7681937 0.4585658
0.4180890 0.7640429 0.6164100
0.7499983 0.7499983 0.7499983
0.9010627 0.6887156 0.8776037
1.0000000 0.0000007 1.0000000
0.0000007 0.8947541 0.0000007
0.0000007 0.8947499 0.0000007
0.0000007 0.8947246 0.0000007
0.0000007 0.8946067 0.0000007
0.0000007 0.8942111 0.0000007
0.0000007 0.8929327 0.0000007
0.5407208 0.8888698 0.0000007
0.8750090 0.8750008 0.7499983
1.0000000 0.8107393 0.9782482
0.0000007 1.0000000 0.0000007
0.0000007 1.0000000 0.0000007
0.0000007 1.0000000 0.0000007
0.0000007 1.0000000 0.0000007
0.0000007 1.0000000 0.0000007
0.0000007 1.0000000 0.0000007
0.0000007 1.0000000 0.0000007
0.6355943 1.0000000 0.0000007
1.0000000 1.0000000 0.7500018
0.0000007 0.0015828 0.8750008
0.1407095 0.0000007 0.8750296
0.2745637 0.0000007 0.8751903
0.4053052 0.0000007 0.8758786
0.5339280 0.0000007 0.8782938
0.6609555 0.0000007 0.8856418
0.7866691 0.0000007 0.9056961
0.9112872 0.0000007 0.9513643
1.0000000 0.0000007 1.0000000
0.0000007 0.1333857 0.8749802
0.1249733 0.1250107 0.8750008
0.2720593 0.0000007 0.8751697
0.4046680 0.0000007 0.8758662
0.5337459 0.0000007 0.8782773
0.6608931 0.0000007 0.8856125
0.7866505 0.0000007 0.9056662
0.9112787 0.0000007 0.9513554
1.0000000 0.0000007 1.0000000
0.0000007 0.2631797 0.8748114
0.0000007 0.2617595 0.8748443
0.2499992 0.2500004 0.8750008
0.3996531 0.1622217 0.8757054
0.5322915 0.0000007 0.8780996
0.6604437 0.0000007 0.8854625
0.7865096 0.0000007 0.9055427
0.9112358 0.0000007 0.9512704
1.0000000 0.0000007 1.0000000
0.0000007 0.3913299 0.8741115
0.0000007 0.3909635 0.8741239
0.0000007 0.3881178 0.8743050
0.3749991 0.3750027 0.8750090
0.5258848 0.3073057 0.8774178
0.6584871 0.0000007 0.8848251
0.7858908 0.0000007 0.9050145
0.9110472 0.0000007 0.9509349
1.0000000 0.0000007 1.0000000
0.0000007 0.5183418 0.8716091
0.0000007 0.5182338 0.8716378
0.0000007 0.5173921 0.8718020
0.0000007 0.5137540 0.8725205
0.4999972 0.4999972 0.8750008
0.6513917 0.4379958 0.8825707
0.7837080 0.0000007 0.9031554
0.9103745 0.0000007 0.9497418
1.0000000 0.0000007 1.0000000
0.0000007 0.6444844 0.8631927
0.0000007 0.6444570 0.8632171
0.0000007 0.6441891 0.8634041
0.0000007 0.6430575 0.8641809
0.2563538 0.6390222 0.8668581
0.6249967 0.6249967 0.8750008
0.7764121 0.5645447 0.8969632
0.9081882 0.0000007 0.9458196
1.0000000 0.0000007 1.0000000
0.0000007 0.7699162 0.8317275
0.0000007 0.7699089 0.8317589
0.0000007 0.7698254 0.8320057
0.0000007 0.7694662 0.8330528
0.0000007 0.7681937 0.8366154
0.4180890 0.7640429 0.8472900
0.7499983 0.7499983 0.8750008
0.9010627 0.6887156 0.9325769
1.0000000 0.0000007 1.0000000
0.0000007 0.8947541 0.0000007
0.0000007 0.8947499 0.0000007
0.0000007 0.8947162 0.0000007
0.0000007 0.8946067 0.0000007
0.0000007 0.8942111 0.0000007
0.0000007 0.8929327 0.5840495
0.5407208 0.8888614 0.7413178
0.8750008 0.8750008 0.8750008
1.0000000 0.8107393 1.0000000
0.0000007 1.0000000 0.0000007
0.0000007 1.0000000 0.0000007
0.0000007 1.0000000 0.0000007
0.0000007 1.0000000 0.0000007
0.0000007 1.0000000 0.0000007
0.0000007 1.0000000 0.0000007
0.0000007 1.0000000 0.0000007
0.6355943 1.0000000 0.0000007
1.0000000 1.0000000 0.8750090
0.0000007 0.0018746 1.0000000
0.1407312 0.0000007 1.0000000
0.2745624 0.0000007 1.0000000
0.4053014 0.0000007 1.0000000
0.5339280 0.0000007 1.0000000
0.6609555 0.0000007 1.0000000
0.7866728 0.0000007 1.0000000
0.9112872 0.0000007 1.0000000
1.0000000 0.0000007 1.0000000
0.0000007 0.1333941 0.9999906
0.1249986 0.1249986 1.0000000
0.2720632 0.0000007 1.0000000
0.4046680 0.0000007 1.0000000
0.5337459 0.0000007 1.0000000
0.6608993 0.0000007 1.0000000
0.7866505 0.0000007 1.0000000
0.9112787 0.0000007 1.0000000
1.0000000 0.0000007 1.0000000
0.0000007 0.2631784 0.9999389
0.0000007 0.2617607 0.9999530
0.2499980 0.2500027 1.0000000
0.3996531 0.1622287 1.0000000
0.5322890 0.0000007 1.0000000
0.6604437 0.0000007 1.0000000
0.7865096 0.0000007 1.0000000
0.9112444 0.0000007 1.0000000
1.0000000 0.0000007 1.0000000
0.0000007 0.3913299 0.9997322
0.0000007 0.3909635 0.9997416
0.0000007 0.3881142 0.9997839
0.3750027 0.3749991 1.0000000
0.5258848 0.3073057 1.0000000
0.6584871 0.0000007 1.0000000
0.7858908 0.0000007 1.0000000
0.9110472 0.0000007 1.0000000
1.0000000 0.0000007 1.0000000
0.0000007 0.5183418 0.9989995
0.0000007 0.5182338 0.9989995
0.0000007 0.5173921 0.9990512
0.0000007 0.5137491 0.9992577
0.4999996 0.4999972 1.0000000
0.6513917 0.4379958 1.0000000
0.7837080 0.0000007 1.0000000
0.9103659 0.0000007 1.0000000
1.0000000 0.0000007 1.0000000
0.0000007 0.6444844 0.9965986
0.0000007 0.6444509 0.9965986
0.0000007 0.6441891 0.9966502
0.0000007 0.6430575 0.9968750
0.2563538 0.6390222 0.9976202
0.6249967 0.6249967 1.0000000
0.7764121 0.5645393 1.0000000
0.9081882 0.0000007 1.0000000
1.0000000 0.0000007 1.0000000
0.0000007 0.7699162 0.9887374
0.0000007 0.7699089 0.9887421
0.0000007 0.7698254 0.9887978
0.0000007 0.7694662 0.9890349
0.0000007 0.7681937 0.9898487
0.4180890 0.7640429 0.9924154
0.7499983 0.7499983 1.0000000
0.9010627 0.6887156 1.0000000
1.0000000 0.0000007 1.0000000
0.0000007 0.8947541 0.9591892
0.0000007 0.8947499 0.9592027
0.0000007 0.8947246 0.9592704
0.0000007 0.8946067 0.9595907
0.0000007 0.8942111 0.9606786
0.0000007 0.8929327 0.9640768
0.5407208 0.8888614 0.9739900
0.8750008 0.8750008 1.0000000
1.0000000 0.8107393 1.0000000
0.0000007 1.0000000 0.0000007
0.0000007 1.0000000 0.0000007
0.0000007 1.0000000 0.0000007
0.0000007 1.0000000 0.0000007
0.0000007 1.0000000 0.0000007
0.0000007 1.0000000 0.0000007
0.0000007 1.0000000 0.7070059
0.6355943 1.0000000 0.8660423
1.0000000 1.0000000 1.0000000
