looks/cb_deut_pq.cube
LUT_3D_SIZE 17
0.0000007 0.0000007 0.0000007
0.0718908 0.0000007 0.0634295
0.1407264 0.0000007 0.1265746
0.2081351 0.0000007 0.1895831
0.2745637 0.0000007 0.2524948
0.3402386 0.0000007 0.3153278
0.4053014 0.0000007 0.3781040
0.4698416 0.0000007 0.4408211
0.5339330 0.0000007 0.5034938
0.5976252 0.0000007 0.5661316
0.6609555 0.0000007 0.6287217
0.7239629 0.0000007 0.6912861
0.7866691 0.0000007 0.7538142
0.8491035 0.0000007 0.8163127
0.9112872 0.0000007 0.8787901
0.9732211 0.0000007 0.9412358
1.0000000 0.0000007 1.0000000
0.0000007 0.0674726 0.0000007
0.0625000 0.0625000 0.0000007
0.1383231 0.0086580 0.1183795
0.2072072 0.0000007 0.1864783
0.2741456 0.0000007 0.2510872
0.3400312 0.0000007 0.3146308
0.4051973 0.0000007 0.3777408
0.4697859 0.0000007 0.4406244
0.5339002 0.0000007 0.5033864
0.5976082 0.0000007 0.5660673
0.6609462 0.0000007 0.6286890
0.7239595 0.0000007 0.6912665
0.7866691 0.0000007 0.7538035
0.8491035 0.0000007 0.8163050
0.9112872 0.0000007 0.8787901
0.9732211 0.0000007 0.9412358
1.0000000 0.0000007 1.0000000
0.0000007 0.1333780 0.0000007
0.0000007 0.1320369 0.0000007
0.1249998 0.1249998 0.0000007
0.2024936 0.0990892 0.1690202
0.2720606 0.0000007 0.2438339
0.3390138 0.0000007 0.3111361
0.4046661 0.0000007 0.3759317
0.4695007 0.0000007 0.4396504
0.5337459 0.0000007 0.5028498
0.5975178 0.0000007 0.5657645
0.6608993 0.0000007 0.6285197
0.7239321 0.0000007 0.6911718
0.7866505 0.0000007 0.7537502
0.8490914 0.0000007 0.8162780
0.9112787 0.0000007 0.8787694
0.9732211 0.0000007 0.9412181
1.0000000 0.0000007 1.0000000
0.0000007 0.1985382 0.0000007
0.0000007 0.1980122 0.0000007
0.0423759 0.1953852 0.0000007
0.1875007 0.1875007 0.0000007
0.2659411 0.1653642 0.2193468
0.3360979 0.0298742 0.3005804
0.4031779 0.0000007 0.3706860
0.4687038 0.0000007 0.4368740
0.5333037 0.0000007 0.5013312
0.5972747 0.0000007 0.5649163
0.6607589 0.0000007 0.6280414
0.7238570 0.0000007 0.6908978
0.7866098 0.0000007 0.7535938
0.8490714 0.0000007 0.8161896
0.9112701 0.0000007 0.8787239
0.9732119 0.0000007 0.9411959
1.0000000 0.0000007 1.0000000
0.0000007 0.2631797 0.0000007
0.0000007 0.2629395 0.0000007
0.0000007 0.2617582 0.0000007
0.1329523 0.2583594 0.0000007
0.2500004 0.2500015 0.0002356
0.3290423 0.2295101 0.2703825
0.3996531 0.1622194 0.3574611
0.4668416 0.0000007 0.4302047
0.5322941 0.0000007 0.4977550
0.5967128 0.0000007 0.5629462
0.6604437 0.0000007 0.6269320
0.7236726 0.0000007 0.6902750
0.7865059 0.0000007 0.7532420
0.8490115 0.0000007 0.8159897
0.9112358 0.0000007 0.8786081
0.9731982 0.0000007 0.9411340
1.0000000 0.0000007 1.0000000
0.0000007 0.3274168 0.0000007
0.0000007 0.3272982 0.0000007
0.0000007 0.3267153 0.0000007
0.0000007 0.3250640 0.0000007
0.2023286 0.3211561 0.0000007
0.3124984 0.3124999 0.0000007
0.3919464 0.2929149 0.3225371
0.4628842 0.2383338 0.4148256
0.5301600 0.0000007 0.4899386
0.5955341 0.0000007 0.5587326
0.6597794 0.0000007 0.6245980
0.7233039 0.0000007 0.6889660
0.7863020 0.0000007 0.7525070
0.8488916 0.0000007 0.8155784
0.9111715 0.0000007 0.8783807
0.9731570 0.0000007 0.9410056
1.0000000 0.0000007 1.0000000
0.0000007 0.3913299 0.0000007
0.0000007 0.3912704 0.0000007
0.0000007 0.3909635 0.0000007
0.0000007 0.3901110 0.0000007
0.0000007 0.3881105 0.0000007
0.2681066 0.3838566 0.0000007
0.3749991 0.3749991 0.0000007
0.4547165 0.3559716 0.3759889
0.5258798 0.3073042 0.4728517
0.5932060 0.0000007 0.5500392
0.6584871 0.0000007 0.6199145
0.7225738 0.0000007 0.6863748
0.7858908 0.0000007 0.7510532
0.8486637 0.0000007 0.8147680
0.9110472 0.0000007 0.8779260
0.9730930 0.0000007 0.9407578
1.0000000 0.0000007 1.0000000
0.0000007 0.4549583 0.0000007
0.0000007 0.4549238 0.0000007
0.0000007 0.4547619 0.0000007
0.0000007 0.4543001 0.0000007
0.0000007 0.4532361 0.0000007
0.0000007 0.4509955 0.0000007
0.3324882 0.4464898 0.0000007
0.4375011 0.4375011 0.0000007
0.5173995 0.4188227 0.4308223
0.5887104 0.3734108 0.5316439
0.6560246 0.0000007 0.6105733
0.7212078 0.0000007 0.6813533
0.7851205 0.0000007 0.7482952
0.8482362 0.0000007 0.8132339
0.9108029 0.0000007 0.8770916
0.9729558 0.0000007 0.9402889
1.0000000 0.0000007 1.0000000
0.0000007 0.5183418 0.0000007
0.0000007 0.5183222 0.0000007
0.0000007 0.5182313 0.0000007
0.0000007 0.5179784 0.0000007
0.0000007 0.5173970 0.0000007
0.0000007 0.5161725 0.0000007
0.0000007 0.5137491 0.0000007
0.3961343 0.5090759 0.0000007
0.4999972 0.4999972 0.0001165
0.5800230 0.4815372 0.4870752
0.6513917 0.4379958 0.5912168
0.7186598 0.0000007 0.6715837
0.7837080 0.0000007 0.7430789
0.8474496 0.0000007 0.8103841
0.9103745 0.0000007 0.8755158
0.9727225 0.0000007 0.9394403
1.0000000 0.0000007 1.0000000
0.0000007 0.5815125 0.0000007
0.0000007 0.5815042 0.0000007
0.0000007 0.5814547 0.0000007
0.0000007 0.5813144 0.0000007
0.0000007 0.5809817 0.0000007
0.0000007 0.5803058 0.0000007
0.0000007 0.5789700 0.0000007
0.0000007 0.5764248 0.0000007
0.4593347 0.5716353 0.0000007
0.5625013 0.5625013 0.0001694
0.6425776 0.5441685 0.5447254
0.7139608 0.5016212 0.6515948
0.7811298 0.2779564 0.7330754
0.8460300 0.0000007 0.8050972
0.9095824 0.0000007 0.8726643
0.9722882 0.0000007 0.9378906
1.0000000 0.0000007 1.0000000
0.0000007 0.6444844 0.0000007
0.0000007 0.6444844 0.0000007
0.0000007 0.6444509 0.0000007
0.0000007 0.6443717 0.0000007
0.0000007 0.6441891 0.0000007
0.0000007 0.6438056 0.0000007
0.0000007 0.6430575 0.0000007
0.0000007 0.6416460 0.0000007
0.2563538 0.6390222 0.0000007
0.5222496 0.6341599 0.0000007
0.6249967 0.6249967 0.0002490
0.7050963 0.6067191 0.6037708
0.7764121 0.5645393 0.7127622
0.8434600 0.3629519 0.7950413
0.9081797 0.0000007 0.8674174
0.9715251 0.0000007 0.9351025
1.0000000 0.0000007 1.0000000
0.0000007 0.7072830 0.0000007
0.0000007 0.7072830 0.0000007
0.0000007 0.7072696 0.0000007
0.0000007 0.7072229 0.0000007
0.0000007 0.7071161 0.0000007
0.0000007 0.7069025 0.0000007
0.0000007 0.7064822 0.0000007
0.0000007 0.7056890 0.0000007
0.0000007 0.7042248 0.0000007
0.3456196 0.7015604 0.0000007
0.5849317 0.6966758 0.0000007
0.6875004 0.6875004 0.0003694
0.7675710 0.6692214 0.6641575
0.8387775 0.6268995 0.7746935
0.9056577 0.4260822 0.8574770
0.9701605 0.0000007 0.9299880
1.0000000 0.0000007 0.9977046
0.0000007 0.7699198 0.0000007
0.0000007 0.7699162 0.0000007
0.0000007 0.7699089 0.0000007
0.0000007 0.7698835 0.0000007
0.0000007 0.7698254 0.0000007
0.0000007 0.7697020 0.0000007
0.0000007 0.7694662 0.0000007
0.0000007 0.7690164 0.0000007
0.0000007 0.7681937 0.0000007
0.0000007 0.7667137 0.0000007
0.4180929 0.7640429 0.0000007
0.6474362 0.7591621 0.0000007
0.7499983 0.7499983 0.0000007
0.8300054 0.7316552 0.7258408
0.9010627 0.6887156 0.8373486
0.9677143 0.4733949 0.9203179
1.0000000 0.0000007 0.9928166
0.0000007 0.8323977 0.0000007
0.0000007 0.8323977 0.0000007
0.0000007 0.8323938 0.0000007
0.0000007 0.8323820 0.0000007
0.0000007 0.8323467 0.0000007
0.0000007 0.8322762 0.0000007
0.0000007 0.8321429 0.0000007
0.0000007 0.8318921 0.0000007
0.0000007 0.8314337 0.0000007
0.0000007 0.8306077 0.0000007
0.0000007 0.8291301 0.0000007
0.4824975 0.8264745 0.0000007
0.7097745 0.8216335 0.0000007
0.8124946 0.8124985 0.0000007
0.8924159 0.7940340 0.7887856
0.9632522 0.7500196 0.9006684
1.0000000 0.4970498 0.9835553
0.0000007 0.8947541 0.0000007
0.0000007 0.8947456 0.0000007
0.0000007 0.8947499 0.0000007
0.0000007 0.8947330 0.0000007
0.0000007 0.8947162 0.0000007
0.0000007 0.8946783 0.0000007
0.0000007 0.8946067 0.0000007
0.0000007 0.8944594 0.0000007
0.0000007 0.8942111 0.0000007
0.0000007 0.8937567 0.0000007
0.0000007 0.8929327 0.0000007
0.0000007 0.8914798 0.0000007
0.5407208 0.8888614 0.0000007
0.7719408 0.8840924 0.0000007
0.8750090 0.8750008 0.0000007
0.9547794 0.8563795 0.8528664
1.0000000 0.8107393 0.9646164
0.0000007 0.9569592 0.0000007
0.0000007 0.9569592 0.0000007
0.0000007 0.9569502 0.0000007
0.0000007 0.9569502 0.0000007
0.0000007 0.9569412 0.0000007
0.0000007 0.9569188 0.0000007
0.0000007 0.9568782 0.0000007
0.0000007 0.9568018 0.0000007
0.0000007 0.9566623 0.0000007
0.0000007 0.9564105 0.0000007
0.0000007 0.9559563 0.0000007
0.0000007 0.9551700 0.0000007
0.0000007 0.9537563 0.0000007
0.5926394 0.9512122 0.0000007
0.8339714 0.9465226 0.0000007
0.9374982 0.9374982 0.0000007
1.0000000 0.9186482 0.9180693
0.0000007 1.0000000 0.0000007
0.0000007 1.0000000 0.0000007
0.0000007 1.0000000 0.0000007
0.0000007 1.0000000 0.0000007
0.0000007 1.0000000 0.0000007
0.0000007 1.0000000 0.0000007
0.0000007 1.0000000 0.0000007
0.0000007 1.0000000 0.0000007
0.0000007 1.0000000 0.0000007
0.0000007 1.0000000 0.0000007
0.0000007 1.0000000 0.0000007
0.0000007 1.0000000 0.0000007
0.0000007 1.0000000 0.0000007
0.0000007 1.0000000 0.0000007
0.6355943 1.0000000 0.0000007
0.8958032 1.0000000 0.0000007
1.0000000 1.0000000 0.0028123
0.0000007 0.0000109 0.0625000
0.0718908 0.0000007 0.0836242
0.1407264 0.0000007 0.1335601
0.2081351 0.0000007 0.1924635
0.2745637 0.0000007 0.2538314
0.3402386 0.0000007 0.3159977
0.4053014 0.0000007 0.3784568
0.4698416 0.0000007 0.4410137
0.5339330 0.0000007 0.5036012
0.5976252 0.0000007 0.5661905
0.6609555 0.0000007 0.6287574
0.7239629 0.0000007 0.6913056
0.7866691 0.0000007 0.7538248
0.8491035 0.0000007 0.8163204
0.9112872 0.0000007 0.8787984
0.9732211 0.0000007 0.9412358
1.0000000 0.0000007 1.0000000
0.0000007 0.0674726 0.0000007
0.0625000 0.0625000 0.0625000
0.1383231 0.0086580 0.1263099
0.2072072 0.0000007 0.1894785
0.2741456 0.0000007 0.2524453
0.3400312 0.0000007 0.3153037
0.4051973 0.0000007 0.3780896
0.4697859 0.0000007 0.4408127
0.5339002 0.0000007 0.5034890
0.5976082 0.0000007 0.5661262
0.6609462 0.0000007 0.6287217
0.7239595 0.0000007 0.6912861
0.7866691 0.0000007 0.7538142
0.8490995 0.0000007 0.8163088
0.9112872 0.0000007 0.8787901
0.9732211 0.0000007 0.9412358
1.0000000 0.0000007 1.0000000
0.0000007 0.1333780 0.0000007
0.0000007 0.1320369 0.0000007
0.1249998 0.1249998 0.0625000
0.2024936 0.0990892 0.1728076
0.2720606 0.0000007 0.2453140
0.3390138 0.0000007 0.3118359
0.4046661 0.0000007 0.3762914
0.4695007 0.0000007 0.4398446
0.5337459 0.0000007 0.5029547
0.5975178 0.0000007 0.5658235
0.6608993 0.0000007 0.6285523
0.7239321 0.0000007 0.6911914
0.7866505 0.0000007 0.7537609
0.8490914 0.0000007 0.8162819
0.9112787 0.0000007 0.8787777
0.9732211 0.0000007 0.9412181
1.0000000 0.0000007 1.0000000
0.0000007 0.1985382 0.0000007
0.0000007 0.1980122 0.0000007
0.0423759 0.1953861 0.0000007
0.1875007 0.1875007 0.0624997
0.2659411 0.1653642 0.2213280
0.3360979 0.0298743 0.3013631
0.4031779 0.0000007 0.3710690
0.4687038 0.0000007 0.4370733
0.5333037 0.0000007 0.5014381
0.5972747 0.0000007 0.5649831
0.6607589 0.0000007 0.6280771
0.7238570 0.0000007 0.6909173
0.7866098 0.0000007 0.7536080
0.8490714 0.0000007 0.8161935
0.9112701 0.0000007 0.8787322
0.9732119 0.0000007 0.9412004
1.0000000 0.0000007 1.0000000
0.0000007 0.2631797 0.0000007
0.0000007 0.2629395 0.0000007
0.0000007 0.2617582 0.0000007
0.1329530 0.2583594 0.0000007
0.2500004 0.2500015 0.0625015
0.3290423 0.2295101 0.2714737
0.3996531 0.1622194 0.3578936
0.4668416 0.0000007 0.4304112
0.5322915 0.0000007 0.4978659
0.5967128 0.0000007 0.5630075
0.6604437 0.0000007 0.6269706
0.7236726 0.0000007 0.6902945
0.7865059 0.0000007 0.7532526
0.8490115 0.0000007 0.8159974
0.9112358 0.0000007 0.8786164
0.9731982 0.0000007 0.9411340
1.0000000 0.0000007 1.0000000
0.0000007 0.3274168 0.0000007
0.0000007 0.3272982 0.0000007
0.0000007 0.3267153 0.0000007
0.0000007 0.3250640 0.0000007
0.2023286 0.3211561 0.0000007
0.3124999 0.3124999 0.0624982
0.3919464 0.2929149 0.3231574
0.4628842 0.2383338 0.4150701
0.5301600 0.0000007 0.4900571
0.5955341 0.0000007 0.5587988
0.6597794 0.0000007 0.6246364
0.7233039 0.0000007 0.6889855
0.7863020 0.0000007 0.7525176
0.8488916 0.0000007 0.8155822
0.9111715 0.0000007 0.8783807
0.9731570 0.0000007 0.9410145
1.0000000 0.0000007 1.0000000
0.0000007 0.3913299 0.0000007
0.0000007 0.3912704 0.0000007
0.0000007 0.3909635 0.0000007
0.0000007 0.3901073 0.0000007
0.0000007 0.3881105 0.0000007
0.2681066 0.3838566 0.0000007
0.3749991 0.3750027 0.0625037
0.4547165 0.3559716 0.3763451
0.5258848 0.3073042 0.4729908
0.5932060 0.0000007 0.5501096
0.6584871 0.0000007 0.6199496
0.7225738 0.0000007 0.6863943
0.7858908 0.0000007 0.7510674
0.8486637 0.0000007 0.8147718
0.9110472 0.0000007 0.8779260
0.9730839 0.0000007 0.9407578
1.0000000 0.0000007 1.0000000
0.0000007 0.4549583 0.0000007
0.0000007 0.4549238 0.0000007
0.0000007 0.4547619 0.0000007
0.0000007 0.4543001 0.0000007
0.0000007 0.4532361 0.0000007
0.0000007 0.4509955 0.0000007
0.3324882 0.4464898 0.0000007
0.4375011 0.4375011 0.0624854
0.5174019 0.4188147 0.4310331
0.5887104 0.3734108 0.5317220
0.6560246 0.0000007 0.6106137
0.7212078 0.0000007 0.6813758
0.7851205 0.0000007 0.7483022
0.8482362 0.0000007 0.8132415
0.9108029 0.0000007 0.8770916
0.9729558 0.0000007 0.9402978
1.0000000 0.0000007 1.0000000
0.0000007 0.5183418 0.0000007
0.0000007 0.5183222 0.0000007
0.0000007 0.5182313 0.0000007
0.0000007 0.5179784 0.0000007
0.0000007 0.5173970 0.0000007
0.0000007 0.5161725 0.0000007
0.0000007 0.5137540 0.0000007
0.3961343 0.5090759 0.0000007
0.4999972 0.4999972 0.0625146
0.5800230 0.4815372 0.4871954
0.6513917 0.4379937 0.5912644
0.7186598 0.0000007 0.6716059
0.7837080 0.0000007 0.7430929
0.8474496 0.0000007 0.8103917
0.9103745 0.0000007 0.8755240
0.9727225 0.0000007 0.9394403
1.0000000 0.0000007 1.0000000
0.0000007 0.5815125 0.0000007
0.0000007 0.5815042 0.0000007
0.0000007 0.5814520 0.0000007
0.0000007 0.5813144 0.0000007
0.0000007 0.5809872 0.0000007
0.0000007 0.5803058 0.0000007
0.0000007 0.5789700 0.0000007
0.0000007 0.5764275 0.0000007
0.4593347 0.5716353 0.0000007
0.5625013 0.5625013 0.0625006
0.6425776 0.5441685 0.5447950
0.7139608 0.5016212 0.6516225
0.7811298 0.2779564 0.7330927
0.8460300 0.0000007 0.8051010
0.9095824 0.0000007 0.8726725
0.9722973 0.0000007 0.9378995
1.0000000 0.0000007 1.0000000
0.0000007 0.6444844 0.0000007
0.0000007 0.6444844 0.0000007
0.0000007 0.6444509 0.0000007
0.0000007 0.6443717 0.0000007
0.0000007 0.6441891 0.0000007
0.0000007 0.6438056 0.0000007
0.0000007 0.6430575 0.0000007
0.0000007 0.6416460 0.0000007
0.2563550 0.6390222 0.0000007
0.5222496 0.6341599 0.0000007
0.6250026 0.6249967 0.0625009
0.7050996 0.6067191 0.6038136
0.7764121 0.5645393 0.7127824
0.8434600 0.3629519 0.7950526
0.9081882 0.0000007 0.8674092
0.9715251 0.0000007 0.9351113
1.0000000 0.0000007 1.0000000
0.0000007 0.7072830 0.0000007
0.0000007 0.7072830 0.0000007
0.0000007 0.7072696 0.0000007
0.0000007 0.7072229 0.0000007
0.0000007 0.7071161 0.0000007
0.0000007 0.7069025 0.0000007
0.0000007 0.7064822 0.0000007
0.0000007 0.7056823 0.0000007
0.0000007 0.7042248 0.0000007
0.3456180 0.7015604 0.0000007
0.5849317 0.6966758 0.0000007
0.6875004 0.6875004 0.0625591
0.7675710 0.6692214 0.6641794
0.8387775 0.6268995 0.7747045
0.9056577 0.4260822 0.8574770
0.9701605 0.0000007 0.9299968
1.0000000 0.0000007 0.9977046
0.0000007 0.7699198 0.0000007
0.0000007 0.7699198 0.0000007
0.0000007 0.7699089 0.0000007
0.0000007 0.7698835 0.0000007
0.0000007 0.7698254 0.0000007
0.0000007 0.7697020 0.0000007
0.0000007 0.7694662 0.0000007
0.0000007 0.7690164 0.0000007
0.0000007 0.7681937 0.0000007
0.0000007 0.7667137 0.0000007
0.4180929 0.7640429 0.0000007
0.6474362 0.7591621 0.0000007
0.7499983 0.7499983 0.0624991
0.8300093 0.7316552 0.7258545
0.9010627 0.6887156 0.8373565
0.9677143 0.4733994 0.9203179
1.0000000 0.0000007 0.9928260
0.0000007 0.8323977 0.0000007
0.0000007 0.8323977 0.0000007
0.0000007 0.8323938 0.0000007
0.0000007 0.8323820 0.0000007
0.0000007 0.8323428 0.0000007
0.0000007 0.8322762 0.0000007
0.0000007 0.8321429 0.0000007
0.0000007 0.8318921 0.0000007
0.0000007 0.8314337 0.0000007
0.0000007 0.8306077 0.0000007
0.0000007 0.8291301 0.0000007
0.4824929 0.8264745 0.0000007
0.7097778 0.8216335 0.0000007
0.8124946 0.8124985 0.0624991
0.8924159 0.7940340 0.7887893
0.9632522 0.7500125 0.9006768
1.0000000 0.4970498 0.9835553
0.0000007 0.8947541 0.0000007
0.0000007 0.8947541 0.0000007
0.0000007 0.8947499 0.0000007
0.0000007 0.8947330 0.0000007
0.0000007 0.8947162 0.0000007
0.0000007 0.8946783 0.0000007
0.0000007 0.8946067 0.0000007
0.0000007 0.8944678 0.0000007
0.0000007 0.8942111 0.0000007
0.0000007 0.8937567 0.0000007
0.0000007 0.8929327 0.0000007
0.0000007 0.8914798 0.0000007
0.5407208 0.8888614 0.0000007
0.7719408 0.8840924 0.0000007
0.8750090 0.8750008 0.0624991
0.9547794 0.8563795 0.8528664
1.0000000 0.8107393 0.9646164
0.0000007 0.9569592 0.0000007
0.0000007 0.9569592 0.0000007
0.0000007 0.9569502 0.0000007
0.0000007 0.9569502 0.0000007
0.0000007 0.9569412 0.0000007
0.0000007 0.9569188 0.0000007
0.0000007 0.9568782 0.0000007
0.0000007 0.9568018 0.0000007
0.0000007 0.9566623 0.0000007
0.0000007 0.9564105 0.0000007
0.0000007 0.9559563 0.0000007
0.0000007 0.9551700 0.0000007
0.0000007 0.9537563 0.0000007
0.5926338 0.9512122 0.0000007
0.8339714 0.9465226 0.0000007
0.9374982 0.9374982 0.0634094
1.0000000 0.9186482 0.9180693
0.0000007 1.0000000 0.0000007
0.0000007 1.0000000 0.0000007
0.0000007 1.0000000 0.0000007
0.0000007 1.0000000 0.0000007
0.0000007 1.0000000 0.0000007
0.0000007 1.0000000 0.0000007
0.0000007 1.0000000 0.0000007
0.0000007 1.0000000 0.0000007
0.0000007 1.0000000 0.0000007
0.0000007 1.0000000 0.0000007
0.0000007 1.0000000 0.0000007
0.0000007 1.0000000 0.0000007
0.0000007 1.0000000 0.0000007
0.0000007 1.0000000 0.0000007
0.6355943 1.0000000 0.0000007
0.8957947 1.0000000 0.0000007
1.0000000 1.0000000 0.0643072
0.0000007 0.0000129 0.1249998
0.0718908 0.0000007 0.1323965
0.1407264 0.0000007 0.1598364
0.2081351 0.0000007 0.2052032
0.2745637 0.0000007 0.2601018
0.3402386 0.0000007 0.3192067
0.4053014 0.0000007 0.3801585
0.4698416 0.0000007 0.4419403
0.5339330 0.0000007 0.5041147
0.5976252 0.0000007 0.5664774
0.6609555 0.0000007 0.6289238
0.7239629 0.0000007 0.6913970
0.7866691 0.0000007 0.7538782
0.8491035 0.0000007 0.8163473
0.9112872 0.0000007 0.8788149
0.9732211 0.0000007 0.9412446
1.0000000 0.0000007 1.0000000
0.0000007 0.0674726 0.1165700
0.0625000 0.0625000 0.1249998
0.1383231 0.0086581 0.1550832
0.2072072 0.0000007 0.2026811
0.2741456 0.0000007 0.2588143
0.3400312 0.0000007 0.3185377
0.4051973 0.0000007 0.3797970
0.4697859 0.0000007 0.4417410
0.5339002 0.0000007 0.5040072
0.5976082 0.0000007 0.5664184
0.6609462 0.0000007 0.6288852
0.7239595 0.0000007 0.6913775
0.7866691 0.0000007 0.7538639
0.8491035 0.0000007 0.8163396
0.9112872 0.0000007 0.8788149
0.9732211 0.0000007 0.9412446
1.0000000 0.0000007 1.0000000
0.0000007 0.1333780 0.0000007
0.0000007 0.1320369 0.0575970
0.1249998 0.1249998 0.1249998
0.2024926 0.0990883 0.1889617
0.2720606 0.0000007 0.2522088
0.3390138 0.0000007 0.3151880
0.4046661 0.0000007 0.3780267
0.4695007 0.0000007 0.4407814
0.5337459 0.0000007 0.5034723
0.5975178 0.0000007 0.5661182
0.6608931 0.0000007 0.6287158
0.7239321 0.0000007 0.6912795
0.7866505 0.0000007 0.7538142
0.8490914 0.0000007 0.8163127
0.9112872 0.0000007 0.8787984
0.9732211 0.0000007 0.9412269
1.0000000 0.0000007 1.0000000
0.0000007 0.1985382 0.0000007
0.0000007 0.1980122 0.0000007
0.0423759 0.1953852 0.0000007
0.1875007 0.1875007 0.1249986
0.2659411 0.1653642 0.2303964
0.3360979 0.0298742 0.3051043
0.4031779 0.0000007 0.3728958
0.4687038 0.0000007 0.4380353
0.5333037 0.0000007 0.5019614
0.5972747 0.0000007 0.5652720
0.6607589 0.0000007 0.6282374
0.7238570 0.0000007 0.6910152
0.7866098 0.0000007 0.7536578
0.8490714 0.0000007 0.8162242
0.9112701 0.0000007 0.8787404
0.9732119 0.0000007 0.9412092
1.0000000 0.0000007 1.0000000
0.0000007 0.2631797 0.0000007
0.0000007 0.2629395 0.0000007
0.0000007 0.2617582 0.0000007
0.1329517 0.2583594 0.0000007
0.2500004 0.2500015 0.1250004
0.3290423 0.2295101 0.2766345
0.3996531 0.1622194 0.3599836
0.4668416 0.0000007 0.4314448
0.5322941 0.0000007 0.4984067
0.5967128 0.0000007 0.5633034
0.6604437 0.0000007 0.6271336
0.7236726 0.0000007 0.6903858
0.7865059 0.0000007 0.7533024
0.8490115 0.0000007 0.8160242
0.9112444 0.0000007 0.8786371
0.9731982 0.0000007 0.9411428
1.0000000 0.0000007 1.0000000
0.0000007 0.3274168 0.0000007
0.0000007 0.3272982 0.0000007
0.0000007 0.3267153 0.0000007
0.0000007 0.3250640 0.0000007
0.2023296 0.3211561 0.0000007
0.3124999 0.3124999 0.1249992
0.3919464 0.2929149 0.3261364
0.4628842 0.2383350 0.4162632
0.5301600 0.0000007 0.4906431
0.5955341 0.0000007 0.5591058
0.6597794 0.0000007 0.6248077
0.7233039 0.0000007 0.6890831
0.7863020 0.0000007 0.7525709
0.8488916 0.0000007 0.8156091
0.9111629 0.0000007 0.8784013
0.9731570 0.0000007 0.9410145
1.0000000 0.0000007 1.0000000
0.0000007 0.3913299 0.0000007
0.0000007 0.3912704 0.0000007
0.0000007 0.3909635 0.0000007
0.0000007 0.3901110 0.0000007
0.0000007 0.3881105 0.0000007
0.2681066 0.3838566 0.0000007
0.3749991 0.3750027 0.1250016
0.4547165 0.3559716 0.3780860
0.5258848 0.3073057 0.4736802
0.5932060 0.0000007 0.5504457
0.6584871 0.0000007 0.6201285
0.7225738 0.0000007 0.6864883
0.7858908 0.0000007 0.7511240
0.8486637 0.0000007 0.8148025
0.9110472 0.0000007 0.8779466
0.9730930 0.0000007 0.9407666
1.0000000 0.0000007 1.0000000
0.0000007 0.4549583 0.0000007
0.0000007 0.4549238 0.0000007
0.0000007 0.4547619 0.0000007
0.0000007 0.4543001 0.0000007
0.0000007 0.4532361 0.0000007
0.0000007 0.4509955 0.0000007
0.3324882 0.4464898 0.0000007
0.4375011 0.4374969 0.1249974
0.5173995 0.4188227 0.4320498
0.5887104 0.3734108 0.5321201
0.6560246 0.0000007 0.6108072
0.7212078 0.0000007 0.6814788
0.7851205 0.0000007 0.7483658
0.8482362 0.0000007 0.8132721
0.9108029 0.0000007 0.8770998
0.9729558 0.0000007 0.9403066
1.0000000 0.0000007 1.0000000
0.0000007 0.5183418 0.0000007
0.0000007 0.5183247 0.0000007
0.0000007 0.5182313 0.0000007
0.0000007 0.5179784 0.0000007
0.0000007 0.5173970 0.0000007
0.0000007 0.5161725 0.0000007
0.0000007 0.5137491 0.0000007
0.3961343 0.5090759 0.0000007
0.4999972 0.4999972 0.1250010
0.5800202 0.4815372 0.4877988
0.6513917 0.4379937 0.5914966
0.7186598 0.0000007 0.6717201
0.7837080 0.0000007 0.7431490
0.8474496 0.0000007 0.8104261
0.9103745 0.0000007 0.8755364
0.9727225 0.0000007 0.9394491
1.0000000 0.0000007 1.0000000
0.0000007 0.5815125 0.0000007
0.0000007 0.5815042 0.0000007
0.0000007 0.5814520 0.0000007
0.0000007 0.5813144 0.0000007
0.0000007 0.5809872 0.0000007
0.0000007 0.5803058 0.0000007
0.0000007 0.5789700 0.0000007
0.0000007 0.5764275 0.0000007
0.4593347 0.5716353 0.0000007
0.5625013 0.5625013 0.1249998
0.6425776 0.5441685 0.5451512
0.7139608 0.5016212 0.6517580
0.7811298 0.2779564 0.7331550
0.8460300 0.0000007 0.8051390
0.9095824 0.0000007 0.8726807
0.9722973 0.0000007 0.9379083
1.0000000 0.0000007 1.0000000
0.0000007 0.6444844 0.0000007
0.0000007 0.6444844 0.0000007
0.0000007 0.6444509 0.0000007
0.0000007 0.6443717 0.0000007
0.0000007 0.6441891 0.0000007
0.0000007 0.6438056 0.0000007
0.0000007 0.6430575 0.0000007
0.0000007 0.6416460 0.0000007
0.2563550 0.6390222 0.0000007
0.5222496 0.6341659 0.0000007
0.6249967 0.6249967 0.1250004
0.7050996 0.6067191 0.6040193
0.7764121 0.5645393 0.7128598
0.8434600 0.3629519 0.7950901
0.9081797 0.0000007 0.8674296
0.9715251 0.0000007 0.9351113
1.0000000 0.0000007 1.0000000
0.0000007 0.7072830 0.0000007
0.0000007 0.7072830 0.0000007
0.0000007 0.7072696 0.0000007
0.0000007 0.7072229 0.0000007
0.0000007 0.7071161 0.0000007
0.0000007 0.7069025 0.0000007
0.0000007 0.7064822 0.0000007
0.0000007 0.7056890 0.0000007
0.0000007 0.7042248 0.0000007
0.3456180 0.7015604 0.0000007
0.5849317 0.6966758 0.0000007
0.6875004 0.6875004 0.1249835
0.7675710 0.6692151 0.6643018
0.8387775 0.6268995 0.7747447
0.9056577 0.4260822 0.8575053
0.9701696 0.0000007 0.9299968
1.0000000 0.0000007 0.9977093
0.0000007 0.7699198 0.0000007
0.0000007 0.7699198 0.0000007
0.0000007 0.7699089 0.0000007
0.0000007 0.7698835 0.0000007
0.0000007 0.7698254 0.0000007
0.0000007 0.7697020 0.0000007
0.0000007 0.7694662 0.0000007
0.0000007 0.7690127 0.0000007
0.0000007 0.7681937 0.0000007
0.0000007 0.7667137 0.0000007
0.4180890 0.7640429 0.0000007
0.6474392 0.7591621 0.0000007
0.7499983 0.7499983 0.1249998
0.8300093 0.7316552 0.7259230
0.9010627 0.6887156 0.8373841
0.9677143 0.4733994 0.9203353
1.0000000 0.0000007 0.9928260
