looks/cb_deut_g22.cube
LUT_3D_SIZE 6
0.0000000 0.0000000 0.0000000
0.2330217 0.0000000 0.2032064
0.4660435 0.0000000 0.4064128
0.6990651 0.0000000 0.6096192
0.9320868 0.0000000 0.8128255
1.0000000 0.0000000 1.0000000
0.0000000 0.2173132 0.0000000
0.2000000 0.2000000 0.0002648
0.4526497 0.1120665 0.3635101
0.6909162 0.0000000 0.5842732
0.9263359 0.0000000 0.7950935
1.0000000 0.0000000 1.0000000
0.0000000 0.4346264 0.0000000
0.0000000 0.4273762 0.0000000
0.3999999 0.4000000 0.0000000
0.6606202 0.3426456 0.4796878
0.9052992 0.2241333 0.7270201
1.0000000 0.0000000 0.9521091
0.0000000 0.6519396 0.0000000
0.0000000 0.6475092 0.0000000
0.2709775 0.6312732 0.0000000
0.5999999 0.6000000 0.0000000
0.8649621 0.5491692 0.5761159
1.0000000 0.4698195 0.8497819
0.0000000 0.8692528 0.0000000
0.0000000 0.8661218 0.0000000
0.0000000 0.8547524 0.0000000
0.4923066 0.8333367 0.0000000
0.7999998 0.8000001 0.0000000
1.0000000 0.7521002 0.6606621
0.0000000 1.0000000 0.0000000
0.0000000 1.0000000 0.0000000
0.0000000 1.0000000 0.0000000
0.2682699 1.0000000 0.0000000
0.7005442 1.0000000 0.0000000
0.9999998 1.0000000 0.0000000
0.0000000 0.0000785 0.2000000
0.2330217 0.0000000 0.2762776
0.4660434 0.0000000 0.4432229
0.6990651 0.0000000 0.6329478
0.9320868 0.0000000 0.8295180
1.0000000 0.0000000 1.0000000
0.0000000 0.2173132 0.0000000
0.2000000 0.2000000 0.2000000
0.4526496 0.1120666 0.4050275
0.6909162 0.0000000 0.6087686
0.9263359 0.0000000 0.8122236
1.0000000 0.0000000 1.0000000
0.0000000 0.4346264 0.0000000
0.0000000 0.4273762 0.0000000
0.3999999 0.4000001 0.1999998
0.6606202 0.3426456 0.5103281
0.9052992 0.2241331 0.7460402
1.0000000 0.0000000 0.9659653
0.0000000 0.6519396 0.0000000
0.0000000 0.6475092 0.0000000
0.2709778 0.6312732 0.0000000
0.5999999 0.6000000 0.2000000
0.8649620 0.5491693 0.6010091
1.0000000 0.4698195 0.8656247
0.0000000 0.8692529 0.0000000
0.0000000 0.8661218 0.0000000
0.0000000 0.8547525 0.0000000
0.4923063 0.8333368 0.0000000
0.7999998 0.8000001 0.1999986
1.0000000 0.7521002 0.6819212
0.0000000 1.0000000 0.0000000
0.0000000 1.0000000 0.0000000
0.0000000 1.0000000 0.0000000
0.2682698 1.0000000 0.0000000
0.7005442 1.0000000 0.0000000
0.9999996 1.0000000 0.1999987
0.0000000 0.0001475 0.4000000
0.2330217 0.0000000 0.4387169
0.4660434 0.0000000 0.5525553
0.6990651 0.0000000 0.7093784
0.9320868 0.0000000 0.8864458
1.0000000 0.0000000 1.0000000
0.0000000 0.2173132 0.3561589
0.2000000 0.2000000 0.4000000
0.4526496 0.1120666 0.5238547
0.6909162 0.0000000 0.6884013
0.9263359 0.0000000 0.8705031
1.0000000 0.0000000 1.0000000
0.0000000 0.4346264 0.0000000
0.0000000 0.4273762 0.1879272
0.4000000 0.4000000 0.4000002
0.6606203 0.3426456 0.6056991
0.9052993 0.2241331 0.8100551
1.0000000 0.0000000 1.0000000
0.0000000 0.6519396 0.0000000
0.0000000 0.6475090 0.0000000
0.2709777 0.6312732 0.0000000
0.6000000 0.6000000 0.4000003
0.8649622 0.5491692 0.6817185
1.0000000 0.4698194 0.9199021
0.0000000 0.8692528 0.0000000
0.0000000 0.8661217 0.0000000
0.0000000 0.8547524 0.0000000
0.4923064 0.8333367 0.0000000
0.7999998 0.8000001 0.3999994
1.0000000 0.7521002 0.7525039
0.0000000 1.0000000 0.0000000
0.0000000 1.0000000 0.0000000
0.0000000 1.0000000 0.0000000
0.2682702 1.0000000 0.0000000
0.7005447 1.0000000 0.0000000
0.9999997 1.0000000 0.3999994
0.0002021 0.0001475 0.6000000
0.2330218 0.0000000 0.6245856
0.4660435 0.0000000 0.7046714
0.6990651 0.0000000 0.8288328
0.9320869 0.0000000 0.9811034
1.0000000 0.0000000 1.0000000
0.0000000 0.2173132 0.5741416
0.2000001 0.2000000 0.6000001
0.4526496 0.1120666 0.6835204
0.6909162 0.0000000 0.8115208
0.9263360 0.0000000 0.9670190
1.0000000 0.0000000 1.0000000
0.0000000 0.4346265 0.4667760
0.0000000 0.4273763 0.4994469
0.4000000 0.4000000 0.6000000
0.6606203 0.3426456 0.7452618
0.9052991 0.2241334 0.9142230
1.0000000 0.0000000 1.0000000
0.0000000 0.6519396 0.0000000
0.0000000 0.6475091 0.1628570
0.2709775 0.6312732 0.3905425
0.5999999 0.6000000 0.6000000
0.8649620 0.5491692 0.8060451
1.0000000 0.4698194 1.0000000
0.0000000 0.8692528 0.0000000
0.0000000 0.8661218 0.0000000
0.0000000 0.8547525 0.0000000
0.4923061 0.8333368 0.1961800
0.7999997 0.8000001 0.5999997
1.0000000 0.7521003 0.8649735
0.0000000 1.0000000 0.0000000
0.0000000 1.0000000 0.0000000
0.0000000 1.0000000 0.0000000
0.2682695 1.0000000 0.0000000
0.7005441 1.0000000 0.0000000
0.9999998 1.0000000 0.5999997
0.0000000 0.0002021 0.8000000
0.2330217 0.0000000 0.8176046
0.4660434 0.0000000 0.8774337
0.6990651 0.0000000 0.9763359
0.9320868 0.0000000 1.0000000
1.0000000 0.0000000 1.0000000
0.0000000 0.2173132 0.7819178
0.1999997 0.2000001 0.8000000
0.4526495 0.1120667 0.8612902
0.6909163 0.0000000 0.9621679
0.9263359 0.0000000 1.0000000
1.0000000 0.0000000 1.0000000
0.0000000 0.4346265 0.7123177
0.0000000 0.4273763 0.7324783
0.3999999 0.4000000 0.8000000
0.6606202 0.3426456 0.9090314
0.9052992 0.2241333 1.0000000
1.0000000 0.0000000 1.0000000
0.0000000 0.6519396 0.5565150
0.0000000 0.6475092 0.5833105
0.2709773 0.6312732 0.6693079
0.5999998 0.6000001 0.7999999
0.8649620 0.5491692 0.9577097
1.0000000 0.4698194 1.0000000
0.0000000 0.8692528 0.0000000
0.0000000 0.8661218 0.1128230
0.0000000 0.8547525 0.3758542
0.4923062 0.8333368 0.5913492
0.7999997 0.8000001 0.7999997
1.0000000 0.7521002 1.0000000
0.0000000 1.0000000 0.0000000
0.0000000 1.0000000 0.0000000
0.0000000 1.0000000 0.0000000
0.2682697 1.0000000 0.0000000
0.7005444 1.0000000 0.4922841
0.9999997 1.0000000 0.7999998
0.0000000 0.0002769 1.0000000
0.2330218 0.0000000 1.0000000
0.4660434 0.0000000 1.0000000
0.6990651 0.0000000 1.0000000
0.9320868 0.0000000 1.0000000
1.0000000 0.0000000 1.0000000
0.0000000 0.2173132 0.9862394
0.1999999 0.2000000 0.9999999
0.4526497 0.1120663 1.0000000
0.6909162 0.0000000 1.0000000
0.9263359 0.0000000 1.0000000
1.0000000 0.0000000 1.0000000
0.0000000 0.4346264 0.9347514
0.0000000 0.4273763 0.9494112
0.4000000 0.4000001 1.0000000
0.6606203 0.3426456 1.0000000
0.9052992 0.2241333 1.0000000
1.0000000 0.0000000 1.0000000
0.0000000 0.6519396 0.8298230
0.0000000 0.6475092 0.8466879
0.2709771 0.6312732 0.9042334
0.6000000 0.6000000 1.0000000
0.8649622 0.5491692 1.0000000
1.0000000 0.4698195 1.0000000
0.0000000 0.8692527 0.6333696
0.0000000 0.8661217 0.6564704
0.0000000 0.8547525 0.7324478
0.4923061 0.8333368 0.8518518
0.7999999 0.8000001 1.0000000
1.0000000 0.7521002 1.0000000
0.0000000 1.0000000 0.0000000
0.0000000 1.0000000 0.0000000
0.0000000 1.0000000 0.3548338
0.2682702 1.0000000 0.5794100
0.7005443 1.0000000 0.7917418
0.9999999 1.0000000 1.0000000
