looks/cb_deut_pq.cube
LUT_3D_SIZE 5
0.0000007 0.0000007 0.0000007
0.2745637 0.0000007 0.2524948
0.5339330 0.0000007 0.5034938
0.7866691 0.0000007 0.7538142
1.0000000 0.0000007 1.0000000
0.0000007 0.2631797 0.0000007
0.2500004 0.2500015 0.0002356
0.5322941 0.0000007 0.4977550
0.7865059 0.0000007 0.7532420
1.0000000 0.0000007 1.0000000
0.0000007 0.5183418 0.0000007
0.0000007 0.5173970 0.0000007
0.4999972 0.4999972 0.0001165
0.7837080 0.0000007 0.7430789
1.0000000 0.0000007 1.0000000
0.0000007 0.7699198 0.0000007
0.0000007 0.7698254 0.0000007
0.0000007 0.7681937 0.0000007
0.7499983 0.7499983 0.0000007
1.0000000 0.0000007 0.9928166
0.0000007 1.0000000 0.0000007
0.0000007 1.0000000 0.0000007
0.0000007 1.0000000 0.0000007
0.0000007 1.0000000 0.0000007
1.0000000 1.0000000 0.0028123
0.0000007 0.0000300 0.2500004
0.2745637 0.0000007 0.3034987
0.5339330 0.0000007 0.5087623
0.7866691 0.0000007 0.7543654
1.0000000 0.0000007 1.0000000
0.0000007 0.2631797 0.0000007
0.2500004 0.2500015 0.2500004
0.5322941 0.0000007 0.5033029
0.7865059 0.0000007 0.7537964
1.0000000 0.0000007 1.0000000
0.0000007 0.5183418 0.0000007
0.0000007 0.5173970 0.0000007
0.4999972 0.4999972 0.2500004
0.7837080 0.0000007 0.7436891
1.0000000 0.0000007 1.0000000
0.0000007 0.7699198 0.0000007
0.0000007 0.7698254 0.0000007
0.0000007 0.7681937 0.0000007
0.7499983 0.7499983 0.2500051
1.0000000 0.0000007 0.9928773
0.0000007 1.0000000 0.0000007
0.0000007 1.0000000 0.0000007
0.0000007 1.0000000 0.0000007
0.0000007 1.0000000 0.0000007
1.0000000 1.0000000 0.2499059
0.0000007 0.0001694 0.4999972
0.2745650 0.0000007 0.5056225
0.5339330 0.0000007 0.5725532
0.7866691 0.0000007 0.7632687
1.0000000 0.0000007 1.0000000
0.0000007 0.2631797 0.4940587
0.2500015 0.2500004 0.4999972
0.5322915 0.0000007 0.5695531
0.7865059 0.0000007 0.7627434
1.0000000 0.0000007 1.0000000
0.0000007 0.5183418 0.0000007
0.0000007 0.5173970 0.1897679
0.4999972 0.4999972 0.4999972
0.7837080 0.0000007 0.7534623
1.0000000 0.0000007 1.0000000
0.0000007 0.7699198 0.0000007
0.0000007 0.7698254 0.0000007
0.0000007 0.7681937 0.0000007
0.7499983 0.7499983 0.4999972
1.0000000 0.0000007 0.9938437
0.0000007 1.0000000 0.0000007
0.0000007 1.0000000 0.0000007
0.0000007 1.0000000 0.0000007
0.0000007 1.0000000 0.0000007
1.0000000 1.0000000 0.4999996
0.0000007 0.0005519 0.7499983
0.2745650 0.0000007 0.7505893
0.5339330 0.0000007 0.7601115
0.7866691 0.0000007 0.8275186
1.0000000 0.0000007 1.0000000
0.0000007 0.2631797 0.7494078
0.2499992 0.2500004 0.7499983
0.5322915 0.0000007 0.7595668
0.7865059 0.0000007 0.8272302
1.0000000 0.0000007 1.0000000
0.0000007 0.5183418 0.7388669
0.0000007 0.5173970 0.7395190
0.4999972 0.4999972 0.7499983
0.7837080 0.0000007 0.8221911
1.0000000 0.0000007 1.0000000
0.0000007 0.7699198 0.0000007
0.0000007 0.7698254 0.0000007
0.0000007 0.7681937 0.4585658
0.7499983 0.7499983 0.7499983
1.0000000 0.0000007 1.0000000
0.0000007 1.0000000 0.0000007
0.0000007 1.0000000 0.0000007
0.0000007 1.0000000 0.0000007
0.0000007 1.0000000 0.0000007
1.0000000 1.0000000 0.7500018
0.0000007 0.0018746 1.0000000
0.2745624 0.0000007 1.0000000
0.5339280 0.0000007 1.0000000
0.7866728 0.0000007 1.0000000
1.0000000 0.0000007 1.0000000
0.0000007 0.2631784 0.9999389
0.2499980 0.2500027 1.0000000
0.5322890 0.0000007 1.0000000
0.7865096 0.0000007 1.0000000
1.0000000 0.0000007 1.0000000
0.0000007 0.5183418 0.9989995
0.0000007 0.5173921 0.9990512
0.4999996 0.4999972 1.0000000
0.7837080 0.0000007 1.0000000
1.0000000 0.0000007 1.0000000
0.0000007 0.7699162 0.9887374
0.0000007 0.7698254 0.9887978
0.0000007 0.7681937 0.9898487
0.7499983 0.7499983 1.0000000
1.0000000 0.0000007 1.0000000
0.0000007 1.0000000 0.0000007
0.0000007 1.0000000 0.0000007
0.0000007 1.0000000 0.0000007
0.0000007 1.0000000 0.7070059
1.0000000 1.0000000 1.0000000
