looks/cb_deut_g22.cube
LUT_3D_SIZE 11
0.0000000 0.0000000 0.0000000
0.1165109 0.0000000 0.1016032
0.2330217 0.0000000 0.2032064
0.3495326 0.0000000 0.3048096
0.4660435 0.0000000 0.4064128
0.5825543 0.0000000 0.5080159
0.6990651 0.0000000 0.6096192
0.8155760 0.0000000 0.7112224
0.9320868 0.0000000 0.8128255
1.0000000 0.0000000 0.9144288
1.0000000 0.0000000 1.0000000
0.0000000 0.1086566 0.0000000
0.1000000 0.1000000 0.0000367
0.2263248 0.0560333 0.1817551
0.3454581 0.0000000 0.2921366
0.4631680 0.0000000 0.3975468
0.5803575 0.0000000 0.5012677
0.6973014 0.0000000 0.6042114
0.8141108 0.0000000 0.7067348
0.9308388 0.0000000 0.8090061
1.0000000 0.0000000 0.9111148
1.0000000 0.0000000 1.0000000
0.0000000 0.2173132 0.0000000
0.0000000 0.2136881 0.0000000
0.2000000 0.2000000 0.0002648
0.3303101 0.1713228 0.2398439
0.4526497 0.1120665 0.3635101
0.5723767 0.0000000 0.4760546
0.6909162 0.0000000 0.5842732
0.8088169 0.0000000 0.6903126
0.9263359 0.0000000 0.7950935
1.0000000 0.0000000 0.8990809
1.0000000 0.0000000 1.0000000
0.0000000 0.3259698 0.0000000
0.0000000 0.3237546 0.0000000
0.1354885 0.3156366 0.0000000
0.3000000 0.3000000 0.0004973
0.4324811 0.2745847 0.2880579
0.5573269 0.2349098 0.4248908
0.6789745 0.1680999 0.5452651
0.7989628 0.0000000 0.6587923
0.9179781 0.0000000 0.7686915
1.0000000 0.0000000 0.8764097
1.0000000 0.0000000 0.9827075
0.0000000 0.4346264 0.0000000
0.0000000 0.4330609 0.0000000
0.0000000 0.4273762 0.0000000
0.2461532 0.4166684 0.0000000
0.3999999 0.4000000 0.0000000
0.5338508 0.3760501 0.3303309
0.6606202 0.3426456 0.4796878
0.7839397 0.2955859 0.6079267
0.9052992 0.2241333 0.7270201
1.0000000 0.0426700 0.8411093
1.0000000 0.0000000 0.9521091
0.0000000 0.5432830 0.0000000
0.0000000 0.5420862 0.0000000
0.0000000 0.5377577 0.0000000
0.1341351 0.5296792 0.0000000
0.3502722 0.5173077 0.0000000
0.4999999 0.5000000 0.0001475
0.6347952 0.4768860 0.3685136
0.7630686 0.4466768 0.5297265
0.8878166 0.4072754 0.6656660
1.0000000 0.3547940 0.7903649
1.0000000 0.2801666 0.9087750
0.0000000 0.6519396 0.0000000
0.0000000 0.6509784 0.0000000
0.0000000 0.6475092 0.0000000
0.0000000 0.6410643 0.0000000
0.2709775 0.6312732 0.0000000
0.4524912 0.6177431 0.0000000
0.5999999 0.6000000 0.0000000
0.7354861 0.5774269 0.4036530
0.8649621 0.5491692 0.5761159
0.9909304 0.5139683 0.7195320
1.0000000 0.4698195 0.8497819
0.0000000 0.7605962 0.0000000
0.0000000 0.7597975 0.0000000
0.0000000 0.7569183 0.0000000
0.0000000 0.7515838 0.0000000
0.0823279 0.7435161 0.0000000
0.3847365 0.7324423 0.0000000
0.5538846 0.7180584 0.0000000
0.7000002 0.6999999 0.0009191
0.8360135 0.6778058 0.4364107
0.9664710 0.6508673 0.6195893
1.0000000 0.6183450 0.7702458
0.0000000 0.8692528 0.0000000
0.0000000 0.8685725 0.0000000
0.0000000 0.8661218 0.0000000
0.0000000 0.8615888 0.0000000
0.0000000 0.8547524 0.0000000
0.2784097 0.8454069 0.0000000
0.4923066 0.8333367 0.0000000
0.6548423 0.8182976 0.0000000
0.7999998 0.8000001 0.0000000
0.9364296 0.7780861 0.4672372
1.0000000 0.7521002 0.6606621
0.0000000 0.9779094 0.0000000
0.0000000 0.9773189 0.0000000
0.0000000 0.9751925 0.0000000
0.0000000 0.9712638 0.0000000
0.0000000 0.9653495 0.0000000
0.0000000 0.9572862 0.0000000
0.4064654 0.9469098 0.0000000
0.5971560 0.9340433 0.0000000
0.7555407 0.9184855 0.0000000
0.8999999 0.9000001 0.0000000
1.0000000 0.8783016 0.4964551
0.0000000 1.0000000 0.0000000
0.0000000 1.0000000 0.0000000
0.0000000 1.0000000 0.0000000
0.0000000 1.0000000 0.0000000
0.0000000 1.0000000 0.0000000
0.0000000 1.0000000 0.0000000
0.2682699 1.0000000 0.0000000
0.5217223 1.0000000 0.0000000
0.7005442 1.0000000 0.0000000
0.8560739 1.0000000 0.0000000
0.9999998 1.0000000 0.0000000
0.0000000 0.0000463 0.1000000
0.1165109 0.0000000 0.1381388
0.2330217 0.0000000 0.2216114
0.3495326 0.0000000 0.3164739
0.4660434 0.0000000 0.4147590
0.5825543 0.0000000 0.5144317
0.6990651 0.0000000 0.6147869
0.8155759 0.0000000 0.7155236
0.9320868 0.0000000 0.8164933
1.0000000 0.0000000 0.9176151
1.0000000 0.0000000 1.0000000
0.0000000 0.1086566 0.0000000
0.1000000 0.1000000 0.1000000
0.2263248 0.0560333 0.2025138
0.3454581 0.0000000 0.3043844
0.4631680 0.0000000 0.4061118
0.5803575 0.0000000 0.5077857
0.6973014 0.0000000 0.6094342
0.8141107 0.0000000 0.7110686
0.9308388 0.0000000 0.8126946
1.0000000 0.0000000 0.9143150
1.0000000 0.0000000 1.0000000
0.0000000 0.2173132 0.0000000
0.0000000 0.2136881 0.0000000
0.2000000 0.2000000 0.1000000
0.3303102 0.1713227 0.2551641
0.4526497 0.1120665 0.3730201
0.5723767 0.0000000 0.4829826
0.6909162 0.0000000 0.5897084
0.8088169 0.0000000 0.6947697
0.9263359 0.0000000 0.7988592
1.0000000 0.0000000 0.9023322
1.0000000 0.0000000 1.0000000
0.0000000 0.3259698 0.0000000
0.0000000 0.3237545 0.0000000
0.1354887 0.3156366 0.0000000
0.3000000 0.3000000 0.1000004
0.4324811 0.2745847 0.3005046
0.5573269 0.2349098 0.4328123
0.6789744 0.1680999 0.5511649
0.7989628 0.0000000 0.6635044
0.9179781 0.0000000 0.7726120
1.0000000 0.0000000 0.8797620
1.0000000 0.0000000 0.9856308
0.0000000 0.4346265 0.0000000
0.0000000 0.4330609 0.0000000
0.0000000 0.4273762 0.0000000
0.2461531 0.4166684 0.0000000
0.3999999 0.4000001 0.0999996
0.5338508 0.3760502 0.3409605
0.6606202 0.3426456 0.4865538
0.7839397 0.2955859 0.6131114
0.9052991 0.2241333 0.7312102
1.0000000 0.0426693 0.8446304
1.0000000 0.0000000 0.9551454
0.0000000 0.5432830 0.0000000
0.0000000 0.5420863 0.0000000
0.0000000 0.5377578 0.0000000
0.1341347 0.5296792 0.0000000
0.3502722 0.5173077 0.0000000
0.4999999 0.5000000 0.1000000
0.6347952 0.4768860 0.3778731
0.7630686 0.4466769 0.5358318
0.8878165 0.4072753 0.6703203
1.0000000 0.3547940 0.7941574
1.0000000 0.2801668 0.9119850
0.0000000 0.6519396 0.0000000
0.0000000 0.6509785 0.0000000
0.0000000 0.6475092 0.0000000
0.0000000 0.6410643 0.0000000
0.2709774 0.6312732 0.0000000
0.4524911 0.6177431 0.0000000
0.5999998 0.6000000 0.1000000
0.7354861 0.5774270 0.4120662
0.8649621 0.5491692 0.5816426
0.9909305 0.5139683 0.7237741
1.0000000 0.4698194 0.8532599
0.0000000 0.7605962 0.0000000
0.0000000 0.7597975 0.0000000
0.0000000 0.7569183 0.0000000
0.0000000 0.7515838 0.0000000
0.0823270 0.7435161 0.0000000
0.3847364 0.7324423 0.0000000
0.5538847 0.7180584 0.0000000
0.7000000 0.6999999 0.1000016
0.8360136 0.6778058 0.4440868
0.9664710 0.6508673 0.6246588
1.0000000 0.6183451 0.7741569
0.0000000 0.8692528 0.0000000
0.0000000 0.8685726 0.0000000
0.0000000 0.8661218 0.0000000
0.0000000 0.8615889 0.0000000
0.0000000 0.8547524 0.0000000
0.2784093 0.8454070 0.0000000
0.4923064 0.8333368 0.0000000
0.6548420 0.8182977 0.0000000
0.7999999 0.8000001 0.1000000
0.9364295 0.7780861 0.4743194
1.0000000 0.7521002 0.6653580
0.0000000 0.9779095 0.0000000
0.0000000 0.9773189 0.0000000
0.0000000 0.9751925 0.0000000
0.0000000 0.9712638 0.0000000
0.0000000 0.9653494 0.0000000
0.0000000 0.9572862 0.0000000
0.4064654 0.9469098 0.0000000
0.5971559 0.9340432 0.0000000
0.7555407 0.9184855 0.0000000
0.9000000 0.9000001 0.0999999
1.0000000 0.8783017 0.5030479
0.0000000 1.0000000 0.0000000
0.0000000 1.0000000 0.0000000
0.0000000 1.0000000 0.0000000
0.0000000 1.0000000 0.0000000
0.0000000 1.0000000 0.0000000
0.0000000 1.0000000 0.0000000
0.2682702 1.0000000 0.0000000
0.5217218 1.0000000 0.0000000
0.7005443 1.0000000 0.0000000
0.8560738 1.0000000 0.0000000
0.9999997 1.0000000 0.0999968
0.0000000 0.0000785 0.2000000
0.1165109 0.0000000 0.2193584
0.2330217 0.0000000 0.2762776
0.3495326 0.0000000 0.3546892
0.4660434 0.0000000 0.4432229
0.5825543 0.0000000 0.5367402
0.6990651 0.0000000 0.6329478
0.8155760 0.0000000 0.7307357
0.9320868 0.0000000 0.8295180
1.0000000 0.0000000 0.9289613
1.0000000 0.0000000 1.0000000
0.0000000 0.1086566 0.1780795
0.1000000 0.1000000 0.2000000
0.2263248 0.0560333 0.2619273
0.3454581 0.0000000 0.3442007
0.4631680 0.0000000 0.4352515
0.5803575 0.0000000 0.5304287
0.6973014 0.0000000 0.6277806
0.8141107 0.0000000 0.7263926
0.9308388 0.0000000 0.8257911
1.0000000 0.0000000 0.9257097
1.0000000 0.0000000 1.0000000
0.0000000 0.2173132 0.0000000
0.0000000 0.2136881 0.0939637
0.2000000 0.2000000 0.2000000
0.3303101 0.1713228 0.3028496
0.4526496 0.1120666 0.4050275
0.5723767 0.0000000 0.5069569
0.6909162 0.0000000 0.6087686
0.8088169 0.0000000 0.7105156
0.9263359 0.0000000 0.8122236
1.0000000 0.0000000 0.9139062
1.0000000 0.0000000 1.0000000
0.0000000 0.3259698 0.0000000
0.0000000 0.3237546 0.0000000
0.1354884 0.3156366 0.0000000
0.3000000 0.3000000 0.2000000
0.4324810 0.2745847 0.3408592
0.5573268 0.2349099 0.4599509
0.6789744 0.1680999 0.5717737
0.7989628 0.0000000 0.6801214
0.9179782 0.0000000 0.7865125
1.0000000 0.0000000 0.8916879
1.0000000 0.0000000 0.9960551
0.0000000 0.4346264 0.0000000
0.0000000 0.4330609 0.0000000
0.0000000 0.4273762 0.0000000
0.2461532 0.4166684 0.0000000
0.3999999 0.4000001 0.1999998
0.5338508 0.3760501 0.3762520
0.6606202 0.3426456 0.5103281
0.7839397 0.2955858 0.6313301
0.9052992 0.2241331 0.7460402
1.0000000 0.0426687 0.8571447
1.0000000 0.0000000 0.9659653
0.0000000 0.5432830 0.0000000
0.0000000 0.5420862 0.0000000
0.0000000 0.5377577 0.0000000
0.1341353 0.5296792 0.0000000
0.3502723 0.5173076 0.0000000
0.4999999 0.4999999 0.2000003
0.6347952 0.4768860 0.4094298
0.7630686 0.4466768 0.5571211
0.8878166 0.4072754 0.6867400
1.0000000 0.3547941 0.8076150
1.0000000 0.2801669 0.9234141
0.0000000 0.6519396 0.0000000
0.0000000 0.6509784 0.0000000
0.0000000 0.6475092 0.0000000
0.0000000 0.6410643 0.0000000
0.2709778 0.6312732 0.0000000
0.4524912 0.6177431 0.0000000
0.5999999 0.6000000 0.2000000
0.7354861 0.5774269 0.4407376
0.8649620 0.5491693 0.6010091
0.9909304 0.5139684 0.7387829
1.0000000 0.4698195 0.8656247
0.0000000 0.7605962 0.0000000
0.0000000 0.7597976 0.0000000
0.0000000 0.7569183 0.0000000
0.0000000 0.7515839 0.0000000
0.0823274 0.7435162 0.0000000
0.3847363 0.7324423 0.0000000
0.5538846 0.7180585 0.0000000
0.7000000 0.7000000 0.2000007
0.8360135 0.6778058 0.4704519
0.9664710 0.6508673 0.6424860
1.0000000 0.6183452 0.7880245
0.0000000 0.8692529 0.0000000
0.0000000 0.8685726 0.0000000
0.0000000 0.8661218 0.0000000
0.0000000 0.8615889 0.0000000
0.0000000 0.8547525 0.0000000
0.2784101 0.8454069 0.0000000
0.4923063 0.8333368 0.0000000
0.6548423 0.8182976 0.0000000
0.7999998 0.8000001 0.1999986
0.9364296 0.7780861 0.4987925
1.0000000 0.7521002 0.6819212
0.0000000 0.9779094 0.0000000
0.0000000 0.9773189 0.0000000
0.0000000 0.9751925 0.0000000
0.0000000 0.9712638 0.0000000
0.0000000 0.9653494 0.0000000
0.0000000 0.9572862 0.0000000
0.4064653 0.9469098 0.0000000
0.5971560 0.9340433 0.0000000
0.7555405 0.9184856 0.0000000
0.8999999 0.9000001 0.2000000
1.0000000 0.8783017 0.5259349
0.0000000 1.0000000 0.0000000
0.0000000 1.0000000 0.0000000
0.0000000 1.0000000 0.0000000
0.0000000 1.0000000 0.0000000
0.0000000 1.0000000 0.0000000
0.0000000 1.0000000 0.0000000
0.2682698 1.0000000 0.0000000
0.5217223 1.0000000 0.0000000
0.7005442 1.0000000 0.0000000
0.8560738 1.0000000 0.0000000
0.9999996 1.0000000 0.1999987
0.0000000 0.0001076 0.3000000
0.1165109 0.0000000 0.3122928
0.2330217 0.0000000 0.3523357
0.3495326 0.0000000 0.4144164
0.4660435 0.0000000 0.4905517
0.5825543 0.0000000 0.5751265
0.6990651 0.0000000 0.6648344
0.8155760 0.0000000 0.7577847
0.9320868 0.0000000 0.8528712
1.0000000 0.0000000 0.9494216
1.0000000 0.0000000 1.0000000
0.0000000 0.1086566 0.2870708
0.1000000 0.1000000 0.3000000
0.2263248 0.0560333 0.3417602
0.3454581 0.0000000 0.4057605
0.4631680 0.0000000 0.4835095
0.5803575 0.0000000 0.5693230
0.6973014 0.0000000 0.6599655
0.8141108 0.0000000 0.7536279
0.9308388 0.0000000 0.8492669
1.0000000 0.0000000 0.9462544
1.0000000 0.0000000 1.0000000
0.0000000 0.2173132 0.2333881
0.0000000 0.2136881 0.2497236
0.2000000 0.2000000 0.3000000
0.3303101 0.1713228 0.3726309
0.4526497 0.1120665 0.4571115
0.5723768 0.0000000 0.5478480
0.6909163 0.0000000 0.6420957
0.8088170 0.0000000 0.7384528
0.9263359 0.0000000 0.8361561
1.0000000 0.0000000 0.9347620
1.0000000 0.0000000 1.0000000
0.0000000 0.3259698 0.0000000
0.0000000 0.3237546 0.0814283
0.1354885 0.3156366 0.1952712
0.3000001 0.3000000 0.3000001
0.4324811 0.2745846 0.4030226
0.5573269 0.2349098 0.5054272
0.6789745 0.1680998 0.6075413
0.7989628 0.0000000 0.7094964
0.9179782 0.0000000 0.8113557
1.0000000 0.0000000 0.9131528
1.0000000 0.0000000 1.0000000
0.0000000 0.4346264 0.0000000
0.0000000 0.4330609 0.0000000
0.0000000 0.4273762 0.0000000
0.2461535 0.4166683 0.0980909
0.4000000 0.4000000 0.3000000
0.5338508 0.3760502 0.4324867
0.6606202 0.3426456 0.5509213
0.7839396 0.2955859 0.6633095
0.9052992 0.2241333 0.7724497
1.0000000 0.0426699 0.8796231
1.0000000 0.0000000 0.9855096
0.0000000 0.5432830 0.0000000
0.0000000 0.5420863 0.0000000
0.0000000 0.5377578 0.0000000
0.1341351 0.5296792 0.0000000
0.3502722 0.5173077 0.0000000
0.4999999 0.5000000 0.3000000
0.6347951 0.4768861 0.4609244
0.7630686 0.4466769 0.5939444
0.8878167 0.4072753 0.7157908
1.0000000 0.3547940 0.8317062
1.0000000 0.2801666 0.9440187
0.0000000 0.6519396 0.0000000
0.0000000 0.6509784 0.0000000
0.0000000 0.6475092 0.0000000
0.0000000 0.6410643 0.0000000
0.2709772 0.6312732 0.0000000
0.4524913 0.6177431 0.0000000
0.5999999 0.6000000 0.3000000
0.7354863 0.5774269 0.4883530
0.8649621 0.5491692 0.6348233
0.9909305 0.5139683 0.7654923
1.0000000 0.4698195 0.8878466
0.0000000 0.7605962 0.0000000
0.0000000 0.7597976 0.0000000
0.0000000 0.7569183 0.0000000
0.0000000 0.7515839 0.0000000
0.0823278 0.7435161 0.0000000
0.3847363 0.7324423 0.0000000
0.5538849 0.7180584 0.0000000
0.7000000 0.7000000 0.3000004
0.8360136 0.6778058 0.5148284
0.9664709 0.6508674 0.6738343
1.0000000 0.6183451 0.8128126
0.0000000 0.8692528 0.0000000
0.0000000 0.8685726 0.0000000
0.0000000 0.8661218 0.0000000
0.0000000 0.8615888 0.0000000
0.0000000 0.8547524 0.0000000
0.2784089 0.8454070 0.0000000
0.4923067 0.8333367 0.0000000
0.6548422 0.8182976 0.0000000
0.7999999 0.8000001 0.2999992
0.9364297 0.7780860 0.5404207
1.0000000 0.7521002 0.7112074
0.0000000 0.9779094 0.0000000
0.0000000 0.9773189 0.0000000
0.0000000 0.9751925 0.0000000
0.0000000 0.9712638 0.0000000
0.0000000 0.9653494 0.0000000
0.0000000 0.9572862 0.0000000
0.4064654 0.9469098 0.0000000
0.5971563 0.9340432 0.0000000
0.7555408 0.9184855 0.0000000
0.8999997 0.9000001 0.2999992
1.0000000 0.8783017 0.5651981
0.0000000 1.0000000 0.0000000
0.0000000 1.0000000 0.0000000
0.0000000 1.0000000 0.0000000
0.0000000 1.0000000 0.0000000
0.0000000 1.0000000 0.0000000
0.0000000 1.0000000 0.0000000
0.2682696 1.0000000 0.0000000
0.5217221 1.0000000 0.0000000
0.7005445 1.0000000 0.0000000
0.8560737 1.0000000 0.0000000
0.9999996 1.0000000 0.2999992
0.0000000 0.0001475 0.4000000
0.1165109 0.0000000 0.4088023
0.2330217 0.0000000 0.4387169
0.3495326 0.0000000 0.4881680
0.4660434 0.0000000 0.5525553
0.5825543 0.0000000 0.6274050
0.6990651 0.0000000 0.7093784
0.8155760 0.0000000 0.7962191
0.9320868 0.0000000 0.8864458
1.0000000 0.0000000 0.9790839
1.0000000 0.0000000 1.0000000
0.0000000 0.1086566 0.3909589
0.0999999 0.1000001 0.4000000
0.2263248 0.0560333 0.4306451
0.3454581 0.0000000 0.4810839
0.4631679 0.0000000 0.5464626
0.5803575 0.0000000 0.6221824
0.6973014 0.0000000 0.7048767
0.8141108 0.0000000 0.7923033
0.9308388 0.0000000 0.8830055
1.0000000 0.0000000 0.9760318
1.0000000 0.0000000 1.0000000
0.0000000 0.2173132 0.3561589
0.0000000 0.2136881 0.3662392
0.2000000 0.2000000 0.4000000
0.3303101 0.1713228 0.4545157
0.4526496 0.1120666 0.5238547
0.5723768 0.0000000 0.6029580
0.6909162 0.0000000 0.6884013
0.8088170 0.0000000 0.7780309
0.9263359 0.0000000 0.8705031
1.0000000 0.0000000 0.9649642
1.0000000 0.0000000 1.0000000
0.0000000 0.3259698 0.2782576
0.0000000 0.3237546 0.2916552
0.1354883 0.3156366 0.3346539
0.3000000 0.3000000 0.4000000
0.4324810 0.2745847 0.4788548
0.5573268 0.2349098 0.5655036
0.6789745 0.1680998 0.6567703
0.7989628 0.0000000 0.7509051
0.9179782 0.0000000 0.8469090
1.0000000 0.0000000 0.9441842
1.0000000 0.0000000 1.0000000
0.0000000 0.4346264 0.0000000
0.0000000 0.4330609 0.0564117
0.0000000 0.4273762 0.1879272
0.2461532 0.4166684 0.2956745
0.4000000 0.4000000 0.4000002
0.5338508 0.3760501 0.5031279
0.6606203 0.3426456 0.6056991
0.7839397 0.2955858 0.7079681
0.9052993 0.2241331 0.8100551
1.0000000 0.0426679 0.9120246
1.0000000 0.0000000 1.0000000
0.0000000 0.5432830 0.0000000
0.0000000 0.5420862 0.0000000
0.0000000 0.5377577 0.0000000
0.1341352 0.5296792 0.0000000
0.3502721 0.5173077 0.2461420
0.5000001 0.5000000 0.4000002
0.6347953 0.4768860 0.5270967
0.7630687 0.4466768 0.6444138
0.8878167 0.4072752 0.7567891
1.0000000 0.3547938 0.8662645
1.0000000 0.2801665 0.9738780
0.0000000 0.6519396 0.0000000
0.0000000 0.6509784 0.0000000
0.0000000 0.6475090 0.0000000
0.0000000 0.6410642 0.0000000
0.2709777 0.6312732 0.0000000
0.4524913 0.6177430 0.1763675
0.6000000 0.6000000 0.4000003
0.7354863 0.5774268 0.5506504
0.8649622 0.5491692 0.6817185
0.9909306 0.5139682 0.8034869
1.0000000 0.4698194 0.9199021
0.0000000 0.7605961 0.0000000
0.0000000 0.7597975 0.0000000
0.0000000 0.7569183 0.0000000
0.0000000 0.7515838 0.0000000
0.0823289 0.7435160 0.0000000
0.3847366 0.7324423 0.0000000
0.5538848 0.7180584 0.0000000
0.7000003 0.6999999 0.4000006
0.8360139 0.6778058 0.5737395
0.9664710 0.6508673 0.7177135
1.0000000 0.6183450 0.8482930
0.0000000 0.8692528 0.0000000
0.0000000 0.8685725 0.0000000
0.0000000 0.8661217 0.0000000
0.0000000 0.8615889 0.0000000
0.0000000 0.8547524 0.0000000
0.2784094 0.8454069 0.0000000
0.4923064 0.8333367 0.0000000
0.6548424 0.8182976 0.0000000
0.7999998 0.8000001 0.3999994
0.9364298 0.7780860 0.5963480
1.0000000 0.7521002 0.7525039
0.0000000 0.9779094 0.0000000
0.0000000 0.9773189 0.0000000
0.0000000 0.9751925 0.0000000
0.0000000 0.9712638 0.0000000
0.0000000 0.9653494 0.0000000
0.0000000 0.9572862 0.0000000
0.4064658 0.9469098 0.0000000
0.5971565 0.9340432 0.0000000
0.7555409 0.9184855 0.0000000
0.8999999 0.9000001 0.4000000
1.0000000 0.8783016 0.6184776
0.0000000 1.0000000 0.0000000
0.0000000 1.0000000 0.0000000
0.0000000 1.0000000 0.0000000
0.0000000 1.0000000 0.0000000
0.0000000 1.0000000 0.0000000
0.0000000 1.0000000 0.0000000
0.2682702 1.0000000 0.0000000
0.5217221 1.0000000 0.0000000
0.7005447 1.0000000 0.0000000
0.8560739 1.0000000 0.0000000
0.9999997 1.0000000 0.3999994
0.0000000 0.0002021 0.5000000
0.1165108 0.0000000 0.5067685
0.2330218 0.0000000 0.5302503
0.3495326 0.0000000 0.5704861
0.4660434 0.0000000 0.6250086
0.5825543 0.0000000 0.6906940
0.6990652 0.0000000 0.7647197
0.8155760 0.0000000 0.8448743
0.9320868 0.0000000 0.9295345
1.0000000 0.0000000 1.0000000
1.0000000 0.0000000 1.0000000
0.0000000 0.1086566 0.4931197
0.1000000 0.1000000 0.5000000
0.2263248 0.0560335 0.5238447
0.3454581 0.0000000 0.5646253
0.4631679 0.0000000 0.6197616
0.5803575 0.0000000 0.6860448
0.6973013 0.0000000 0.7606084
0.8141108 0.0000000 0.8412289
0.9308389 0.0000000 0.9262853
1.0000000 0.0000000 1.0000000
1.0000000 0.0000000 1.0000000
0.0000000 0.2173132 0.4673757
0.0000000 0.2136881 0.4747057
0.2000000 0.2000000 0.5000000
0.3303101 0.1713228 0.5429263
0.4526497 0.1120666 0.6004438
0.5723767 0.0000000 0.6690101
0.6909162 0.0000000 0.7456040
0.8088170 0.0000000 0.8279648
0.9263359 0.0000000 0.9144907
1.0000000 0.0000000 1.0000000
1.0000000 0.0000000 1.0000000
0.0000000 0.3259698 0.4149114
0.0000000 0.3237546 0.4233439
0.1354886 0.3156366 0.4521166
0.3000000 0.3000000 0.5000000
0.4324810 0.2745846 0.5627874
0.5573268 0.2349098 0.6362140
0.6789744 0.1680998 0.7169954
0.7989628 0.0000000 0.8028597
0.9179782 0.0000000 0.8922901
1.0000000 0.0000000 0.9842750
1.0000000 0.0000000 1.0000000
0.0000000 0.4346264 0.3166847
0.0000000 0.4330609 0.3282351
0.0000000 0.4273762 0.3662240
0.2461533 0.4166684 0.4259259
0.3999999 0.4000001 0.5000000
0.5338508 0.3760501 0.5829593
0.6606203 0.3426456 0.6714312
0.7839398 0.2955858 0.7634311
0.9052991 0.2241333 0.8577759
1.0000000 0.0426693 0.9537373
1.0000000 0.0000000 1.0000000
0.0000000 0.5432830 0.0000000
0.0000000 0.5420862 0.0000000
0.0000000 0.5377577 0.1774173
0.1341353 0.5296792 0.2897050
0.3502723 0.5173077 0.3958710
0.5000001 0.5000000 0.5000000
0.6347953 0.4768860 0.6031988
0.7630686 0.4466769 0.7058959
0.8878166 0.4072753 0.8082931
1.0000000 0.3547939 0.9104968
1.0000000 0.2801667 1.0000000
0.0000000 0.6519397 0.0000000
0.0000000 0.6509784 0.0000000
0.0000000 0.6475092 0.0000000
0.0000000 0.6410643 0.0000000
0.2709769 0.6312732 0.1649634
0.4524912 0.6177430 0.3611822
0.5999999 0.6000000 0.5000000
0.7354863 0.5774269 0.6233664
0.8649621 0.5491692 0.7395374
0.9909305 0.5139682 0.8516474
1.0000000 0.4698194 0.9612070
0.0000000 0.7605962 0.0000000
0.0000000 0.7597975 0.0000000
0.0000000 0.7569183 0.0000000
0.0000000 0.7515838 0.0000000
0.0823288 0.7435161 0.0000000
0.3847364 0.7324423 0.0000000
0.5538847 0.7180584 0.3203672
0.7000002 0.6999999 0.5000004
0.8360137 0.6778057 0.6433778
0.9664711 0.6508673 0.7723448
1.0000000 0.6183451 0.8935902
0.0000000 0.8692528 0.0000000
0.0000000 0.8685726 0.0000000
0.0000000 0.8661218 0.0000000
0.0000000 0.8615889 0.0000000
0.0000000 0.8547525 0.0000000
0.2784100 0.8454069 0.0000000
0.4923061 0.8333368 0.0000000
0.6548420 0.8182977 0.2703988
0.7999997 0.8000001 0.4999996
0.9364296 0.7780862 0.6631829
1.0000000 0.7521002 0.8043351
0.0000000 0.9779096 0.0000000
0.0000000 0.9773189 0.0000000
0.0000000 0.9751925 0.0000000
0.0000000 0.9712638 0.0000000
0.0000000 0.9653494 0.0000000
0.0000000 0.9572862 0.0000000
0.4064654 0.9469098 0.0000000
0.5971559 0.9340433 0.0000000
0.7555403 0.9184856 0.2035808
0.8999997 0.9000002 0.4999996
1.0000000 0.8783017 0.6827518
0.0000000 1.0000000 0.0000000
0.0000000 1.0000000 0.0000000
0.0000000 1.0000000 0.0000000
0.0000000 1.0000000 0.0000000
0.0000000 1.0000000 0.0000000
0.0000000 1.0000000 0.0000000
0.2682696 1.0000000 0.0000000
0.5217219 1.0000000 0.0000000
0.7005445 1.0000000 0.0000000
0.8560737 1.0000000 0.0752988
0.9999996 1.0000000 0.4999991
0.0002021 0.0001475 0.6000000
0.1165108 0.0000000 0.6054529
0.2330218 0.0000000 0.6245856
0.3495327 0.0000000 0.6580753
0.4660435 0.0000000 0.7046714
0.5825543 0.0000000 0.7623166
0.6990651 0.0000000 0.8288328
0.8155761 0.0000000 0.9022855
0.9320869 0.0000000 0.9811034
1.0000000 0.0000000 1.0000000
1.0000000 0.0000000 1.0000000
0.0000000 0.1086566 0.5944870
0.1000000 0.0999999 0.6000000
0.2263248 0.0560333 0.6193345
0.3454581 0.0000000 0.6531458
0.4631679 0.0000000 0.7001334
0.5803575 0.0000000 0.7581897
0.6973014 0.0000000 0.8251022
0.8141108 0.0000000 0.8989179
0.9308389 0.0000000 0.9780588
1.0000000 0.0000000 1.0000000
1.0000000 0.0000000 1.0000000
0.0000000 0.2173132 0.5741416
0.0000000 0.2136881 0.5798874
0.2000001 0.2000000 0.6000001
0.3303101 0.1713229 0.6350448
0.4526496 0.1120666 0.6835204
0.5723767 0.0000000 0.7431266
0.6909162 0.0000000 0.8115208
0.8088169 0.0000000 0.8866845
0.9263360 0.0000000 0.9670190
1.0000000 0.0000000 1.0000000
1.0000000 0.0000000 1.0000000
0.0000000 0.3259698 0.5342383
0.0000000 0.3237546 0.5404965
0.1354886 0.3156366 0.5623077
0.3000000 0.3000000 0.6000001
0.4324811 0.2745847 0.6516035
0.5573269 0.2349098 0.7143983
0.6789745 0.1680997 0.7857821
0.7989629 0.0000000 0.8636217
0.9179781 0.0000000 0.9462933
1.0000000 0.0000000 1.0000000
1.0000000 0.0000000 1.0000000
0.0000000 0.4346265 0.4667760
0.0000000 0.4330609 0.4741171
0.0000000 0.4273763 0.4994469
0.2461532 0.4166684 0.5424253
0.4000000 0.4000000 0.6000000
0.5338508 0.3760501 0.6686203
0.6606203 0.3426456 0.7452618
0.7839397 0.2955858 0.8276631
0.9052991 0.2241334 0.9142230
1.0000000 0.0426711 1.0000000
1.0000000 0.0000000 1.0000000
0.0000000 0.5432830 0.3505589
0.0000000 0.5420862 0.3608268
0.0000000 0.5377577 0.3951389
0.1341359 0.5296792 0.4503532
0.3502724 0.5173076 0.5203494
0.5000001 0.4999999 0.6000001
0.6347952 0.4768861 0.6858801
0.7630686 0.4466768 0.7758554
0.8878165 0.4072753 0.8686025
1.0000000 0.3547940 0.9632850
1.0000000 0.2801667 1.0000000
0.0000000 0.6519396 0.0000000
0.0000000 0.6509784 0.0000000
0.0000000 0.6475091 0.1628570
0.0000000 0.6410643 0.2818913
0.2709775 0.6312732 0.3905425
0.4524912 0.6177431 0.4959867
0.5999999 0.6000000 0.6000000
