looks/cb_prot_g22.cube
LUT_3D_SIZE 6
0.0000000 0.0000000 0.0000000
0.2247779 0.0000000 0.1876186
0.4495557 0.0000000 0.3752373
0.6743336 0.0000000 0.5628559
0.8991114 0.0000000 0.7504745
1.0000000 0.0000000 0.9380932
0.0000000 0.2178577 0.0000000
0.2000000 0.2000000 0.0000573
0.4393394 0.1076214 0.3356256
0.6681042 0.0000000 0.5394542
0.8947122 0.0000000 0.7341028
1.0000000 0.0000000 0.9256319
0.0000000 0.4357155 0.0000000
0.0000000 0.4282458 0.0000000
0.3999999 0.4000000 0.0000000
0.6451119 0.3405487 0.4428914
0.8786788 0.2152429 0.6712511
1.0000000 0.0000000 0.8790739
0.0000000 0.6535731 0.0000000
0.0000000 0.6490094 0.0000000
0.3118003 0.6322758 0.0000000
0.5999999 0.6000000 0.0000000
0.8482111 0.5473909 0.5319225
1.0000000 0.4647534 0.7845959
0.0000000 0.8714309 0.0000000
0.0000000 0.8682058 0.0000000
0.0000000 0.8564917 0.0000000
0.5236630 0.8344120 0.0000000
0.7999998 0.8000001 0.0000000
1.0000000 0.7504532 0.6099831
0.0000000 1.0000000 0.0000000
0.0000000 1.0000000 0.0000000
0.0000000 1.0000000 0.0000000
0.3918157 1.0000000 0.0000000
0.7286834 1.0000000 0.0000000
0.9999998 1.0000000 0.0000000
0.0000000 0.0000785 0.2000000
0.2247778 0.0000000 0.2657493
0.4495557 0.0000000 0.4153686
0.6743336 0.0000000 0.5884215
0.8991114 0.0000000 0.7688024
1.0000000 0.0000000 0.9521940
0.0000000 0.2178577 0.0794377
0.2000000 0.2000000 0.2000000
0.4393394 0.1076214 0.3807915
0.6681042 0.0000000 0.5662881
0.8947122 0.0000000 0.7529089
1.0000000 0.0000000 0.9399571
0.0000000 0.4357155 0.0000000
0.0000000 0.4282459 0.0000000
0.3999999 0.4000001 0.2000000
0.6451119 0.3405487 0.4763820
0.8786787 0.2152429 0.6921219
1.0000000 0.0000000 0.8942974
0.0000000 0.6535732 0.0000000
0.0000000 0.6490093 0.0000000
0.3118003 0.6322758 0.0000000
0.5999999 0.6000000 0.1999994
0.8482109 0.5473911 0.5591887
1.0000000 0.4647534 0.8019947
0.0000000 0.8714309 0.0000000
0.0000000 0.8682059 0.0000000
0.0000000 0.8564917 0.0000000
0.5236630 0.8344121 0.0000000
0.7999998 0.8000001 0.1999989
1.0000000 0.7504533 0.6332958
0.0000000 1.0000000 0.0000000
0.0000000 1.0000000 0.0000000
0.0000000 1.0000000 0.0000000
0.3918156 1.0000000 0.0000000
0.7286832 1.0000000 0.0000000
0.9999996 1.0000000 0.1999979
0.0000000 0.0001076 0.4000000
0.2247778 0.0000000 0.4327619
0.4495558 0.0000000 0.5314987
0.6743336 0.0000000 0.6709306
0.8991114 0.0000000 0.8307370
1.0000000 0.0000000 1.0000000
0.0000000 0.2178577 0.3636497
0.2000000 0.2000000 0.4000000
0.4393394 0.1076214 0.5063419
0.6681042 0.0000000 0.6521322
0.8947122 0.0000000 0.8162833
1.0000000 0.0000000 0.9894158
0.0000000 0.4357155 0.1588750
0.0000000 0.4282458 0.2383867
0.4000000 0.4000000 0.4000000
0.6451119 0.3405487 0.5784250
0.8786788 0.2152429 0.7615830
1.0000000 0.0000000 0.9466212
0.0000000 0.6535731 0.0000000
0.0000000 0.6490093 0.0000000
0.3118003 0.6322758 0.0000000
0.6000000 0.6000000 0.4000000
0.8482111 0.5473909 0.6461512
1.0000000 0.4647533 0.8611007
0.0000000 0.8714308 0.0000000
0.0000000 0.8682058 0.0000000
0.0000000 0.8564917 0.0000000
0.5236635 0.8344119 0.0000000
0.7999999 0.8000001 0.4000000
1.0000000 0.7504532 0.7096821
0.0000000 1.0000000 0.0000000
0.0000000 1.0000000 0.0000000
0.0000000 1.0000000 0.0000000
0.3918161 1.0000000 0.0000000
0.7286833 1.0000000 0.0000000
0.9999997 1.0000000 0.3999996
0.0002021 0.0001475 0.6000000
0.2247779 0.0000000 0.6207054
0.4495557 0.0000000 0.6890966
0.6743336 0.0000000 0.7972480
0.8991114 0.0000000 0.9321731
1.0000000 0.0000000 1.0000000
0.0000000 0.2178577 0.5783995
0.2000000 0.2000000 0.6000000
0.4393394 0.1076214 0.6709093
0.6681042 0.0000000 0.7820473
0.8947122 0.0000000 0.9196154
1.0000000 0.0000000 1.0000000
0.0000000 0.4357155 0.4912000
0.0000000 0.4282459 0.5172393
0.4000000 0.4000000 0.6000000
0.6451119 0.3405487 0.7242125
0.8786787 0.2152430 0.8726699
1.0000000 0.0000000 1.0000000
0.0000000 0.6535732 0.2383129
0.0000000 0.6490093 0.2943056
0.3118003 0.6322758 0.4327258
0.5999998 0.6000001 0.5999998
0.8482111 0.5473909 0.7772465
1.0000000 0.4647534 0.9587424
0.0000000 0.8714309 0.0000000
0.0000000 0.8682058 0.0000000
0.0000000 0.8564917 0.0000000
0.5236629 0.8344121 0.3092985
0.7999997 0.8000001 0.5999997
1.0000000 0.7504533 0.8290846
0.0000000 1.0000000 0.0000000
0.0000000 1.0000000 0.0000000
0.0000000 1.0000000 0.0000000
0.3918157 1.0000000 0.0000000
0.7286834 1.0000000 0.0000000
0.9999998 1.0000000 0.5999994
0.0000000 0.0002021 0.8000000
0.2247777 0.0000000 0.8148005
0.4495557 0.0000000 0.8655237
0.6743336 0.0000000 0.9505715
0.8991114 0.0000000 1.0000000
1.0000000 0.0000000 1.0000000
0.0000000 0.2178578 0.7848634
0.1999998 0.2000001 0.8000000
0.4393393 0.1076215 0.8517768
0.6681043 0.0000000 0.9383092
0.8947122 0.0000000 1.0000000
1.0000000 0.0000000 1.0000000
0.0000000 0.4357154 0.7272994
0.0000000 0.4282459 0.7438505
0.3999999 0.4000000 0.8000000
0.6451119 0.3405487 0.8925478
0.8786788 0.2152429 1.0000000
1.0000000 0.0000000 1.0000000
0.0000000 0.6535731 0.6038636
0.0000000 0.6490094 0.6244158
0.3118004 0.6322758 0.6923722
0.5999998 0.6000001 0.7999999
0.8482109 0.5473911 0.9344557
1.0000000 0.4647535 1.0000000
0.0000000 0.8714309 0.3177503
0.0000000 0.8682058 0.3597155
0.0000000 0.8564917 0.4767735
0.5236630 0.8344120 0.6306448
0.7999997 0.8000001 0.7999998
1.0000000 0.7504532 0.9765428
0.0000000 1.0000000 0.0000000
0.0000000 1.0000000 0.0000000
0.0000000 1.0000000 0.0000000
0.3918155 1.0000000 0.1891011
0.7286833 1.0000000 0.5561085
0.9999997 1.0000000 0.7999998
0.0000000 0.0003795 0.9999999
0.2247778 0.0000000 1.0000000
0.4495557 0.0000000 1.0000000
0.6743336 0.0000000 1.0000000
0.8991114 0.0000000 1.0000000
1.0000000 0.0000000 1.0000000
0.0000000 0.2178577 0.9884709
0.1999999 0.2000000 0.9999999
0.4393395 0.1076211 1.0000000
0.6681042 0.0000000 1.0000000
0.8947121 0.0000000 1.0000000
1.0000000 0.0000000 1.0000000
0.0000000 0.4357154 0.9456246
0.0000000 0.4282459 0.9577748
0.4000000 0.4000001 0.9999999
0.6451119 0.3405487 1.0000000
0.8786788 0.2152428 1.0000000
1.0000000 0.0000000 1.0000000
0.0000000 0.6535731 0.8599839
0.0000000 0.6490094 0.8735762
0.3118001 0.6322758 0.9204666
0.6000000 0.6000001 0.9999999
0.8482110 0.5473910 1.0000000
1.0000000 0.4647535 1.0000000
0.0000000 0.8714308 0.7082732
0.0000000 0.8682058 0.7253455
0.0000000 0.8564918 0.7830805
0.5236629 0.8344122 0.8777521
0.7999998 0.8000001 0.9999998
1.0000000 0.7504532 1.0000000
0.0000000 1.0000000 0.3971880
0.0000000 1.0000000 0.4302045
0.0000000 1.0000000 0.5295032
0.3918161 1.0000000 0.6694233
0.7286833 1.0000000 0.8295712
0.9999999 1.0000000 1.0000000
