looks/cb_prot_g22.cube
LUT_3D_SIZE 11
0.0000000 0.0000000 0.0000000
0.1123889 0.0000000 0.0938093
0.2247779 0.0000000 0.1876186
0.3371668 0.0000000 0.2814280
0.4495557 0.0000000 0.3752373
0.5619446 0.0000000 0.4690466
0.6743336 0.0000000 0.5628559
0.7867225 0.0000000 0.6566652
0.8991114 0.0000000 0.7504745
1.0000000 0.0000000 0.8442839
1.0000000 0.0000000 0.9380932
0.0000000 0.1089289 0.0000000
0.1000000 0.1000000 0.0000000
0.2196697 0.0538107 0.1678128
0.3340521 0.0000000 0.2697271
0.4473561 0.0000000 0.3670514
0.5602636 0.0000000 0.4628160
0.6729837 0.0000000 0.5578629
0.7856010 0.0000000 0.6525219
0.8981561 0.0000000 0.7469481
1.0000000 0.0000000 0.8412242
1.0000000 0.0000000 0.9353982
0.0000000 0.2178577 0.0000000
0.0000000 0.2141229 0.0000000
0.2000000 0.2000000 0.0000573
0.3225559 0.1702743 0.2214458
0.4393394 0.1076214 0.3356256
0.5541703 0.0000000 0.4395369
0.6681042 0.0000000 0.5394542
0.7815534 0.0000000 0.6373595
0.8947122 0.0000000 0.7341028
1.0000000 0.0000000 0.8301132
1.0000000 0.0000000 0.9256319
0.0000000 0.3267866 0.0000000
0.0000000 0.3245047 0.0000000
0.1558999 0.3161380 0.0000000
0.3000000 0.3000000 0.0000785
0.4241055 0.2736955 0.2659613
0.5427390 0.2323769 0.3922978
0.6590091 0.1614321 0.5034384
0.7740368 0.0000000 0.6082569
0.8883309 0.0000000 0.7097259
1.0000000 0.0000000 0.8091812
1.0000000 0.0000000 0.9073250
0.0000000 0.4357155 0.0000000
0.0000000 0.4341029 0.0000000
0.0000000 0.4282458 0.0000000
0.2618316 0.4172060 0.0000000
0.3999999 0.4000000 0.0000000
0.5250741 0.3752266 0.3049916
0.6451119 0.3405487 0.4428914
0.7626233 0.2913486 0.5612931
0.8786788 0.2152429 0.6712511
0.9938172 0.0000000 0.7765888
1.0000000 0.0000000 0.8790739
0.0000000 0.5446442 0.0000000
0.0000000 0.5434116 0.0000000
0.0000000 0.5389525 0.0000000
0.1959082 0.5306268 0.0000000
0.3643417 0.5178683 0.0000000
0.4999999 0.5000000 0.0001475
0.6257375 0.4760986 0.3402452
0.7468637 0.4447813 0.4890916
0.8654276 0.4037659 0.6146033
0.9824110 0.3487207 0.7297369
1.0000000 0.2690537 0.8390638
0.0000000 0.6535731 0.0000000
0.0000000 0.6525832 0.0000000
0.0000000 0.6490094 0.0000000
0.0000000 0.6423687 0.0000000
0.3118003 0.6322758 0.0000000
0.4657387 0.6183195 0.0000000
0.5999999 0.6000000 0.0000000
0.7262207 0.5766622 0.3726892
0.8482111 0.5473909 0.5319225
0.9676679 0.5108228 0.6643373
1.0000000 0.4647534 0.7845959
0.0000000 0.7625020 0.0000000
0.0000000 0.7616794 0.0000000
0.0000000 0.7587135 0.0000000
0.0000000 0.7532176 0.0000000
0.2276850 0.7449033 0.0000000
0.4192558 0.7334858 0.0000000
0.5666315 0.7186463 0.0000000
0.7000001 0.6999999 0.0000000
0.8265880 0.6770569 0.4029339
0.9492798 0.6491659 0.5720614
1.0000000 0.6154208 0.7111610
0.0000000 0.8714309 0.0000000
0.0000000 0.8707302 0.0000000
0.0000000 0.8682058 0.0000000
0.0000000 0.8635360 0.0000000
0.0000000 0.8564917 0.0000000
0.3544170 0.8468589 0.0000000
0.5236630 0.8344120 0.0000000
0.6672511 0.8188944 0.0000000
0.7999998 0.8000001 0.0000000
0.9268769 0.7773488 0.4313955
1.0000000 0.7504532 0.6099831
0.0000000 0.9803597 0.0000000
0.0000000 0.9797514 0.0000000
0.0000000 0.9775612 0.0000000
0.0000000 0.9735141 0.0000000
0.0000000 0.9674205 0.0000000
0.2539663 0.9591108 0.0000000
0.4677001 0.9484138 0.0000000
0.6265916 0.9351438 0.0000000
0.7677065 0.9190891 0.0000000
0.8999999 0.9000002 0.0000000
1.0000000 0.8775731 0.4583721
0.0000000 1.0000000 0.0000000
0.0000000 1.0000000 0.0000000
0.0000000 1.0000000 0.0000000
0.0000000 1.0000000 0.0000000
0.0000000 1.0000000 0.0000000
0.0000000 1.0000000 0.0000000
0.3918157 1.0000000 0.0000000
0.5758598 1.0000000 0.0000000
0.7286834 1.0000000 0.0000000
0.8680557 1.0000000 0.0000000
0.9999998 1.0000000 0.0000000
0.0000000 0.0000418 0.1000000
0.1123889 0.0000000 0.1328747
0.2247779 0.0000000 0.2076842
0.3371668 0.0000000 0.2942108
0.4495557 0.0000000 0.3844013
0.5619447 0.0000000 0.4760970
0.6743336 0.0000000 0.5685376
0.7867225 0.0000000 0.6613955
0.8991113 0.0000000 0.7545089
1.0000000 0.0000000 0.8477890
1.0000000 0.0000000 0.9411836
0.0000000 0.1089289 0.0397188
0.1000000 0.1000000 0.1000000
0.2196697 0.0538107 0.1903958
0.3340521 0.0000000 0.2831441
0.4473561 0.0000000 0.3764545
0.5602637 0.0000000 0.4699786
0.6729838 0.0000000 0.5636051
0.7856010 0.0000000 0.6572880
0.8981561 0.0000000 0.7510051
1.0000000 0.0000000 0.8447446
1.0000000 0.0000000 0.9384993
0.0000000 0.2178577 0.0000000
0.0000000 0.2141229 0.0000000
0.2000000 0.2000000 0.0999999
0.3225560 0.1702742 0.2381911
0.4393394 0.1076213 0.3460610
0.5541703 0.0000000 0.4471487
0.6681042 0.0000000 0.5454294
0.7815533 0.0000000 0.6422608
0.8947122 0.0000000 0.7382447
1.0000000 0.0000000 0.8336900
1.0000000 0.0000000 0.9287722
0.0000000 0.3267865 0.0000000
0.0000000 0.3245047 0.0000000
0.1559002 0.3161379 0.0000000
0.3000000 0.3000000 0.1000000
0.4241055 0.2736955 0.2795944
0.5427390 0.2323768 0.4009973
0.6590091 0.1614322 0.5099232
0.7740368 0.0000000 0.6134384
0.8883309 0.0000000 0.7140380
1.0000000 0.0000000 0.8128687
1.0000000 0.0000000 0.9105411
0.0000000 0.4357155 0.0000000
0.0000000 0.4341029 0.0000000
0.0000000 0.4282458 0.0000000
0.2618316 0.4172060 0.0000000
0.3999999 0.4000001 0.0999994
0.5250740 0.3752267 0.3166477
0.6451118 0.3405487 0.4504353
0.7626233 0.2913486 0.5669935
0.8786787 0.2152430 0.6758593
0.9938172 0.0000000 0.7804618
1.0000000 0.0000000 0.8824139
0.0000000 0.5446442 0.0000000
0.0000000 0.5434116 0.0000000
0.0000000 0.5389525 0.0000000
0.1959079 0.5306268 0.0000000
0.3643416 0.5178683 0.0000000
0.4999999 0.5000000 0.1000000
0.6257375 0.4760986 0.3505163
0.7468636 0.4447814 0.4958019
0.8654276 0.4037660 0.6197213
0.9824109 0.3487208 0.7339082
1.0000000 0.2690537 0.8425950
0.0000000 0.6535731 0.0000000
0.0000000 0.6525832 0.0000000
0.0000000 0.6490093 0.0000000
0.0000000 0.6423687 0.0000000
0.3118003 0.6322758 0.0000000
0.4657389 0.6183194 0.0000000
0.5999998 0.6000001 0.0999988
0.7262207 0.5766623 0.3819264
0.8482110 0.5473909 0.5379981
0.9676678 0.5108230 0.6690026
1.0000000 0.4647534 0.7884218
0.0000000 0.7625019 0.0000000
0.0000000 0.7616794 0.0000000
0.0000000 0.7587135 0.0000000
0.0000000 0.7532176 0.0000000
0.2276849 0.7449033 0.0000000
0.4192559 0.7334858 0.0000000
0.5666313 0.7186463 0.0000000
0.7000000 0.7000000 0.1000000
0.8265880 0.6770569 0.4113647
0.9492798 0.6491659 0.5776347
1.0000000 0.6154208 0.7154627
0.0000000 0.8714309 0.0000000
0.0000000 0.8707302 0.0000000
0.0000000 0.8682058 0.0000000
0.0000000 0.8635361 0.0000000
0.0000000 0.8564917 0.0000000
0.3544166 0.8468589 0.0000000
0.5236632 0.8344119 0.0000000
0.6672509 0.8188944 0.0000000
0.7999998 0.8000001 0.0999951
0.9268769 0.7773488 0.4391763
1.0000000 0.7504532 0.6151472
0.0000000 0.9803597 0.0000000
0.0000000 0.9797515 0.0000000
0.0000000 0.9775612 0.0000000
0.0000000 0.9735141 0.0000000
0.0000000 0.9674205 0.0000000
0.2539663 0.9591109 0.0000000
0.4676999 0.9484138 0.0000000
0.6265915 0.9351437 0.0000000
0.7677064 0.9190892 0.0000000
0.8999999 0.9000002 0.0999975
1.0000000 0.8775731 0.4656171
0.0000000 1.0000000 0.0000000
0.0000000 1.0000000 0.0000000
0.0000000 1.0000000 0.0000000
0.0000000 1.0000000 0.0000000
0.0000000 1.0000000 0.0000000
0.0000000 1.0000000 0.0000000
0.3918158 1.0000000 0.0000000
0.5758598 1.0000000 0.0000000
0.7286832 1.0000000 0.0000000
0.8680559 1.0000000 0.0000000
0.9999997 1.0000000 0.0999974
0.0000000 0.0000785 0.2000000
0.1123889 0.0000000 0.2163809
0.2247778 0.0000000 0.2657493
0.3371668 0.0000000 0.3354653
0.4495557 0.0000000 0.4153686
0.5619446 0.0000000 0.5004659
0.6743336 0.0000000 0.5884215
0.7867225 0.0000000 0.6780744
0.8991114 0.0000000 0.7688024
1.0000000 0.0000000 0.8602483
1.0000000 0.0000000 0.9521940
0.0000000 0.1089289 0.1818248
0.1000000 0.1000000 0.2000000
0.2196697 0.0538108 0.2531710
0.3340521 0.0000000 0.3260661
0.4473561 0.0000000 0.4081416
0.5602637 0.0000000 0.4947079
0.6729838 0.0000000 0.5836900
0.7856010 0.0000000 0.6740885
0.8981562 0.0000000 0.7653771
1.0000000 0.0000000 0.8572568
1.0000000 0.0000000 0.9495469
0.0000000 0.2178577 0.0794377
0.0000000 0.2141229 0.1191935
0.2000000 0.2000000 0.2000000
0.3225560 0.1702743 0.2892125
0.4393394 0.1076214 0.3807915
0.5541703 0.0000000 0.4733105
0.6681042 0.0000000 0.5662881
0.7815534 0.0000000 0.6595208
0.8947122 0.0000000 0.7529089
1.0000000 0.0000000 0.8463984
1.0000000 0.0000000 0.9399571
0.0000000 0.3267866 0.0000000
0.0000000 0.3245047 0.0000000
0.1559000 0.3161379 0.0000000
0.3000000 0.3000000 0.2000000
0.4241055 0.2736955 0.3230756
0.5427390 0.2323769 0.4305502
0.6590091 0.1614321 0.5324576
0.7740369 0.0000000 0.6316458
0.8883309 0.0000000 0.7292873
1.0000000 0.0000000 0.8259619
1.0000000 0.0000000 0.9219916
0.0000000 0.4357155 0.0000000
0.0000000 0.4341029 0.0000000
0.0000000 0.4282459 0.0000000
0.2618315 0.4172060 0.0000000
0.3999999 0.4000001 0.2000000
0.5250741 0.3752266 0.3548410
0.6451119 0.3405487 0.4763820
0.7626234 0.2913485 0.5869401
0.8786787 0.2152429 0.6921219
0.9938172 0.0000000 0.7941979
1.0000000 0.0000000 0.8942974
0.0000000 0.5446442 0.0000000
0.0000000 0.5434116 0.0000000
0.0000000 0.5389525 0.0000000
0.1959083 0.5306268 0.0000000
0.3643417 0.5178682 0.0000000
0.4999999 0.5000000 0.2000000
0.6257375 0.4760986 0.3847696
0.7468637 0.4447814 0.5190712
0.8654276 0.4037660 0.6377142
0.9824110 0.3487208 0.7486743
1.0000000 0.2690536 0.8551451
0.0000000 0.6535732 0.0000000
0.0000000 0.6525831 0.0000000
0.0000000 0.6490093 0.0000000
0.0000000 0.6423688 0.0000000
0.3118003 0.6322758 0.0000000
0.4657386 0.6183195 0.0000000
0.5999999 0.6000000 0.1999994
0.7262207 0.5766623 0.4131148
0.8482109 0.5473911 0.5591887
0.9676679 0.5108229 0.6854602
1.0000000 0.4647534 0.8019947
0.0000000 0.7625020 0.0000000
0.0000000 0.7616794 0.0000000
0.0000000 0.7587135 0.0000000
0.0000000 0.7532176 0.0000000
0.2276840 0.7449034 0.0000000
0.4192556 0.7334859 0.0000000
0.5666314 0.7186463 0.0000000
0.6999999 0.7000000 0.2000000
0.8265881 0.6770568 0.4400908
0.9492798 0.6491659 0.5971569
1.0000000 0.6154208 0.7306761
0.0000000 0.8714309 0.0000000
0.0000000 0.8707303 0.0000000
0.0000000 0.8682059 0.0000000
0.0000000 0.8635361 0.0000000
0.0000000 0.8564917 0.0000000
0.3544169 0.8468588 0.0000000
0.5236630 0.8344121 0.0000000
0.6672511 0.8188944 0.0000000
0.7999998 0.8000001 0.1999989
0.9268769 0.7773487 0.4658739
1.0000000 0.7504533 0.6332958
0.0000000 0.9803598 0.0000000
0.0000000 0.9797515 0.0000000
0.0000000 0.9775612 0.0000000
0.0000000 0.9735141 0.0000000
0.0000000 0.9674205 0.0000000
0.2539661 0.9591109 0.0000000
0.4677001 0.9484138 0.0000000
0.6265914 0.9351437 0.0000000
0.7677065 0.9190892 0.0000000
0.8999999 0.9000001 0.1999989
1.0000000 0.8775732 0.4906088
0.0000000 1.0000000 0.0000000
0.0000000 1.0000000 0.0000000
0.0000000 1.0000000 0.0000000
0.0000000 1.0000000 0.0000000
0.0000000 1.0000000 0.0000000
0.0000000 1.0000000 0.0000000
0.3918156 1.0000000 0.0000000
0.5758598 1.0000000 0.0000000
0.7286832 1.0000000 0.0000000
0.8680558 1.0000000 0.0000000
0.9999996 1.0000000 0.1999979
0.0000785 0.0000000 0.3000000
0.1123889 0.0000000 0.3103527
0.2247778 0.0000000 0.3445483
0.3371668 0.0000000 0.3986240
0.4495557 0.0000000 0.4660866
0.5619447 0.0000000 0.5419411
0.6743336 0.0000000 0.6230528
0.7867225 0.0000000 0.7075510
0.8991114 0.0000000 0.7943099
1.0000000 0.0000000 0.8826322
1.0000000 0.0000000 0.9720706
0.0000000 0.1089289 0.2891998
0.1000000 0.1000000 0.3000000
0.2196697 0.0538107 0.3354546
0.3340521 0.0000000 0.3910237
0.4473561 0.0000000 0.4598077
0.5602636 0.0000000 0.5367135
0.6729838 0.0000000 0.6186377
0.7856010 0.0000000 0.7037648
0.8981562 0.0000000 0.7910168
1.0000000 0.0000000 0.8797319
1.0000000 0.0000000 0.9694885
0.0000000 0.2178577 0.2456001
0.0000000 0.2141229 0.2586197
0.2000000 0.2000000 0.3000000
0.3225559 0.1702744 0.3621063
0.4393394 0.1076214 0.4363350
0.5541703 0.0000000 0.5173957
0.6681043 0.0000000 0.6024446
0.7815534 0.0000000 0.6899476
0.8947122 0.0000000 0.7790403
1.0000000 0.0000000 0.8692099
1.0000000 0.0000000 0.9601374
0.0000000 0.3267866 0.1191564
0.0000000 0.3245047 0.1471525
0.1559000 0.3161379 0.2163629
0.3000001 0.3000000 0.3000000
0.4241056 0.2736955 0.3886233
0.5427390 0.2323768 0.4793712
0.6590092 0.1614320 0.5711873
0.7740368 0.0000000 0.6636071
0.8883309 0.0000000 0.7563981
1.0000000 0.0000000 0.8494321
1.0000000 0.0000000 0.9426335
0.0000000 0.4357154 0.0000000
0.0000000 0.4341028 0.0000000
0.0000000 0.4282458 0.0000000
0.2618317 0.4172060 0.1546496
0.3999999 0.4000001 0.2999998
0.5250740 0.3752267 0.4145422
0.6451119 0.3405487 0.5201576
0.7626234 0.2913485 0.6216699
0.8786787 0.2152430 0.7209137
0.9938172 0.0000000 0.8187624
1.0000000 0.0000000 0.9156893
0.0000000 0.5446442 0.0000000
0.0000000 0.5434116 0.0000000
0.0000000 0.5389525 0.0000000
0.1959082 0.5306268 0.0000000
0.3643417 0.5178683 0.0000000
0.4999999 0.5000000 0.3000000
0.6257376 0.4760986 0.4397188
0.7468637 0.4447814 0.5589098
0.8654276 0.4037659 0.6693298
0.9824110 0.3487207 0.7749766
1.0000000 0.2690536 0.8776849
0.0000000 0.6535731 0.0000000
0.0000000 0.6525832 0.0000000
0.0000000 0.6490093 0.0000000
0.0000000 0.6423687 0.0000000
0.3118002 0.6322758 0.0000000
0.4657389 0.6183194 0.0000000
0.5999999 0.6000000 0.2999997
0.7262206 0.5766623 0.4641253
0.8482110 0.5473909 0.5958598
0.9676678 0.5108229 0.7145731
1.0000000 0.4647535 0.8262821
0.0000000 0.7625019 0.0000000
0.0000000 0.7616794 0.0000000
0.0000000 0.7587135 0.0000000
0.0000000 0.7532177 0.0000000
0.2276847 0.7449033 0.0000000
0.4192560 0.7334858 0.0000000
0.5666313 0.7186463 0.0000000
0.7000000 0.7000000 0.3000000
0.8265879 0.6770569 0.4877808
0.9492797 0.6491659 0.6312172
1.0000000 0.6154207 0.7577277
0.0000000 0.8714308 0.0000000
0.0000000 0.8707302 0.0000000
0.0000000 0.8682058 0.0000000
0.0000000 0.8635360 0.0000000
0.0000000 0.8564917 0.0000000
0.3544167 0.8468589 0.0000000
0.5236635 0.8344119 0.0000000
0.6672509 0.8188944 0.0000000
0.7999999 0.8000001 0.2999994
0.9268770 0.7773487 0.5107238
1.0000000 0.7504532 0.6651624
0.0000000 0.9803597 0.0000000
0.0000000 0.9797515 0.0000000
0.0000000 0.9775612 0.0000000
0.0000000 0.9735141 0.0000000
0.0000000 0.9674205 0.0000000
0.2539659 0.9591109 0.0000000
0.4676997 0.9484138 0.0000000
0.6265916 0.9351437 0.0000000
0.7677066 0.9190891 0.0000000
0.8999997 0.9000001 0.2999994
1.0000000 0.8775731 0.5329998
0.0000000 1.0000000 0.0000000
0.0000000 1.0000000 0.0000000
0.0000000 1.0000000 0.0000000
0.0000000 1.0000000 0.0000000
0.0000000 1.0000000 0.0000000
0.0000000 1.0000000 0.0000000
0.3918165 1.0000000 0.0000000
0.5758601 1.0000000 0.0000000
0.7286831 1.0000000 0.0000000
0.8680560 1.0000000 0.0000000
0.9999996 1.0000000 0.2999993
0.0000000 0.0001076 0.4000000
0.1123889 0.0000000 0.4074003
0.2247778 0.0000000 0.4327619
0.3371668 0.0000000 0.4752858
0.4495558 0.0000000 0.5314987
0.5619446 0.0000000 0.5976993
0.6743336 0.0000000 0.6709306
0.7867225 0.0000000 0.7490880
0.8991114 0.0000000 0.8307370
1.0000000 0.0000000 0.9149062
1.0000000 0.0000000 1.0000000
0.0000000 0.1089289 0.3924317
0.0999999 0.1000000 0.4000000
0.2196697 0.0538107 0.4258884
0.3340521 0.0000000 0.4691546
0.4473561 0.0000000 0.5261462
0.5602636 0.0000000 0.5930567
0.6729837 0.0000000 0.6668934
0.7856010 0.0000000 0.7455537
0.8981562 0.0000000 0.8276172
1.0000000 0.0000000 0.9121287
1.0000000 0.0000000 0.9984391
0.0000000 0.2178577 0.3636497
0.0000000 0.2141229 0.3719253
0.2000000 0.2000000 0.4000000
0.3225560 0.1702743 0.4462739
0.4393394 0.1076214 0.5063419
0.5541703 0.0000000 0.5759950
0.6681042 0.0000000 0.6521322
0.7815534 0.0000000 0.7326791
0.8947122 0.0000000 0.8162833
1.0000000 0.0000000 0.9020591
1.0000000 0.0000000 0.9894158
0.0000000 0.3267865 0.3019319
0.0000000 0.3245047 0.3122080
0.1558999 0.3161379 0.3461861
0.3000000 0.3000000 0.4000000
0.4241055 0.2736955 0.4672279
0.5427390 0.2323769 0.5428938
0.6590092 0.1614320 0.6238590
0.7740369 0.0000000 0.7082432
0.8883309 0.0000000 0.7949125
1.0000000 0.0000000 0.8831632
1.0000000 0.0000000 0.9725436
0.0000000 0.4357155 0.1588750
0.0000000 0.4341029 0.1798577
0.0000000 0.4282458 0.2383867
0.2618317 0.4172060 0.3153225
0.4000000 0.4000000 0.4000000
0.5250742 0.3752266 0.4882714
0.6451119 0.3405487 0.5784250
0.7626233 0.2913486 0.6696655
0.8786788 0.2152429 0.7615830
0.9938172 0.0000000 0.8539475
1.0000000 0.0000000 0.9466212
0.0000000 0.5446442 0.0000000
0.0000000 0.5434116 0.0000000
0.0000000 0.5389524 0.0000000
0.1959082 0.5306268 0.0945509
0.3643417 0.5178682 0.2780544
0.5000001 0.5000000 0.4000000
0.6257377 0.4760985 0.5091762
0.7468637 0.4447813 0.6128403
0.8654277 0.4037658 0.7135396
0.9824110 0.3487207 0.8124423
1.0000000 0.2690534 0.9101688
0.0000000 0.6535731 0.0000000
0.0000000 0.6525831 0.0000000
0.0000000 0.6490093 0.0000000
0.0000000 0.6423687 0.0000000
0.3118003 0.6322758 0.0000000
0.4657390 0.6183193 0.2312359
0.6000000 0.6000000 0.4000000
0.7262207 0.5766622 0.5298244
0.8482111 0.5473909 0.6461512
0.9676680 0.5108229 0.7556502
1.0000000 0.4647533 0.8611007
0.0000000 0.7625019 0.0000000
0.0000000 0.7616794 0.0000000
0.0000000 0.7587134 0.0000000
0.0000000 0.7532176 0.0000000
0.2276853 0.7449033 0.0000000
0.4192559 0.7334858 0.0000000
0.5666315 0.7186463 0.1658122
0.7000001 0.6999999 0.4000002
0.8265882 0.6770568 0.5501552
0.9492800 0.6491658 0.6784099
1.0000000 0.6154208 0.7961654
0.0000000 0.8714308 0.0000000
0.0000000 0.8707302 0.0000000
0.0000000 0.8682058 0.0000000
0.0000000 0.8635361 0.0000000
0.0000000 0.8564917 0.0000000
0.3544171 0.8468589 0.0000000
0.5236635 0.8344119 0.0000000
0.6672513 0.8188943 0.0000000
0.7999999 0.8000001 0.4000000
0.9268771 0.7773487 0.5701390
1.0000000 0.7504532 0.7096821
0.0000000 0.9803597 0.0000000
0.0000000 0.9797515 0.0000000
0.0000000 0.9775612 0.0000000
0.0000000 0.9735141 0.0000000
0.0000000 0.9674205 0.0000000
0.2539665 0.9591109 0.0000000
0.4676999 0.9484138 0.0000000
0.6265916 0.9351437 0.0000000
0.7677067 0.9190892 0.0000000
0.8999999 0.9000001 0.3999996
1.0000000 0.8775731 0.5897649
0.0000000 1.0000000 0.0000000
0.0000000 1.0000000 0.0000000
0.0000000 1.0000000 0.0000000
0.0000000 1.0000000 0.0000000
0.0000000 1.0000000 0.0000000
0.0000000 1.0000000 0.0000000
0.3918161 1.0000000 0.0000000
0.5758604 1.0000000 0.0000000
0.7286833 1.0000000 0.0000000
0.8680562 1.0000000 0.0000000
0.9999997 1.0000000 0.3999996
0.0000000 0.0000000 0.5000000
0.1123889 0.0000000 0.5056859
0.2247779 0.0000000 0.5255197
0.3371668 0.0000000 0.5598511
0.4495557 0.0000000 0.6069477
0.5619446 0.0000000 0.6643733
0.6743336 0.0000000 0.7297690
0.7867225 0.0000000 0.8011832
0.8991114 0.0000000 0.8771192
1.0000000 0.0000000 0.9564688
1.0000000 0.0000000 1.0000000
0.0000000 0.1089289 0.4942354
0.0999999 0.1000001 0.5000000
0.2196697 0.0538109 0.5200934
0.3340521 0.0000000 0.5548256
0.4473561 0.0000000 0.6023905
0.5602637 0.0000000 0.6602879
0.6729838 0.0000000 0.7261214
0.7856010 0.0000000 0.7979240
0.8981562 0.0000000 0.8741969
1.0000000 0.0000000 0.9538360
1.0000000 0.0000000 1.0000000
0.0000000 0.2178577 0.4728123
0.0000000 0.2141229 0.4788874
0.2000000 0.2000000 0.5000000
0.3225559 0.1702744 0.5362912
0.4393394 0.1076213 0.5856556
0.5541703 0.0000000 0.6453448
0.6681042 0.0000000 0.7128239
0.7815534 0.0000000 0.7860739
0.8947122 0.0000000 0.8635939
1.0000000 0.0000000 0.9442986
1.0000000 0.0000000 1.0000000
0.0000000 0.3267866 0.4299919
0.0000000 0.3245047 0.4367880
0.1558999 0.3161379 0.4602332
0.3000000 0.3000000 0.5000000
0.4241055 0.2736955 0.5532513
0.5427391 0.2323768 0.6166961
0.6590092 0.1614321 0.6875362
0.7740369 0.0000000 0.7636825
0.8883309 0.0000000 0.8436577
1.0000000 0.0000000 0.9264342
1.0000000 0.0000000 1.0000000
0.0000000 0.4357155 0.3541365
0.0000000 0.4341029 0.3626728
0.0000000 0.4282458 0.3915403
0.2618317 0.4172060 0.4388762
0.3999999 0.4000001 0.4999999
0.5250741 0.3752267 0.5705718
0.6451119 0.3405487 0.6474661
0.7626234 0.2913485 0.7286256
0.8786788 0.2152429 0.8127252
0.9938172 0.0000000 0.8989048
1.0000000 0.0000000 0.9865937
0.0000000 0.5446442 0.1985940
0.0000000 0.5434116 0.2151024
0.0000000 0.5389524 0.2647519
0.1959081 0.5306268 0.3347117
0.3643416 0.5178683 0.4147857
0.5000001 0.5000000 0.5000000
0.6257375 0.4760986 0.5880378
0.7468637 0.4447813 0.6777509
0.8654277 0.4037659 0.7685243
0.9824109 0.3487207 0.8600051
1.0000000 0.2690535 0.9519787
0.0000000 0.6535732 0.0000000
0.0000000 0.6525831 0.0000000
0.0000000 0.6490093 0.0000000
0.0000000 0.6423687 0.0000000
0.3118003 0.6322758 0.2584703
0.4657387 0.6183195 0.3876452
0.5999999 0.6000000 0.4999998
0.7262207 0.5766623 0.6055207
0.8482110 0.5473909 0.7074540
0.9676680 0.5108229 0.8072410
1.0000000 0.4647534 0.9056344
0.0000000 0.7625020 0.0000000
0.0000000 0.7616794 0.0000000
0.0000000 0.7587135 0.0000000
0.0000000 0.7532176 0.0000000
0.2276850 0.7449033 0.0000000
0.4192558 0.7334858 0.1250035
0.5666313 0.7186463 0.3568446
0.7000000 0.6999999 0.5000002
0.8265882 0.6770568 0.6229397
0.9492798 0.6491659 0.7365380
1.0000000 0.6154209 0.8448242
0.0000000 0.8714308 0.0000000
0.0000000 0.8707302 0.0000000
0.0000000 0.8682058 0.0000000
0.0000000 0.8635360 0.0000000
0.0000000 0.8564917 0.0000000
0.3544171 0.8468589 0.0000000
0.5236627 0.8344121 0.0000000
0.6672509 0.8188944 0.3213129
0.7999997 0.8000001 0.4999996
0.9268770 0.7773488 0.6402423
1.0000000 0.7504533 0.7649971
0.0000000 0.9803599 0.0000000
0.0000000 0.9797515 0.0000000
0.0000000 0.9775613 0.0000000
0.0000000 0.9735142 0.0000000
0.0000000 0.9674206 0.0000000
0.2539658 0.9591109 0.0000000
0.4676996 0.9484139 0.0000000
0.6265914 0.9351438 0.0000000
0.7677065 0.9190892 0.2790760
0.8999997 0.9000002 0.4999993
1.0000000 0.8775732 0.6573959
0.0000000 1.0000000 0.0000000
0.0000000 1.0000000 0.0000000
0.0000000 1.0000000 0.0000000
0.0000000 1.0000000 0.0000000
0.0000000 1.0000000 0.0000000
0.0000000 1.0000000 0.0000000
0.3918158 1.0000000 0.0000000
0.5758601 1.0000000 0.0000000
0.7286831 1.0000000 0.0000000
0.8680560 1.0000000 0.2258576
0.9999996 1.0000000 0.4999993
0.0002021 0.0001475 0.6000000
0.1123889 0.0000000 0.6045788
0.2247779 0.0000000 0.6207054
0.3371669 0.0000000 0.6491429
0.4495557 0.0000000 0.6890966
0.5619446 0.0000000 0.7390426
0.6743336 0.0000000 0.7972480
0.7867225 0.0000000 0.8620859
0.8991114 0.0000000 0.9321731
1.0000000 0.0000000 1.0000000
1.0000000 0.0000000 1.0000000
0.0000000 0.1089289 0.5953789
0.1000000 0.0999999 0.6000000
0.2196697 0.0538106 0.6162701
0.3340521 0.0000000 0.6449413
0.4473561 0.0000000 0.6851876
0.5602636 0.0000000 0.7354502
0.6729837 0.0000000 0.7939695
0.7856010 0.0000000 0.8591021
0.8981562 0.0000000 0.9294575
1.0000000 0.0000000 1.0000000
1.0000000 0.0000000 1.0000000
0.0000000 0.2178577 0.5783995
0.0000000 0.2141229 0.5831825
0.2000000 0.2000000 0.6000000
0.3225559 0.1702744 0.6295592
0.4393394 0.1076214 0.6709093
0.5541703 0.0000000 0.7223588
0.6681042 0.0000000 0.7820473
0.7815534 0.0000000 0.8482720
0.8947122 0.0000000 0.9196154
1.0000000 0.0000000 0.9949557
1.0000000 0.0000000 1.0000000
0.0000000 0.3267866 0.5454745
0.0000000 0.3245047 0.5506025
0.1559000 0.3161379 0.5685806
0.3000000 0.3000000 0.6000000
0.4241055 0.2736955 0.6436279
0.5427391 0.2323768 0.6974871
0.6590092 0.1614321 0.7595130
0.7740369 0.0000000 0.8278913
0.8883309 0.0000000 0.9011614
1.0000000 0.0000000 0.9781982
1.0000000 0.0000000 1.0000000
0.0000000 0.4357155 0.4912000
0.0000000 0.4341030 0.4970068
0.0000000 0.4282459 0.5172393
0.2618316 0.4172060 0.5521858
0.4000000 0.4000000 0.6000000
0.5250742 0.3752266 0.6581476
0.6451119 0.3405487 0.7242125
0.7626235 0.2913485 0.7962198
0.8786787 0.2152430 0.8726699
0.9938171 0.0000000 0.9524609
1.0000000 0.0000000 1.0000000
0.0000000 0.5446442 0.4037131
0.0000000 0.5434116 0.4110334
0.0000000 0.5389525 0.4361433
0.1959087 0.5306268 0.4783102
0.3643419 0.5178682 0.5341455
0.5000001 0.5000000 0.6000000
0.6257375 0.4760986 0.6729343
0.7468637 0.4447814 0.7508442
0.8654276 0.4037659 0.8322886
0.9824110 0.3487208 0.9162885
1.0000000 0.2690536 1.0000000
0.0000000 0.6535732 0.2383129
0.0000000 0.6525831 0.2517843
0.0000000 0.6490093 0.2943056
0.0000000 0.6423687 0.3575804
0.3118003 0.6322758 0.4327258
0.4657386 0.6183195 0.5144582
0.5999998 0.6000001 0.5999998
