looks/cb_prot_pq.cube
LUT_3D_SIZE 17
0.0000007 0.0000007 0.0000007
0.0695835 0.0000007 0.0588754
0.1368999 0.0000007 0.1188141
0.2031462 0.0000007 0.1792853
0.2686542 0.0000007 0.2401301
0.3335896 0.0000007 0.3012710
0.3980621 0.0000007 0.3626600
0.4621379 0.0000007 0.4242543
0.5258649 0.0000007 0.4860392
0.5892956 0.0000007 0.5479854
0.6524451 0.0000007 0.6100855
0.7153504 0.0000007 0.6723232
0.7780243 0.0000007 0.7346820
0.8404859 0.0000007 0.7971650
0.9027560 0.0000007 0.8597653
0.9648431 0.0000007 0.9224462
1.0000000 0.0000007 0.9852442
0.0000007 0.0676274 0.0000007
0.0625000 0.0625000 0.0000007
0.1350368 0.0000007 0.1109915
0.2024218 0.0000007 0.1762929
0.2683258 0.0000007 0.2387653
0.3334275 0.0000007 0.3005904
0.3979788 0.0000007 0.3622994
0.4620897 0.0000007 0.4240588
0.5258400 0.0000007 0.4859308
0.5892844 0.0000007 0.5479258
0.6524389 0.0000007 0.6100509
0.7153504 0.0000007 0.6723073
0.7780243 0.0000007 0.7346715
0.8404819 0.0000007 0.7971575
0.9027560 0.0000007 0.8597612
0.9648340 0.0000007 0.9224462
1.0000000 0.0000007 0.9852442
0.0000007 0.1336380 0.0000007
0.0000007 0.1322561 0.0000007
0.1249998 0.1249998 0.0000007
0.1987707 0.0979857 0.1594915
0.2666972 0.0000007 0.2317316
0.3326277 0.0000007 0.2971802
0.3975627 0.0000007 0.3605307
0.4618683 0.0000007 0.4231029
0.5257204 0.0000007 0.4853964
0.5892119 0.0000007 0.5476274
0.6523989 0.0000007 0.6098807
0.7153302 0.0000007 0.6722057
0.7780133 0.0000007 0.7346161
0.8404780 0.0000007 0.7971274
0.9027560 0.0000007 0.8597370
0.9648340 0.0000007 0.9224375
1.0000000 0.0000007 0.9852349
0.0000007 0.1988775 0.0000007
0.0000007 0.1983373 0.0000007
0.0809638 0.1956328 0.0000007
0.1875007 0.1875007 0.0000007
0.2619660 0.1645029 0.2080204
0.3303512 0.0000007 0.2868907
0.3963906 0.0000007 0.3553907
0.4612352 0.0000007 0.4203758
0.5253693 0.0000007 0.4839001
0.5890197 0.0000007 0.5467879
0.6522941 0.0000007 0.6094050
0.7152660 0.0000007 0.6719327
0.7779803 0.0000007 0.7344636
0.8404621 0.0000007 0.7970411
0.9027390 0.0000007 0.8596965
0.9648295 0.0000007 0.9224115
1.0000000 0.0000007 0.9852303
0.0000007 0.2635825 0.0000007
0.0000007 0.2633357 0.0000007
0.0000007 0.2621213 0.0000007
0.1522158 0.2586239 0.0000007
0.2500004 0.2500004 0.0000300
0.3249013 0.2287400 0.2575023
0.3936406 0.1565120 0.3424420
0.4597797 0.0000007 0.4138097
0.5245734 0.0000007 0.4803669
0.5885767 0.0000007 0.5448312
0.6520445 0.0000007 0.6083051
0.7151209 0.0000007 0.6713141
0.7778923 0.0000007 0.7341172
0.8404107 0.0000007 0.7968382
0.9027178 0.0000007 0.8595872
0.9648114 0.0000007 0.9223507
1.0000000 0.0000007 0.9851886
0.0000007 0.3278713 0.0000007
0.0000007 0.3277510 0.0000007
0.0000007 0.3271500 0.0000007
0.0000007 0.3254531 0.0000007
0.2180089 0.3214273 0.0000007
0.3124984 0.3124999 0.0000007
0.3876953 0.2921915 0.3083071
0.4566892 0.2343824 0.3986966
0.5229008 0.0000007 0.4726543
0.5876474 0.0000007 0.5406619
0.6515210 0.0000007 0.6059908
0.7148307 0.0000007 0.6700090
0.7777309 0.0000007 0.7333798
0.8403157 0.0000007 0.7964290
0.9026668 0.0000007 0.8593525
0.9647887 0.0000007 0.9222292
1.0000000 0.0000007 0.9851284
0.0000007 0.3918253 0.0000007
0.0000007 0.3917638 0.0000007
0.0000007 0.3914491 0.0000007
0.0000007 0.3905695 0.0000007
0.0000007 0.3885204 0.0000007
0.2822276 0.3841343 0.0000007
0.3749991 0.3749991 0.0000007
0.4503921 0.3552739 0.3605856
0.5195591 0.3039899 0.4558056
0.5858152 0.0000007 0.5320546
0.6504997 0.0000007 0.6013341
0.7142507 0.0000007 0.6674283
0.7774047 0.0000007 0.7319315
0.8401416 0.0000007 0.7956186
0.9025649 0.0000007 0.8588954
0.9647297 0.0000007 0.9219646
1.0000000 0.0000007 0.9849849
0.0000007 0.4554834 0.0000007
0.0000007 0.4554553 0.0000007
0.0000007 0.4552867 0.0000007
0.0000007 0.4548115 0.0000007
0.0000007 0.4537204 0.0000007
0.1476012 0.4514089 0.0000007
0.3457579 0.4467739 0.0000007
0.4375011 0.4375011 0.0000007
0.5130240 0.4181426 0.4144178
0.5823055 0.3704039 0.5138514
0.6485599 0.0000007 0.5920593
0.7131694 0.0000007 0.6624310
0.7768002 0.0000007 0.7291705
0.8397974 0.0000007 0.7940826
0.9023738 0.0000007 0.8580425
0.9646254 0.0000007 0.9215050
1.0000000 0.0000007 0.9847257
0.0000007 0.5188997 0.0000007
0.0000007 0.5188776 0.0000007
0.0000007 0.5187866 0.0000007
0.0000007 0.5185236 0.0000007
0.0000007 0.5179269 0.0000007
0.0000007 0.5166669 0.0000007
0.2440825 0.5141802 0.0000007
0.4088987 0.5093655 0.0000007
0.4999972 0.4999972 0.0001165
0.5756124 0.4808685 0.4698305
0.6449414 0.4351636 0.5728568
0.7111695 0.0000007 0.6527072
0.7756804 0.0000007 0.7239698
0.8391727 0.0000007 0.7912357
0.9020299 0.0000007 0.8564844
0.9644349 0.0000007 0.9206427
1.0000000 0.0000007 0.9842721
0.0000007 0.5820879 0.0000007
0.0000007 0.5820796 0.0000007
0.0000007 0.5820300 0.0000007
0.0000007 0.5818813 0.0000007
0.0000007 0.5815483 0.0000007
0.0000007 0.5808470 0.0000007
0.0000007 0.5794743 0.0000007
0.3197795 0.5768587 0.0000007
0.4717940 0.5719275 0.0000007
0.5625013 0.5625013 0.0000007
0.6381530 0.5435091 0.5267975
0.7074967 0.4988819 0.6328185
0.7736570 0.1927907 0.7139878
0.8380510 0.0000007 0.7859426
0.9014062 0.0000007 0.8536217
0.9640949 0.0000007 0.9190978
1.0000000 0.0000007 0.9834351
0.0000007 0.6450725 0.0000007
0.0000007 0.6450664 0.0000007
0.0000007 0.6450390 0.0000007
0.0000007 0.6449597 0.0000007
0.0000007 0.6447677 0.0000007
0.0000007 0.6443778 0.0000007
0.0000007 0.6436079 0.0000007
0.0000007 0.6421525 0.0000007
0.3890160 0.6394542 0.0000007
0.5345278 0.6344538 0.0000007
0.6249967 0.6249967 0.0002490
0.7006668 0.6060624 0.5853082
0.7699670 0.5618413 0.6937284
0.8360285 0.3136376 0.7758852
0.9002955 0.0000007 0.8483520
0.9634877 0.0000007 0.9162872
1.0000000 0.0000007 0.9819431
0.0000007 0.7078808 0.0000007
0.0000007 0.7078808 0.0000007
0.0000007 0.7078674 0.0000007
0.0000007 0.7078173 0.0000007
0.0000007 0.7077138 0.0000007
0.0000007 0.7074900 0.0000007
0.0000007 0.7070526 0.0000007
0.0000007 0.7062388 0.0000007
0.0000007 0.7047336 0.0000007
0.4550145 0.7019944 0.0000007
0.5971279 0.6969653 0.0000007
0.6875004 0.6875004 0.0000007
0.7631500 0.6685548 0.6453133
0.8323703 0.6241965 0.7555404
0.8983107 0.3805385 0.8383865
0.9624147 0.0000007 0.9111457
1.0000000 0.0000007 0.9792512
0.0000007 0.7705190 0.0000007
0.0000007 0.7705190 0.0000007
0.0000007 0.7705081 0.0000007
0.0000007 0.7704790 0.0000007
0.0000007 0.7704209 0.0000007
0.0000007 0.7702938 0.0000007
0.0000007 0.7700541 0.0000007
0.0000007 0.7695895 0.0000007
0.0000007 0.7687554 0.0000007
0.0000007 0.7672272 0.0000007
0.5189538 0.7644754 0.0000007
0.6596236 0.7594522 0.0000007
0.7499983 0.7499983 0.0000007
0.8256067 0.7309928 0.7067690
0.8947162 0.6859731 0.8182303
0.9604799 0.4199545 0.9014359
1.0000000 0.0000007 0.9743335
0.0000007 0.8330017 0.0000007
0.0000007 0.8329939 0.0000007
0.0000007 0.8329900 0.0000007
0.0000007 0.8329782 0.0000007
0.0000007 0.8329429 0.0000007
0.0000007 0.8328762 0.0000007
0.0000007 0.8327349 0.0000007
0.0000007 0.8324801 0.0000007
0.0000007 0.8320057 0.0000007
0.0000007 0.8311596 0.0000007
0.0000007 0.8296380 0.0000007
0.5813557 0.8269067 0.0000007
0.7220217 0.8219161 0.0000007
0.8124946 0.8124985 0.0000007
0.8880418 0.7933681 0.7696294
0.9569818 0.7471877 0.8817236
1.0000000 0.4065227 0.9650064
0.0000007 0.8953522 0.0000007
0.0000007 0.8953438 0.0000007
0.0000007 0.8953438 0.0000007
0.0000007 0.8953269 0.0000007
0.0000007 0.8953143 0.0000007
0.0000007 0.8952680 0.0000007
0.0000007 0.8951963 0.0000007
0.0000007 0.8950573 0.0000007
0.0000007 0.8947836 0.0000007
0.0000007 0.8943205 0.0000007
0.0000007 0.8934875 0.0000007
0.0000007 0.8919876 0.0000007
0.6423438 0.8893049 0.0000007
0.7843215 0.8843837 0.0000007
0.8750090 0.8750008 0.0000007
0.9504432 0.8557104 0.8337672
1.0000000 0.8077916 0.9459574
0.0000007 0.9575399 0.0000007
0.0000007 0.9575399 0.0000007
0.0000007 0.9575399 0.0000007
0.0000007 0.9575354 0.0000007
0.0000007 0.9575219 0.0000007
0.0000007 0.9574949 0.0000007
0.0000007 0.9574543 0.0000007
0.0000007 0.9573733 0.0000007
0.0000007 0.9572338 0.0000007
0.0000007 0.9569772 0.0000007
0.0000007 0.9565184 0.0000007
0.0000007 0.9557002 0.0000007
0.0000007 0.9542542 0.0000007
0.7019513 0.9516373 0.0000007
0.8465441 0.9468075 0.0000007
0.9374982 0.9374982 0.0000007
1.0000000 0.9179657 0.8991777
0.0000007 1.0000000 0.0000007
0.0000007 1.0000000 0.0000007
0.0000007 1.0000000 0.0000007
0.0000007 1.0000000 0.0000007
0.0000007 1.0000000 0.0000007
0.0000007 1.0000000 0.0000007
0.0000007 1.0000000 0.0000007
0.0000007 1.0000000 0.0000007
0.0000007 1.0000000 0.0000007
0.0000007 1.0000000 0.0000007
0.0000007 1.0000000 0.0000007
0.0000007 1.0000000 0.0000007
0.0000007 1.0000000 0.0000007
0.0000007 1.0000000 0.0000007
0.7599286 1.0000000 0.0000007
0.9086370 1.0000000 0.0000007
1.0000000 1.0000000 0.0028123
0.0000007 0.0000109 0.0625000
0.0695835 0.0000007 0.0808241
0.1368999 0.0000007 0.1266907
0.2031462 0.0000007 0.1825837
0.2686542 0.0000007 0.2416736
0.3335896 0.0000007 0.3020483
0.3980621 0.0000007 0.3630660
0.4621379 0.0000007 0.4244760
0.5258649 0.0000007 0.4861590
0.5892956 0.0000007 0.5480529
0.6524451 0.0000007 0.6101230
0.7153538 0.0000007 0.6723454
0.7780243 0.0000007 0.7346959
0.8404859 0.0000007 0.7971688
0.9027560 0.0000007 0.8597653
0.9648340 0.0000007 0.9224549
1.0000000 0.0000007 0.9852442
0.0000007 0.0676274 0.0246580
0.0625000 0.0625000 0.0625000
0.1350368 0.0000007 0.1199084
0.2024218 0.0000007 0.1797259
0.2683258 0.0000007 0.2403335
0.3334275 0.0000007 0.3013717
0.3979788 0.0000007 0.3627135
0.4620897 0.0000007 0.4242845
0.5258400 0.0000007 0.4860507
0.5892844 0.0000007 0.5479984
0.6524389 0.0000007 0.6100884
0.7153504 0.0000007 0.6723263
0.7780243 0.0000007 0.7346820
0.8404819 0.0000007 0.7971650
0.9027560 0.0000007 0.8597653
0.9648340 0.0000007 0.9224505
1.0000000 0.0000007 0.9852442
0.0000007 0.1336367 0.0000007
0.0000007 0.1322561 0.0000007
0.1250010 0.1249998 0.0625000
0.1987707 0.0979852 0.1638107
0.2666972 0.0000007 0.2334363
0.3326277 0.0000007 0.2979940
0.3975627 0.0000007 0.3609497
0.4618683 0.0000007 0.4233261
0.5257204 0.0000007 0.4855231
0.5892119 0.0000007 0.5477000
0.6523989 0.0000007 0.6099210
0.7153302 0.0000007 0.6722279
0.7780133 0.0000007 0.7346334
0.8404780 0.0000007 0.7971312
0.9027560 0.0000007 0.8597450
0.9648340 0.0000007 0.9224375
1.0000000 0.0000007 0.9852442
0.0000007 0.1988775 0.0000007
0.0000007 0.1983373 0.0000007
0.0809646 0.1956328 0.0000007
0.1875007 0.1875007 0.0624997
0.2619660 0.1645029 0.2102983
0.3303512 0.0000007 0.2877976
0.3963868 0.0000007 0.3558343
0.4612352 0.0000007 0.4206035
0.5253693 0.0000007 0.4840263
0.5890197 0.0000007 0.5468603
0.6522941 0.0000007 0.6094482
0.7152660 0.0000007 0.6719581
0.7779730 0.0000007 0.7344810
0.8404621 0.0000007 0.7970523
0.9027475 0.0000007 0.8596884
0.9648295 0.0000007 0.9224115
1.0000000 0.0000007 0.9852303
0.0000007 0.2635825 0.0000007
0.0000007 0.2633357 0.0000007
0.0000007 0.2621213 0.0000007
0.1522158 0.2586239 0.0000007
0.2500004 0.2500015 0.0625015
0.3249013 0.2287400 0.2587636
0.3936406 0.1565120 0.3429465
0.4597797 0.0000007 0.4140575
0.5245734 0.0000007 0.4804991
0.5885767 0.0000007 0.5449034
0.6520445 0.0000007 0.6083453
0.7151209 0.0000007 0.6713363
0.7778960 0.0000007 0.7341276
0.8404107 0.0000007 0.7968457
0.9027093 0.0000007 0.8595872
0.9648114 0.0000007 0.9223507
1.0000000 0.0000007 0.9851886
0.0000007 0.3278713 0.0000007
0.0000007 0.3277510 0.0000007
0.0000007 0.3271532 0.0000007
0.0000007 0.3254531 0.0000007
0.2180089 0.3214273 0.0000007
0.3124999 0.3124999 0.0624985
0.3876953 0.2921915 0.3090270
0.4566892 0.2343813 0.3989811
0.5228958 0.0000007 0.4727933
0.5876474 0.0000007 0.5407362
0.6515210 0.0000007 0.6060309
0.7148307 0.0000007 0.6700343
0.7777309 0.0000007 0.7333868
0.8403157 0.0000007 0.7964365
0.9026668 0.0000007 0.8593525
0.9647887 0.0000007 0.9222292
1.0000000 0.0000007 0.9851192
0.0000007 0.3918253 0.0000007
0.0000007 0.3917638 0.0000007
0.0000007 0.3914491 0.0000007
0.0000007 0.3905695 0.0000007
0.0000007 0.3885204 0.0000007
0.2822289 0.3841379 0.0000007
0.3749991 0.3750027 0.0625031
0.4503921 0.3552739 0.3610030
0.5195591 0.3039899 0.4559679
0.5858152 0.0000007 0.5321378
0.6504997 0.0000007 0.6013768
0.7142507 0.0000007 0.6674535
0.7774084 0.0000007 0.7319487
0.8401416 0.0000007 0.7956223
0.9025649 0.0000007 0.8588954
0.9647297 0.0000007 0.9219733
1.0000000 0.0000007 0.9849849
0.0000007 0.4554877 0.0000007
0.0000007 0.4554553 0.0000007
0.0000007 0.4552867 0.0000007
0.0000007 0.4548115 0.0000007
0.0000007 0.4537183 0.0000007
0.1476012 0.4514089 0.0000007
0.3457579 0.4467739 0.0000007
0.4375011 0.4375011 0.0624885
0.5130240 0.4181387 0.4146640
0.5823055 0.3704074 0.5139439
0.6485599 0.0000007 0.5921069
0.7131694 0.0000007 0.6624623
0.7768002 0.0000007 0.7291877
0.8397974 0.0000007 0.7940864
0.9023738 0.0000007 0.8580465
0.9646254 0.0000007 0.9215050
1.0000000 0.0000007 0.9847349
0.0000007 0.5188997 0.0000007
0.0000007 0.5188776 0.0000007
0.0000007 0.5187866 0.0000007
0.0000007 0.5185236 0.0000007
0.0000007 0.5179269 0.0000007
0.0000007 0.5166669 0.0000007
0.2440825 0.5141802 0.0000007
0.4088987 0.5093655 0.0000007
0.4999972 0.4999972 0.0625006
0.5756124 0.4808685 0.4699754
0.6449414 0.4351678 0.5729083
0.7111695 0.0000007 0.6527319
0.7756804 0.0000007 0.7239834
0.8391727 0.0000007 0.7912395
0.9020299 0.0000007 0.8564844
0.9644349 0.0000007 0.9206427
1.0000000 0.0000007 0.9842721
0.0000007 0.5820879 0.0000007
0.0000007 0.5820796 0.0000007
0.0000007 0.5820300 0.0000007
0.0000007 0.5818813 0.0000007
0.0000007 0.5815483 0.0000007
0.0000007 0.5808470 0.0000007
0.0000007 0.5794743 0.0000007
0.3197795 0.5768587 0.0000007
0.4717940 0.5719275 0.0000007
0.5625013 0.5625013 0.0625006
0.6381530 0.5435091 0.5268799
0.7074967 0.4988819 0.6328544
0.7736570 0.1927925 0.7140012
0.8380510 0.0000007 0.7859537
0.9014062 0.0000007 0.8536217
0.9640949 0.0000007 0.9190978
1.0000000 0.0000007 0.9834351
0.0000007 0.6450725 0.0000007
0.0000007 0.6450664 0.0000007
0.0000007 0.6450390 0.0000007
0.0000007 0.6449597 0.0000007
0.0000007 0.6447677 0.0000007
0.0000007 0.6443778 0.0000007
0.0000007 0.6436079 0.0000007
0.0000007 0.6421525 0.0000007
0.3890142 0.6394542 0.0000007
0.5345278 0.6344538 0.0000007
0.6250026 0.6249967 0.0624550
0.7006668 0.6060624 0.5853608
0.7699670 0.5618413 0.6937448
0.8360285 0.3136376 0.7758925
0.9002955 0.0000007 0.8483560
0.9634877 0.0000007 0.9162958
1.0000000 0.0000007 0.9819339
0.0000007 0.7078808 0.0000007
0.0000007 0.7078808 0.0000007
0.0000007 0.7078674 0.0000007
0.0000007 0.7078173 0.0000007
0.0000007 0.7077138 0.0000007
0.0000007 0.7074833 0.0000007
0.0000007 0.7070526 0.0000007
0.0000007 0.7062388 0.0000007
0.0000007 0.7047336 0.0000007
0.4550145 0.7019944 0.0000007
0.5971279 0.6969653 0.0000007
0.6875004 0.6875004 0.0625009
0.7631500 0.6685548 0.6453408
0.8323703 0.6241965 0.7555511
0.8983107 0.3805349 0.8383905
0.9624147 0.0000007 0.9111543
1.0000000 0.0000007 0.9792559
0.0000007 0.7705190 0.0000007
0.0000007 0.7705190 0.0000007
0.0000007 0.7705081 0.0000007
0.0000007 0.7704790 0.0000007
0.0000007 0.7704209 0.0000007
0.0000007 0.7702938 0.0000007
0.0000007 0.7700541 0.0000007
0.0000007 0.7695895 0.0000007
0.0000007 0.7687554 0.0000007
0.0000007 0.7672272 0.0000007
0.5189489 0.7644754 0.0000007
0.6596236 0.7594522 0.0000007
0.7499983 0.7499983 0.0624991
0.8256067 0.7309928 0.7067824
0.8947162 0.6859731 0.8182341
0.9604799 0.4199545 0.9014359
1.0000000 0.0000007 0.9743289
0.0000007 0.8330017 0.0000007
0.0000007 0.8329939 0.0000007
0.0000007 0.8329900 0.0000007
0.0000007 0.8329782 0.0000007
0.0000007 0.8329429 0.0000007
0.0000007 0.8328723 0.0000007
0.0000007 0.8327349 0.0000007
0.0000007 0.8324801 0.0000007
0.0000007 0.8320057 0.0000007
0.0000007 0.8311596 0.0000007
0.0000007 0.8296380 0.0000007
0.5813501 0.8269067 0.0000007
0.7220251 0.8219161 0.0000007
0.8124946 0.8124985 0.0624991
0.8880418 0.7933681 0.7696331
0.9569818 0.7471877 0.8817236
1.0000000 0.4065208 0.9650064
0.0000007 0.8953354 0.0000007
0.0000007 0.8953438 0.0000007
0.0000007 0.8953438 0.0000007
0.0000007 0.8953269 0.0000007
0.0000007 0.8953143 0.0000007
0.0000007 0.8952680 0.0000007
0.0000007 0.8951963 0.0000007
0.0000007 0.8950573 0.0000007
0.0000007 0.8947836 0.0000007
0.0000007 0.8943205 0.0000007
0.0000007 0.8934875 0.0000007
0.0000007 0.8919834 0.0000007
0.6423438 0.8893049 0.0000007
0.7843215 0.8843837 0.0000007
0.8750090 0.8750008 0.0621369
0.9504432 0.8557104 0.8337750
1.0000000 0.8077916 0.9459574
0.0000007 0.9575399 0.0000007
0.0000007 0.9575399 0.0000007
0.0000007 0.9575399 0.0000007
0.0000007 0.9575354 0.0000007
0.0000007 0.9575219 0.0000007
0.0000007 0.9574949 0.0000007
0.0000007 0.9574543 0.0000007
0.0000007 0.9573733 0.0000007
0.0000007 0.9572338 0.0000007
0.0000007 0.9569772 0.0000007
0.0000007 0.9565184 0.0000007
0.0000007 0.9557002 0.0000007
0.0000007 0.9542542 0.0000007
0.7019480 0.9516373 0.0000007
0.8465481 0.9468075 0.0000007
0.9374982 0.9374982 0.0625073
1.0000000 0.9179657 0.8991777
0.0000007 1.0000000 0.0000007
0.0000007 1.0000000 0.0000007
0.0000007 1.0000000 0.0000007
0.0000007 1.0000000 0.0000007
0.0000007 1.0000000 0.0000007
0.0000007 1.0000000 0.0000007
0.0000007 1.0000000 0.0000007
0.0000007 1.0000000 0.0000007
0.0000007 1.0000000 0.0000007
0.0000007 1.0000000 0.0000007
0.0000007 1.0000000 0.0000007
0.0000007 1.0000000 0.0000007
0.0000007 1.0000000 0.0000007
0.0000007 1.0000000 0.0000007
0.7599286 1.0000000 0.0000007
0.9086370 1.0000000 0.0000007
1.0000000 1.0000000 0.0625228
0.0000007 0.0000129 0.1249998
0.0695835 0.0000007 0.1312637
0.1368999 0.0000007 0.1553267
0.2031462 0.0000007 0.1969295
0.2686542 0.0000007 0.2488610
0.3335896 0.0000007 0.3057615
0.3980621 0.0000007 0.3650519
0.4621379 0.0000007 0.4255623
0.5258649 0.0000007 0.4867658
0.5892956 0.0000007 0.5484008
0.6524451 0.0000007 0.6103193
0.7153538 0.0000007 0.6724566
0.7780243 0.0000007 0.7347582
0.8404859 0.0000007 0.7972063
0.9027560 0.0000007 0.8597856
0.9648340 0.0000007 0.9224635
1.0000000 0.0000007 0.9852535
0.0000007 0.0676274 0.1180114
0.0625000 0.0625000 0.1249998
0.1350368 0.0000007 0.1510808
0.2024218 0.0000007 0.1945769
0.2683258 0.0000007 0.2476308
0.3334275 0.0000007 0.3051160
0.3979788 0.0000007 0.3647045
0.4620897 0.0000007 0.4253723
0.5258400 0.0000007 0.4866573
0.5892844 0.0000007 0.5483385
0.6524389 0.0000007 0.6102846
0.7153504 0.0000007 0.6724406
0.7780243 0.0000007 0.7347478
0.8404819 0.0000007 0.7972026
0.9027560 0.0000007 0.8597815
0.9648340 0.0000007 0.9224592
1.0000000 0.0000007 0.9852535
0.0000007 0.1336367 0.0560280
0.0000007 0.1322561 0.0767429
0.1250010 0.1249998 0.1250010
0.1987707 0.0979857 0.1818513
0.2666972 0.0000007 0.2413280
0.3326277 0.0000007 0.3018725
0.3975627 0.0000007 0.3629778
0.4618683 0.0000007 0.4244256
0.5257204 0.0000007 0.4861337
0.5892119 0.0000007 0.5480425
0.6523989 0.0000007 0.6101201
0.7153302 0.0000007 0.6723390
0.7780133 0.0000007 0.7346923
0.8404780 0.0000007 0.7971688
0.9027560 0.0000007 0.8597653
0.9648295 0.0000007 0.9224505
1.0000000 0.0000007 0.9852442
0.0000007 0.1988775 0.0000007
0.0000007 0.1983373 0.0000007
0.0809638 0.1956328 0.0000007
0.1875007 0.1875007 0.1249986
0.2619660 0.1645029 0.2206103
0.3303512 0.0000007 0.2921232
0.3963868 0.0000007 0.3579669
0.4612352 0.0000007 0.4217342
0.5253693 0.0000007 0.4846419
0.5890197 0.0000007 0.5472023
0.6522941 0.0000007 0.6096414
0.7152660 0.0000007 0.6720724
0.7779803 0.0000007 0.7345399
0.8404621 0.0000007 0.7970786
0.9027390 0.0000007 0.8597086
0.9648295 0.0000007 0.9224201
1.0000000 0.0000007 0.9852303
0.0000007 0.2635825 0.0000007
0.0000007 0.2633357 0.0000007
0.0000007 0.2621213 0.0000007
0.1522151 0.2586239 0.0000007
0.2500004 0.2500015 0.1249998
0.3249013 0.2287389 0.2647010
0.3936444 0.1565120 0.3453777
0.4597797 0.0000007 0.4152536
0.5245734 0.0000007 0.4811354
0.5885767 0.0000007 0.5452571
0.6520445 0.0000007 0.6085410
0.7151209 0.0000007 0.6714504
0.7778923 0.0000007 0.7341865
0.8404107 0.0000007 0.7968833
0.9027093 0.0000007 0.8596075
0.9648204 0.0000007 0.9223594
1.0000000 0.0000007 0.9851978
0.0000007 0.3278713 0.0000007
0.0000007 0.3277510 0.0000007
0.0000007 0.3271500 0.0000007
0.0000007 0.3254531 0.0000007
0.2180089 0.3214273 0.0000007
0.3124999 0.3124999 0.1249992
0.3876953 0.2921915 0.3124805
0.4566892 0.2343813 0.4003758
0.5228958 0.0000007 0.4734825
0.5876474 0.0000007 0.5411051
0.6515210 0.0000007 0.6062315
0.7148307 0.0000007 0.6701483
0.7777309 0.0000007 0.7334560
0.8403157 0.0000007 0.7964703
0.9026668 0.0000007 0.8593646
0.9647887 0.0000007 0.9222379
1.0000000 0.0000007 0.9851284
0.0000007 0.3918253 0.0000007
0.0000007 0.3917638 0.0000007
0.0000007 0.3914491 0.0000007
0.0000007 0.3905695 0.0000007
0.0000007 0.3885204 0.0000007
0.2822289 0.3841379 0.0000007
0.3750027 0.3750027 0.1249998
0.4503921 0.3552739 0.3630297
0.5195591 0.3039899 0.4567759
0.5858152 0.0000007 0.5325286
0.6504997 0.0000007 0.6015902
0.7142507 0.0000007 0.6675671
0.7774047 0.0000007 0.7320074
0.8401416 0.0000007 0.7956561
0.9025649 0.0000007 0.8589237
0.9647297 0.0000007 0.9219820
1.0000000 0.0000007 0.9849941
0.0000007 0.4554834 0.0000007
0.0000007 0.4554553 0.0000007
0.0000007 0.4552867 0.0000007
0.0000007 0.4548115 0.0000007
0.0000007 0.4537204 0.0000007
0.1476026 0.4514089 0.0000007
0.3457579 0.4467739 0.0000007
0.4375011 0.4374969 0.1249962
0.5130240 0.4181426 0.4158559
0.5823055 0.3704074 0.5144143
0.6485599 0.0000007 0.5923367
0.7131694 0.0000007 0.6625781
0.7768002 0.0000007 0.7292531
0.8397974 0.0000007 0.7941238
0.9023738 0.0000007 0.8580788
0.9646254 0.0000007 0.9215137
1.0000000 0.0000007 0.9847395
0.0000007 0.5188997 0.0000007
0.0000007 0.5188776 0.0000007
0.0000007 0.5187866 0.0000007
0.0000007 0.5185236 0.0000007
0.0000007 0.5179269 0.0000007
0.0000007 0.5166669 0.0000007
0.2440825 0.5141802 0.0000007
0.4088987 0.5093655 0.0000007
0.4999972 0.4999972 0.1250010
0.5756124 0.4808685 0.4706783
0.6449414 0.4351678 0.5731822
0.7111695 0.0000007 0.6528645
0.7756804 0.0000007 0.7240518
0.8391727 0.0000007 0.7912768
0.9020299 0.0000007 0.8565046
0.9644349 0.0000007 0.9206601
1.0000000 0.0000007 0.9842768
0.0000007 0.5820879 0.0000007
0.0000007 0.5820796 0.0000007
0.0000007 0.5820300 0.0000007
0.0000007 0.5818813 0.0000007
0.0000007 0.5815483 0.0000007
0.0000007 0.5808470 0.0000007
0.0000007 0.5794743 0.0000007
0.3197795 0.5768587 0.0000007
0.4717940 0.5719275 0.0000007
0.5625013 0.5625013 0.1249932
0.6381559 0.5435091 0.5272944
0.7074967 0.4988819 0.6330130
0.7736570 0.1927916 0.7140754
0.8380510 0.0000007 0.7859908
0.9014062 0.0000007 0.8536418
0.9640949 0.0000007 0.9191065
1.0000000 0.0000007 0.9834443
0.0000007 0.6450725 0.0000007
0.0000007 0.6450664 0.0000007
0.0000007 0.6450390 0.0000007
0.0000007 0.6449597 0.0000007
0.0000007 0.6447677 0.0000007
0.0000007 0.6443778 0.0000007
0.0000007 0.6436079 0.0000007
0.0000007 0.6421525 0.0000007
0.3890105 0.6394542 0.0000007
0.5345278 0.6344538 0.0000007
0.6249967 0.6249967 0.1250137
0.7006668 0.6060624 0.5856018
0.7699670 0.5618413 0.6938398
0.8360285 0.3136391 0.7759401
0.9002955 0.0000007 0.8483760
0.9634877 0.0000007 0.9163045
1.0000000 0.0000007 0.9819431
0.0000007 0.7078808 0.0000007
0.0000007 0.7078808 0.0000007
0.0000007 0.7078674 0.0000007
0.0000007 0.7078173 0.0000007
0.0000007 0.7077138 0.0000007
0.0000007 0.7074900 0.0000007
0.0000007 0.7070526 0.0000007
0.0000007 0.7062388 0.0000007
0.0000007 0.7047336 0.0000007
0.4550145 0.7019944 0.0000007
0.5971279 0.6969653 0.0000007
0.6875004 0.6875004 0.1249745
0.7631500 0.6685611 0.6454841
0.8323703 0.6241965 0.7556010
0.8983107 0.3805385 0.8384221
0.9624147 0.0000007 0.9111629
1.0000000 0.0000007 0.9792604
0.0000007 0.7705190 0.0000007
0.0000007 0.7705190 0.0000007
0.0000007 0.7705081 0.0000007
0.0000007 0.7704790 0.0000007
0.0000007 0.7704209 0.0000007
0.0000007 0.7702938 0.0000007
0.0000007 0.7700541 0.0000007
0.0000007 0.7695895 0.0000007
0.0000007 0.7687554 0.0000007
0.0000007 0.7672272 0.0000007
0.5189514 0.7644754 0.0000007
0.6596236 0.7594522 0.0000007
0.7499983 0.7499983 0.1249739
0.8256067 0.7309928 0.7068624
0.8947162 0.6859731 0.8182611
0.9604799 0.4199545 0.9014528
1.0000000 0.0000007 0.9743426
