looks/cb_prot_pq.cube
LUT_3D_SIZE 9
0.0000007 0.0000007 0.0000007
0.1368999 0.0000007 0.1188141
0.2686542 0.0000007 0.2401301
0.3980621 0.0000007 0.3626600
0.5258649 0.0000007 0.4860392
0.6524451 0.0000007 0.6100855
0.7780243 0.0000007 0.7346820
0.9027560 0.0000007 0.8597653
1.0000000 0.0000007 0.9852442
0.0000007 0.1336380 0.0000007
0.1249998 0.1249998 0.0000007
0.2666972 0.0000007 0.2317316
0.3975627 0.0000007 0.3605307
0.5257204 0.0000007 0.4853964
0.6523989 0.0000007 0.6098807
0.7780133 0.0000007 0.7346161
0.9027560 0.0000007 0.8597370
1.0000000 0.0000007 0.9852349
0.0000007 0.2635825 0.0000007
0.0000007 0.2621213 0.0000007
0.2500004 0.2500004 0.0000300
0.3936406 0.1565120 0.3424420
0.5245734 0.0000007 0.4803669
0.6520445 0.0000007 0.6083051
0.7778923 0.0000007 0.7341172
0.9027178 0.0000007 0.8595872
1.0000000 0.0000007 0.9851886
0.0000007 0.3918253 0.0000007
0.0000007 0.3914491 0.0000007
0.0000007 0.3885204 0.0000007
0.3749991 0.3749991 0.0000007
0.5195591 0.3039899 0.4558056
0.6504997 0.0000007 0.6013341
0.7774047 0.0000007 0.7319315
0.9025649 0.0000007 0.8588954
1.0000000 0.0000007 0.9849849
0.0000007 0.5188997 0.0000007
0.0000007 0.5187866 0.0000007
0.0000007 0.5179269 0.0000007
0.2440825 0.5141802 0.0000007
0.4999972 0.4999972 0.0001165
0.6449414 0.4351636 0.5728568
0.7756804 0.0000007 0.7239698
0.9020299 0.0000007 0.8564844
1.0000000 0.0000007 0.9842721
0.0000007 0.6450725 0.0000007
0.0000007 0.6450390 0.0000007
0.0000007 0.6447677 0.0000007
0.0000007 0.6436079 0.0000007
0.3890160 0.6394542 0.0000007
0.6249967 0.6249967 0.0002490
0.7699670 0.5618413 0.6937284
0.9002955 0.0000007 0.8483520
1.0000000 0.0000007 0.9819431
0.0000007 0.7705190 0.0000007
0.0000007 0.7705081 0.0000007
0.0000007 0.7704209 0.0000007
0.0000007 0.7700541 0.0000007
0.0000007 0.7687554 0.0000007
0.5189538 0.7644754 0.0000007
0.7499983 0.7499983 0.0000007
0.8947162 0.6859731 0.8182303
1.0000000 0.0000007 0.9743335
0.0000007 0.8953522 0.0000007
0.0000007 0.8953438 0.0000007
0.0000007 0.8953143 0.0000007
0.0000007 0.8951963 0.0000007
0.0000007 0.8947836 0.0000007
0.0000007 0.8934875 0.0000007
0.6423438 0.8893049 0.0000007
0.8750090 0.8750008 0.0000007
1.0000000 0.8077916 0.9459574
0.0000007 1.0000000 0.0000007
0.0000007 1.0000000 0.0000007
0.0000007 1.0000000 0.0000007
0.0000007 1.0000000 0.0000007
0.0000007 1.0000000 0.0000007
0.0000007 1.0000000 0.0000007
0.0000007 1.0000000 0.0000007
0.7599286 1.0000000 0.0000007
1.0000000 1.0000000 0.0028123
0.0000007 0.0000129 0.1249998
0.1368999 0.0000007 0.1553267
0.2686542 0.0000007 0.2488610
0.3980621 0.0000007 0.3650519
0.5258649 0.0000007 0.4867658
0.6524451 0.0000007 0.6103193
0.7780243 0.0000007 0.7347582
0.9027560 0.0000007 0.8597856
1.0000000 0.0000007 0.9852535
0.0000007 0.1336367 0.0560280
0.1250010 0.1249998 0.1250010
0.2666972 0.0000007 0.2413280
0.3975627 0.0000007 0.3629778
0.5257204 0.0000007 0.4861337
0.6523989 0.0000007 0.6101201
0.7780133 0.0000007 0.7346923
0.9027560 0.0000007 0.8597653
1.0000000 0.0000007 0.9852442
0.0000007 0.2635825 0.0000007
0.0000007 0.2621213 0.0000007
0.2500004 0.2500015 0.1249998
0.3936444 0.1565120 0.3453777
0.5245734 0.0000007 0.4811354
0.6520445 0.0000007 0.6085410
0.7778923 0.0000007 0.7341865
0.9027093 0.0000007 0.8596075
1.0000000 0.0000007 0.9851978
0.0000007 0.3918253 0.0000007
0.0000007 0.3914491 0.0000007
0.0000007 0.3885204 0.0000007
0.3750027 0.3750027 0.1249998
0.5195591 0.3039899 0.4567759
0.6504997 0.0000007 0.6015902
0.7774047 0.0000007 0.7320074
0.9025649 0.0000007 0.8589237
1.0000000 0.0000007 0.9849941
0.0000007 0.5188997 0.0000007
0.0000007 0.5187866 0.0000007
0.0000007 0.5179269 0.0000007
0.2440825 0.5141802 0.0000007
0.4999972 0.4999972 0.1250010
0.6449414 0.4351678 0.5731822
0.7756804 0.0000007 0.7240518
0.9020299 0.0000007 0.8565046
1.0000000 0.0000007 0.9842768
0.0000007 0.6450725 0.0000007
0.0000007 0.6450390 0.0000007
0.0000007 0.6447677 0.0000007
0.0000007 0.6436079 0.0000007
0.3890105 0.6394542 0.0000007
0.6249967 0.6249967 0.1250137
0.7699670 0.5618413 0.6938398
0.9002955 0.0000007 0.8483760
1.0000000 0.0000007 0.9819431
0.0000007 0.7705190 0.0000007
0.0000007 0.7705081 0.0000007
0.0000007 0.7704209 0.0000007
0.0000007 0.7700541 0.0000007
0.0000007 0.7687554 0.0000007
0.5189514 0.7644754 0.0000007
0.7499983 0.7499983 0.1249739
0.8947162 0.6859731 0.8182611
1.0000000 0.0000007 0.9743426
0.0000007 0.8953522 0.0000007
0.0000007 0.8953438 0.0000007
0.0000007 0.8953143 0.0000007
0.0000007 0.8951963 0.0000007
0.0000007 0.8947836 0.0000007
0.0000007 0.8934875 0.0000007
0.6423438 0.8893049 0.0000007
0.8750090 0.8750008 0.1248925
1.0000000 0.8077916 0.9459708
0.0000007 1.0000000 0.0000007
0.0000007 1.0000000 0.0000007
0.0000007 1.0000000 0.0000007
0.0000007 1.0000000 0.0000007
0.0000007 1.0000000 0.0000007
0.0000007 1.0000000 0.0000007
0.0000007 1.0000000 0.0000007
0.7599286 1.0000000 0.0000007
1.0000000 1.0000000 0.1250076
0.0000007 0.0000300 0.2500004
0.1368986 0.0000007 0.2568347
0.2686542 0.0000007 0.2967536
0.3980621 0.0000007 0.3817297
0.5258698 0.0000007 0.4922091
0.6524451 0.0000007 0.6120968
0.7780243 0.0000007 0.7353408
0.9027560 0.0000007 0.8599758
1.0000000 0.0000007 0.9853090
0.0000007 0.1336380 0.2425726
0.1249998 0.1249998 0.2500004
0.2666972 0.0000007 0.2924552
0.3975627 0.0000007 0.3799759
0.5257204 0.0000007 0.4916050
0.6523989 0.0000007 0.6118971
0.7780133 0.0000007 0.7352749
0.9027560 0.0000007 0.8599475
1.0000000 0.0000007 0.9852998
0.0000007 0.2635825 0.1309009
0.0000007 0.2621213 0.1590862
0.2500004 0.2500015 0.2500004
0.3936444 0.1565120 0.3653787
0.5245734 0.0000007 0.4868628
0.6520445 0.0000007 0.6103481
0.7778923 0.0000007 0.7347686
0.9027093 0.0000007 0.8597856
1.0000000 0.0000007 0.9852535
0.0000007 0.3918253 0.0000007
0.0000007 0.3914491 0.0000007
0.0000007 0.3885204 0.0000007
0.3749991 0.3750027 0.2500004
0.5195591 0.3039899 0.4639354
0.6504997 0.0000007 0.6035138
0.7774084 0.0000007 0.7325982
0.9025649 0.0000007 0.8591017
1.0000000 0.0000007 0.9850497
0.0000007 0.5188997 0.0000007
0.0000007 0.5187866 0.0000007
0.0000007 0.5179269 0.0000007
0.2440825 0.5141802 0.0000007
0.4999972 0.4999972 0.2500004
0.6449414 0.4351636 0.5756669
0.7756804 0.0000007 0.7246875
0.9020299 0.0000007 0.8566900
1.0000000 0.0000007 0.9843323
0.0000007 0.6450725 0.0000007
0.0000007 0.6450390 0.0000007
0.0000007 0.6447677 0.0000007
0.0000007 0.6436079 0.0000007
0.3890160 0.6394542 0.0000007
0.6249967 0.6250026 0.2500027
0.7699670 0.5618413 0.6946723
0.9002955 0.0000007 0.8485798
1.0000000 0.0000007 0.9819985
0.0000007 0.7705190 0.0000007
0.0000007 0.7705081 0.0000007
0.0000007 0.7704209 0.0000007
0.0000007 0.7700541 0.0000007
0.0000007 0.7687554 0.0000007
0.5189538 0.7644754 0.0000007
0.7499983 0.7499983 0.2500004
0.8947162 0.6859731 0.8185310
1.0000000 0.0000007 0.9743976
0.0000007 0.8953522 0.0000007
0.0000007 0.8953438 0.0000007
0.0000007 0.8953143 0.0000007
0.0000007 0.8951963 0.0000007
0.0000007 0.8947836 0.0000007
0.0000007 0.8934791 0.0000007
0.6423438 0.8893049 0.0000007
0.8750008 0.8750008 0.2499992
1.0000000 0.8077916 0.9460464
0.0000007 1.0000000 0.0000007
0.0000007 1.0000000 0.0000007
0.0000007 1.0000000 0.0000007
0.0000007 1.0000000 0.0000007
0.0000007 1.0000000 0.0000007
0.0000007 1.0000000 0.0000007
0.0000007 1.0000000 0.0000007
0.7599286 1.0000000 0.0000007
1.0000000 1.0000000 0.2499262
0.0000007 0.0000812 0.3749991
0.1368986 0.0000007 0.3768396
0.2686542 0.0000007 0.3899570
0.3980621 0.0000007 0.4322058
0.5258649 0.0000007 0.5127081
0.6524451 0.0000007 0.6193666
0.7780243 0.0000007 0.7377697
0.9027560 0.0000007 0.8607495
1.0000000 0.0000007 0.9855452
0.0000007 0.1336380 0.3731266
0.1250004 0.1249998 0.3750027
0.2666972 0.0000007 0.3883412
0.3975627 0.0000007 0.4311396
0.5257204 0.0000007 0.5122126
0.6523989 0.0000007 0.6191763
0.7780133 0.0000007 0.7377036
0.9027560 0.0000007 0.8607212
1.0000000 0.0000007 0.9855360
0.0000007 0.2635825 0.3573964
0.0000007 0.2621213 0.3595931
0.2500015 0.2500004 0.3749991
0.3936406 0.1565128 0.4225665
0.5245734 0.0000007 0.5083140
0.6520445 0.0000007 0.6177288
0.7778923 0.0000007 0.7372165
0.9027093 0.0000007 0.8605713
1.0000000 0.0000007 0.9854897
0.0000007 0.3918253 0.2179619
0.0000007 0.3914491 0.2278021
0.0000007 0.3885204 0.2794873
0.3749991 0.3750027 0.3749991
0.5195591 0.3039899 0.4899386
0.6504966 0.0000007 0.6113476
0.7774047 0.0000007 0.7350980
0.9025649 0.0000007 0.8598908
1.0000000 0.0000007 0.9852859
0.0000007 0.5188997 0.0000007
0.0000007 0.5187866 0.0000007
0.0000007 0.5179269 0.0000007
0.2440825 0.5141802 0.0000007
0.4999972 0.4999972 0.3750027
0.6449414 0.4351636 0.5856600
0.7756804 0.0000007 0.7273630
0.9020299 0.0000007 0.8574932
1.0000000 0.0000007 0.9845683
0.0000007 0.6450725 0.0000007
0.0000007 0.6450390 0.0000007
0.0000007 0.6447677 0.0000007
0.0000007 0.6436079 0.0000007
0.3890142 0.6394542 0.0000007
0.6249967 0.6249967 0.3749991
0.7699670 0.5618413 0.6981772
0.9003040 0.0000007 0.8494434
1.0000000 0.0000007 0.9822432
0.0000007 0.7705190 0.0000007
0.0000007 0.7705081 0.0000007
0.0000007 0.7704209 0.0000007
0.0000007 0.7700541 0.0000007
0.0000007 0.7687554 0.0000007
0.5189489 0.7644754 0.0000007
0.7500018 0.7499983 0.3749991
0.8947162 0.6859731 0.8196771
1.0000000 0.0000007 0.9746541
0.0000007 0.8953522 0.0000007
0.0000007 0.8953438 0.0000007
0.0000007 0.8953143 0.0000007
0.0000007 0.8951963 0.0000007
0.0000007 0.8947836 0.0000007
0.0000007 0.8934875 0.0000007
0.6423468 0.8893049 0.0000007
0.8750090 0.8750008 0.3749955
1.0000000 0.8077954 0.9463935
0.0000007 1.0000000 0.0000007
0.0000007 1.0000000 0.0000007
0.0000007 1.0000000 0.0000007
0.0000007 1.0000000 0.0000007
0.0000007 1.0000000 0.0000007
0.0000007 1.0000000 0.0000007
0.0000007 1.0000000 0.0000007
0.7599286 1.0000000 0.0000007
1.0000000 1.0000000 0.3750259
0.0000007 0.0001694 0.4999972
0.1368993 0.0000007 0.5005546
0.2686529 0.0000007 0.5047365
0.3980621 0.0000007 0.5209224
0.5258649 0.0000007 0.5636715
0.6524513 0.0000007 0.6415035
0.7780243 0.0000007 0.7458531
0.9027560 0.0000007 0.8634081
1.0000000 0.0000007 0.9863516
0.0000007 0.1336380 0.4994357
0.1249998 0.1249998 0.4999972
0.2666972 0.0000007 0.5042008
0.3975627 0.0000007 0.5204585
0.5257204 0.0000007 0.5633621
0.6523989 0.0000007 0.6413519
0.7780133 0.0000007 0.7457933
0.9027560 0.0000007 0.8633878
1.0000000 0.0000007 0.9863423
0.0000007 0.2635825 0.4950389
0.0000007 0.2621213 0.4956237
0.2500015 0.2500004 0.4999972
0.3936406 0.1565120 0.5168579
0.5245734 0.0000007 0.5609457
0.6520445 0.0000007 0.6401709
0.7778960 0.0000007 0.7453361
0.9027093 0.0000007 0.8632497
1.0000000 0.0000007 0.9863052
0.0000007 0.3918253 0.4739814
0.0000007 0.3914491 0.4746880
0.0000007 0.3885204 0.4799911
0.3749991 0.3749991 0.4999972
0.5195591 0.3039899 0.5500158
0.6504997 0.0000007 0.6349878
0.7774084 0.0000007 0.7433699
0.9025649 0.0000007 0.8625874
1.0000000 0.0000007 0.9861013
0.0000007 0.5188997 0.3149236
0.0000007 0.5187866 0.3183161
0.0000007 0.5179269 0.3409770
0.2440825 0.5141802 0.4027641
0.4999972 0.4999972 0.4999972
0.6449414 0.4351678 0.6147538
0.7756804 0.0000007 0.7362190
0.9020299 0.0000007 0.8602512
1.0000000 0.0000007 0.9853877
0.0000007 0.6450725 0.0000007
0.0000007 0.6450390 0.0000007
0.0000007 0.6447677 0.0000007
0.0000007 0.6436079 0.0000007
0.3890105 0.6394542 0.0000007
0.6249967 0.6249967 0.4999972
0.7699670 0.5618413 0.7095768
0.9002955 0.0000007 0.8524126
1.0000000 0.0000007 0.9830885
0.0000007 0.7705190 0.0000007
0.0000007 0.7705081 0.0000007
0.0000007 0.7704209 0.0000007
0.0000007 0.7700541 0.0000007
0.0000007 0.7687554 0.0000007
0.5189489 0.7644754 0.0000007
0.7499983 0.7499983 0.4999972
0.8947162 0.6859731 0.8235673
1.0000000 0.0000007 0.9755663
0.0000007 0.8953522 0.0000007
0.0000007 0.8953438 0.0000007
0.0000007 0.8953143 0.0000007
0.0000007 0.8951963 0.0000007
0.0000007 0.8947836 0.0000007
0.0000007 0.8934875 0.0000007
0.6423468 0.8893049 0.0000007
0.8750090 0.8750008 0.4999972
1.0000000 0.8077916 0.9475825
0.0000007 1.0000000 0.0000007
0.0000007 1.0000000 0.0000007
0.0000007 1.0000000 0.0000007
0.0000007 1.0000000 0.0000007
0.0000007 1.0000000 0.0000007
0.0000007 1.0000000 0.0000007
0.0000007 1.0000000 0.0000007
0.7599251 1.0000000 0.0000007
1.0000000 1.0000000 0.4999948
0.0000007 0.0002490 0.6249967
0.1368993 0.0000007 0.6251770
0.2686529 0.0000007 0.6265321
0.3980621 0.0000007 0.6321129
0.5258649 0.0000007 0.6496242
0.6524451 0.0000007 0.6921450
0.7780243 0.0000007 0.7683350
0.9027560 0.0000007 0.8715435
1.0000000 0.0000007 0.9889233
0.0000007 0.1336374 0.6248254
0.1249998 0.1250004 0.6249967
0.2666946 0.0000007 0.6263574
0.3975627 0.0000007 0.6319456
0.5257204 0.0000007 0.6494831
0.6523989 0.0000007 0.6920502
0.7780133 0.0000007 0.7682843
0.9027560 0.0000007 0.8715230
1.0000000 0.0000007 0.9889094
0.0000007 0.2635812 0.6234474
0.0000007 0.2621201 0.6236302
0.2500015 0.2500004 0.6249967
0.3936444 0.1565128 0.6306565
0.5245734 0.0000007 0.6483884
0.6520445 0.0000007 0.6913024
0.7778923 0.0000007 0.7679076
0.9027093 0.0000007 0.8713794
1.0000000 0.0000007 0.9888675
0.0000007 0.3918253 0.6173989
0.0000007 0.3914491 0.6175886
0.0000007 0.3885204 0.6190329
0.3749991 0.3749991 0.6249967
0.5195591 0.3039899 0.6435804
0.6504966 0.0000007 0.6880720
0.7774047 0.0000007 0.7663088
0.9025649 0.0000007 0.8707684
1.0000000 0.0000007 0.9886724
0.0000007 0.5188997 0.5932481
0.0000007 0.5187866 0.5934867
0.0000007 0.5179269 0.5952834
0.2440825 0.5141802 0.6026353
0.4999972 0.4999972 0.6249967
0.6449414 0.4351636 0.6760008
0.7756804 0.0000007 0.7605453
0.9020299 0.0000007 0.8686147
1.0000000 0.0000007 0.9879802
0.0000007 0.6450785 0.4205016
0.0000007 0.6450390 0.4216781
0.0000007 0.6447677 0.4303253
0.0000007 0.6436079 0.4607189
0.3890105 0.6394542 0.5270497
0.6249967 0.6249967 0.6249967
0.7699670 0.5618413 0.7397318
0.9003040 0.0000007 0.8613820
1.0000000 0.0000007 0.9857398
0.0000007 0.7705190 0.0000007
0.0000007 0.7705081 0.0000007
0.0000007 0.7704209 0.0000007
0.0000007 0.7700541 0.0000007
0.0000007 0.7687554 0.0000007
0.5189489 0.7644754 0.0000007
0.7499983 0.7499983 0.6249967
0.8947162 0.6859731 0.8351547
1.0000000 0.0000007 0.9784138
0.0000007 0.8953522 0.0000007
0.0000007 0.8953438 0.0000007
0.0000007 0.8953143 0.0000007
0.0000007 0.8951963 0.0000007
0.0000007 0.8947878 0.0000007
0.0000007 0.8934875 0.0000007
0.6423438 0.8893049 0.0000007
0.8750090 0.8750008 0.6249967
1.0000000 0.8077916 0.9513062
0.0000007 1.0000000 0.0000007
0.0000007 1.0000000 0.0000007
0.0000007 1.0000000 0.0000007
0.0000007 1.0000000 0.0000007
0.0000007 1.0000000 0.0000007
0.0000007 1.0000000 0.0000007
0.0000007 1.0000000 0.0000007
0.7599286 1.0000000 0.0000007
1.0000000 1.0000000 0.6249967
0.0000007 0.0005519 0.7499983
0.1368980 0.0000007 0.7500585
0.2686529 0.0000007 0.7504973
0.3980621 0.0000007 0.7523402
0.5258649 0.0000007 0.7585394
0.6524451 0.0000007 0.7763279
0.7780243 0.0000007 0.8182071
0.9027560 0.0000007 0.8934623
1.0000000 0.0000007 0.9965050
0.0000007 0.1336393 0.7499452
0.1249998 0.1249998 0.7499983
0.2666972 0.0000007 0.7504406
0.3975627 0.0000007 0.7522870
0.5257154 0.0000007 0.7584894
0.6523989 0.0000007 0.7762803
0.7780133 0.0000007 0.8181763
0.9027560 0.0000007 0.8934413
1.0000000 0.0000007 0.9964956
0.0000007 0.2635812 0.7495068
0.0000007 0.2621213 0.7495598
0.2500004 0.2500004 0.7499983
0.3936406 0.1565128 0.7518542
0.5245734 0.0000007 0.7580817
0.6520445 0.0000007 0.7759364
0.7778923 0.0000007 0.8179412
0.9027178 0.0000007 0.8933319
1.0000000 0.0000007 0.9964581
0.0000007 0.3918253 0.7476107
0.0000007 0.3914491 0.7476671
0.0000007 0.3885204 0.7481117
0.3749991 0.3750027 0.7499983
0.5195591 0.3039899 0.7563283
0.6504997 0.0000007 0.7744489
0.7774047 0.0000007 0.8169321
0.9025649 0.0000007 0.8928318
1.0000000 0.0000007 0.9962755
0.0000007 0.5188948 0.7407410
0.0000007 0.5187842 0.7408004
0.0000007 0.5179269 0.7412758
0.2440825 0.5141802 0.7432787
0.4999972 0.4999972 0.7499983
0.6449414 0.4351636 0.7691070
0.7756804 0.0000007 0.8133450
0.9020299 0.0000007 0.8910813
1.0000000 0.0000007 0.9956295
0.0000007 0.6450785 0.7153032
0.0000007 0.6450390 0.7153842
0.0000007 0.6447677 0.7159820
0.0000007 0.6436079 0.7185004
0.3890105 0.6394542 0.7268519
0.6249967 0.6249967 0.7499983
0.7699670 0.5618413 0.8009874
0.9003040 0.0000007 0.8852750
1.0000000 0.0000007 0.9935588
0.0000007 0.7705190 0.5338294
0.0000007 0.7705081 0.5342341
0.0000007 0.7704209 0.5373151
0.0000007 0.7700541 0.5495238
0.0000007 0.7687554 0.5837952
0.5189514 0.7644754 0.6518905
0.7499983 0.7499983 0.7499983
0.8947162 0.6859731 0.8648321
1.0000000 0.0000007 0.9867967
0.0000007 0.8953522 0.0000007
0.0000007 0.8953438 0.0000007
0.0000007 0.8953143 0.0000007
0.0000007 0.8951963 0.0000007
0.0000007 0.8947878 0.0000007
0.0000007 0.8934875 0.0000007
0.6423468 0.8893049 0.0000007
0.8750090 0.8750008 0.7499983
1.0000000 0.8077916 0.9620980
0.0000007 1.0000000 0.0000007
0.0000007 1.0000000 0.0000007
0.0000007 1.0000000 0.0000007
0.0000007 1.0000000 0.0000007
0.0000007 1.0000000 0.0000007
0.0000007 1.0000000 0.0000007
0.0000007 1.0000000 0.0000007
0.7599251 1.0000000 0.0000007
1.0000000 1.0000000 0.7499983
0.0000007 0.0015828 0.8750008
0.1368841 0.0000007 0.8750214
0.2686529 0.0000007 0.8751614
0.3980659 0.0000007 0.8757425
0.5258673 0.0000007 0.8777648
0.6524451 0.0000007 0.8839926
0.7780243 0.0000007 0.9013086
0.9027560 0.0000007 0.9422545
1.0000000 0.0000007 1.0000000
0.0000007 0.1336445 0.8749802
0.1249775 0.1250107 0.8750008
0.2666972 0.0000007 0.8751491
0.3975627 0.0000007 0.8757260
0.5257204 0.0000007 0.8777483
0.6523989 0.0000007 0.8839718
0.7780133 0.0000007 0.9013001
0.9027560 0.0000007 0.9422456
1.0000000 0.0000007 1.0000000
0.0000007 0.2635825 0.8748484
0.0000007 0.2621226 0.8748567
0.2499992 0.2500004 0.8750008
0.3936406 0.1565180 0.8755900
0.5245734 0.0000007 0.8776119
0.6520445 0.0000007 0.8838511
0.7778923 0.0000007 0.9011899
0.9027093 0.0000007 0.9421791
1.0000000 0.0000007 1.0000000
0.0000007 0.3918290 0.8742555
0.0000007 0.3914528 0.8742762
0.0000007 0.3885223 0.8744161
0.3749991 0.3749991 0.8750008
0.5195616 0.3039899 0.8770338
0.6504997 0.0000007 0.8833063
0.7774047 0.0000007 0.9007235
0.9025649 0.0000007 0.9418646
1.0000000 0.0000007 1.0000000
0.0000007 0.5188948 0.8721632
0.0000007 0.5187842 0.8721755
0.0000007 0.5179269 0.8723274
0.2440848 0.5141802 0.8729355
0.4999972 0.4999996 0.8750008
0.6449414 0.4351636 0.8813875
0.7756804 0.0000007 0.8991058
0.9020299 0.0000007 0.9407666
1.0000000 0.0000007 1.0000000
0.0000007 0.6450725 0.8651783
0.0000007 0.6450390 0.8652068
0.0000007 0.6447677 0.8653535
0.0000007 0.6436079 0.8659933
0.3890086 0.6394542 0.8682182
0.6249967 0.6249967 0.8750008
0.7699670 0.5618413 0.8937272
0.9003040 0.0000007 0.9371983
1.0000000 0.0000007 1.0000000
0.0000007 0.7705190 0.8399833
0.0000007 0.7705081 0.8400110
0.0000007 0.7704209 0.8402010
0.0000007 0.7700505 0.8410165
0.0000007 0.7687554 0.8438017
0.5189514 0.7644754 0.8522641
0.7499983 0.7499983 0.8750008
0.8947162 0.6859731 0.9251927
1.0000000 0.0000007 1.0000000
0.0000007 0.8953522 0.6542943
0.0000007 0.8953438 0.6544303
0.0000007 0.8953143 0.6554732
0.0000007 0.8951963 0.6597919
0.0000007 0.8947836 0.6736550
0.0000007 0.8934875 0.7090479
0.6423438 0.8893008 0.7771115
0.8750090 0.8750008 0.8750090
1.0000000 0.8077916 0.9900534
0.0000007 1.0000000 0.0000007
0.0000007 1.0000000 0.0000007
0.0000007 1.0000000 0.0000007
0.0000007 1.0000000 0.0000007
0.0000007 1.0000000 0.0000007
0.0000007 1.0000000 0.0000007
0.0000007 1.0000000 0.0000007
0.7599286 1.0000000 0.0000007
1.0000000 1.0000000 0.8750008
0.0000007 0.0018746 1.0000000
0.1368947 0.0000007 1.0000000
0.2686517 0.0000007 1.0000000
0.3980621 0.0000007 1.0000000
0.5258649 0.0000007 1.0000000
0.6524451 0.0000007 1.0000000
0.7780280 0.0000007 1.0000000
0.9027560 0.0000007 1.0000000
1.0000000 0.0000007 1.0000000
0.0000007 0.1336586 1.0000000
0.1249986 0.1249986 1.0000000
0.2666933 0.0000007 1.0000000
0.3975627 0.0000007 1.0000000
0.5257154 0.0000007 1.0000000
0.6523989 0.0000007 1.0000000
0.7780133 0.0000007 1.0000000
0.9027560 0.0000007 1.0000000
1.0000000 0.0000007 1.0000000
0.0000007 0.2635837 0.9999530
0.0000007 0.2621238 0.9999530
0.2499992 0.2500027 1.0000000
0.3936406 0.1565323 1.0000000
0.5245734 0.0000007 1.0000000
0.6520414 0.0000007 1.0000000
0.7778923 0.0000007 1.0000000
0.9027178 0.0000007 1.0000000
1.0000000 0.0000007 1.0000000
0.0000007 0.3918253 0.9997792
0.0000007 0.3914491 0.9997792
0.0000007 0.3885223 0.9998261
0.3750027 0.3749991 1.0000000
0.5195591 0.3039899 1.0000000
0.6504997 0.0000007 1.0000000
0.7774047 0.0000007 1.0000000
0.9025649 0.0000007 1.0000000
1.0000000 0.0000007 1.0000000
0.0000007 0.5188997 0.9991592
0.0000007 0.5187866 0.9991592
0.0000007 0.5179269 0.9992061
0.2440778 0.5141802 0.9993799
0.4999996 0.4999972 1.0000000
0.6449414 0.4351636 1.0000000
0.7756804 0.0000007 1.0000000
0.9020299 0.0000007 1.0000000
1.0000000 0.0000007 1.0000000
0.0000007 0.6450785 0.9971421
0.0000007 0.6450390 0.9971514
0.0000007 0.6447738 0.9971983
0.0000007 0.6436079 0.9973811
0.3890179 0.6394542 0.9980094
0.6249967 0.6249967 1.0000000
0.7699670 0.5618413 1.0000000
0.9002955 0.0000007 1.0000000
1.0000000 0.0000007 1.0000000
0.0000007 0.7705190 0.9906353
0.0000007 0.7705081 0.9906446
0.0000007 0.7704209 0.9906818
0.0000007 0.7700505 0.9908867
0.0000007 0.7687554 0.9915529
0.5189489 0.7644754 0.9936662
0.7499983 0.7500018 1.0000000
0.8947162 0.6859731 1.0000000
1.0000000 0.0000007 1.0000000
0.0000007 0.8953522 0.9669775
0.0000007 0.8953438 0.9669775
0.0000007 0.8953143 0.9670321
0.0000007 0.8951963 0.9672776
0.0000007 0.8947836 0.9681284
0.0000007 0.8934791 0.9707901
0.6423438 0.8893049 0.9786622
0.8750008 0.8750008 1.0000000
1.0000000 0.8077916 1.0000000
0.0000007 1.0000000 0.7814171
0.0000007 1.0000000 0.7814540
0.0000007 1.0000000 0.7817856
0.0000007 1.0000000 0.7831762
0.0000007 1.0000000 0.7878863
0.0000007 1.0000000 0.8017314
0.0000007 1.0000000 0.8361033
0.7599251 1.0000000 0.9026838
1.0000000 1.0000000 1.0000000
