looks/cb_prot_pq.cube
LUT_3D_SIZE 5
0.0000007 0.0000007 0.0000007
0.2686542 0.0000007 0.2401301
0.5258649 0.0000007 0.4860392
0.7780243 0.0000007 0.7346820
1.0000000 0.0000007 0.9852442
0.0000007 0.2635825 0.0000007
0.2500004 0.2500004 0.0000300
0.5245734 0.0000007 0.4803669
0.7778923 0.0000007 0.7341172
1.0000000 0.0000007 0.9851886
0.0000007 0.5188997 0.0000007
0.0000007 0.5179269 0.0000007
0.4999972 0.4999972 0.0001165
0.7756804 0.0000007 0.7239698
1.0000000 0.0000007 0.9842721
0.0000007 0.7705190 0.0000007
0.0000007 0.7704209 0.0000007
0.0000007 0.7687554 0.0000007
0.7499983 0.7499983 0.0000007
1.0000000 0.0000007 0.9743335
0.0000007 1.0000000 0.0000007
0.0000007 1.0000000 0.0000007
0.0000007 1.0000000 0.0000007
0.0000007 1.0000000 0.0000007
1.0000000 1.0000000 0.0028123
0.0000007 0.0000300 0.2500004
0.2686542 0.0000007 0.2967536
0.5258698 0.0000007 0.4922091
0.7780243 0.0000007 0.7353408
1.0000000 0.0000007 0.9853090
0.0000007 0.2635825 0.1309009
0.2500004 0.2500015 0.2500004
0.5245734 0.0000007 0.4868628
0.7778923 0.0000007 0.7347686
1.0000000 0.0000007 0.9852535
0.0000007 0.5188997 0.0000007
0.0000007 0.5179269 0.0000007
0.4999972 0.4999972 0.2500004
0.7756804 0.0000007 0.7246875
1.0000000 0.0000007 0.9843323
0.0000007 0.7705190 0.0000007
0.0000007 0.7704209 0.0000007
0.0000007 0.7687554 0.0000007
0.7499983 0.7499983 0.2500004
1.0000000 0.0000007 0.9743976
0.0000007 1.0000000 0.0000007
0.0000007 1.0000000 0.0000007
0.0000007 1.0000000 0.0000007
0.0000007 1.0000000 0.0000007
1.0000000 1.0000000 0.2499262
0.0000007 0.0001694 0.4999972
0.2686529 0.0000007 0.5047365
0.5258649 0.0000007 0.5636715
0.7780243 0.0000007 0.7458531
1.0000000 0.0000007 0.9863516
0.0000007 0.2635825 0.4950389
0.2500015 0.2500004 0.4999972
0.5245734 0.0000007 0.5609457
0.7778960 0.0000007 0.7453361
1.0000000 0.0000007 0.9863052
0.0000007 0.5188997 0.3149236
0.0000007 0.5179269 0.3409770
0.4999972 0.4999972 0.4999972
0.7756804 0.0000007 0.7362190
1.0000000 0.0000007 0.9853877
0.0000007 0.7705190 0.0000007
0.0000007 0.7704209 0.0000007
0.0000007 0.7687554 0.0000007
0.7499983 0.7499983 0.4999972
1.0000000 0.0000007 0.9755663
0.0000007 1.0000000 0.0000007
0.0000007 1.0000000 0.0000007
0.0000007 1.0000000 0.0000007
0.0000007 1.0000000 0.0000007
1.0000000 1.0000000 0.4999948
0.0000007 0.0005519 0.7499983
0.2686529 0.0000007 0.7504973
0.5258649 0.0000007 0.7585394
0.7780243 0.0000007 0.8182071
1.0000000 0.0000007 0.9965050
0.0000007 0.2635812 0.7495068
0.2500004 0.2500004 0.7499983
0.5245734 0.0000007 0.7580817
0.7778923 0.0000007 0.8179412
1.0000000 0.0000007 0.9964581
0.0000007 0.5188948 0.7407410
0.0000007 0.5179269 0.7412758
0.4999972 0.4999972 0.7499983
0.7756804 0.0000007 0.8133450
1.0000000 0.0000007 0.9956295
0.0000007 0.7705190 0.5338294
0.0000007 0.7704209 0.5373151
0.0000007 0.7687554 0.5837952
0.7499983 0.7499983 0.7499983
1.0000000 0.0000007 0.9867967
0.0000007 1.0000000 0.0000007
0.0000007 1.0000000 0.0000007
0.0000007 1.0000000 0.0000007
0.0000007 1.0000000 0.0000007
1.0000000 1.0000000 0.7499983
0.0000007 0.0018746 1.0000000
0.2686517 0.0000007 1.0000000
0.5258649 0.0000007 1.0000000
0.7780280 0.0000007 1.0000000
1.0000000 0.0000007 1.0000000
0.0000007 0.2635837 0.9999530
0.2499992 0.2500027 1.0000000
0.5245734 0.0000007 1.0000000
0.7778923 0.0000007 1.0000000
1.0000000 0.0000007 1.0000000
0.0000007 0.5188997 0.9991592
0.0000007 0.5179269 0.9992061
0.4999996 0.4999972 1.0000000
0.7756804 0.0000007 1.0000000
1.0000000 0.0000007 1.0000000
0.0000007 0.7705190 0.9906353
0.0000007 0.7704209 0.9906818
0.0000007 0.7687554 0.9915529
0.7499983 0.7500018 1.0000000
1.0000000 0.0000007 1.0000000
0.0000007 1.0000000 0.7814171
0.0000007 1.0000000 0.7817856
0.0000007 1.0000000 0.7878863
0.0000007 1.0000000 0.8361033
1.0000000 1.0000000 1.0000000
