looks/cb_trit_pq.cube
LUT_3D_SIZE 5
0.0000007 0.0000007 0.0000007
0.2500004 0.0000302 0.0000168
0.4999972 0.0002692 0.0000007
0.7499983 0.0006867 0.0000007
1.0000000 0.0028631 0.0005519
0.0000007 0.2589505 0.0000007
0.2082538 0.2589505 0.0000007
0.4973893 0.2589505 0.0000007
0.7497366 0.2589505 0.0000007
0.9999765 0.2589554 0.0000007
0.0000007 0.5124943 0.0000007
0.0000007 0.5124943 0.0000007
0.4395127 0.5124943 0.0000007
0.7451674 0.5124894 0.0000007
0.9995583 0.5124943 0.0000007
0.0000007 0.7635963 0.0000007
0.0000007 0.7635927 0.0000007
0.0000007 0.7635927 0.0000007
0.6826190 0.7635963 0.0000007
0.9951290 0.7635927 0.0000007
0.0000007 1.0000000 0.0000007
0.0000007 1.0000000 0.0000007
0.0000007 1.0000000 0.0000007
0.0000007 1.0000000 0.0000007
0.9343199 1.0000000 0.0000007
0.1988117 0.0000007 0.2505138
0.2778661 0.0000007 0.2505138
0.5025495 0.0000007 0.2505138
0.7502601 0.0000007 0.2505138
1.0000000 0.0000007 0.2505138
0.0000574 0.2500004 0.2500004
0.2500004 0.2500015 0.2500004
0.4999972 0.2500004 0.2500004
0.7499983 0.2500015 0.2500004
1.0000000 0.2500027 0.2500004
0.0000007 0.5118291 0.2408251
0.0000007 0.5118316 0.2408251
0.4439784 0.5118291 0.2408251
0.7454416 0.5118291 0.2408251
0.9995725 0.5118316 0.2408262
0.0000007 0.7635243 0.0000007
0.0000007 0.7635243 0.0000007
0.0000007 0.7635243 0.0000007
0.6831027 0.7635243 0.0000007
0.9951524 0.7635243 0.0000007
0.0000007 1.0000000 0.0000007
0.0000007 1.0000000 0.0000007
0.0000007 1.0000000 0.0000007
0.0000007 1.0000000 0.0000007
0.9343727 1.0000000 0.0000007
0.4252673 0.0000007 0.5007184
0.4360139 0.0000007 0.5007184
0.5384105 0.0000007 0.5007184
0.7546288 0.0000007 0.5007184
1.0000000 0.0000007 0.5007184
0.4198927 0.0000007 0.5006780
0.4311867 0.0000007 0.5006780
0.5365877 0.0000007 0.5006780
0.7543725 0.0000007 0.5006780
1.0000000 0.0000007 0.5006780
0.0000007 0.4999972 0.4999972
0.2500004 0.4999972 0.4999972
0.4999972 0.4999972 0.4999972
0.7499983 0.4999996 0.4999972
1.0000000 0.5000020 0.4999972
0.0000007 0.7623874 0.4927742
0.0000007 0.7623874 0.4927789
0.0000007 0.7623874 0.4927742
0.6910054 0.7623874 0.4927742
0.9955968 0.7623874 0.4927742
0.0000007 1.0000000 0.3589944
0.0000007 1.0000000 0.3589961
0.0000007 1.0000000 0.3589961
0.0000007 1.0000000 0.3589944
0.9351684 1.0000000 0.3589944
0.6663352 0.0000007 0.7507840
0.6675544 0.0000007 0.7507840
0.6862614 0.0000007 0.7507840
0.7914558 0.0000007 0.7507840
1.0000000 0.0000007 0.7507840
0.6657752 0.0000007 0.7507840
0.6669902 0.0000007 0.7507840
0.6857917 0.0000007 0.7507840
0.7912731 0.0000007 0.7507840
1.0000000 0.0000007 0.7507840
0.6557457 0.0000007 0.7507132
0.6570855 0.0000007 0.7507132
0.6774966 0.0000007 0.7507132
0.7881686 0.0000007 0.7507132
1.0000000 0.0000007 0.7507132
0.0000007 0.7499983 0.7499983
0.2499896 0.7499983 0.7499983
0.4999972 0.7499983 0.7499983
0.7499983 0.7499983 0.7499983
1.0000000 0.7500018 0.7499983
0.0000007 1.0000000 0.7425113
0.0000007 1.0000000 0.7425113
0.0000007 1.0000000 0.7425113
0.0000007 1.0000000 0.7425113
0.9429859 1.0000000 0.7425113
0.9181514 0.0000007 1.0000000
0.9182637 0.0000007 1.0000000
0.9202617 0.0000007 1.0000000
0.9387954 0.0000007 1.0000000
1.0000000 0.0000007 1.0000000
0.9180952 0.0000007 1.0000000
0.9182032 0.0000007 1.0000000
0.9202097 0.0000007 1.0000000
0.9387468 0.0000007 1.0000000
1.0000000 0.0000007 1.0000000
0.9171498 0.0000007 1.0000000
0.9172706 0.0000007 1.0000000
0.9192924 0.0000007 1.0000000
0.9379833 0.0000007 1.0000000
1.0000000 0.0000007 1.0000000
0.9070139 0.0000007 1.0000000
0.9071590 0.0000007 1.0000000
0.9093684 0.0000007 1.0000000
0.9297518 0.0000007 1.0000000
1.0000000 0.0000007 1.0000000
0.0000007 1.0000000 1.0000000
0.2499202 1.0000000 1.0000000
0.4999972 1.0000000 1.0000000
0.7500018 1.0000000 1.0000000
1.0000000 1.0000000 1.0000000
