looks/cb_trit_pq.cube
LUT_3D_SIZE 9
0.0000007 0.0000007 0.0000007
0.1249998 0.0000221 0.0000007
0.2500004 0.0000302 0.0000168
0.3750027 0.0001286 0.0000300
0.4999972 0.0002692 0.0000007
0.6249967 0.0002310 0.0001165
0.7499983 0.0006867 0.0000007
0.8750008 0.0009858 0.0000007
1.0000000 0.0028631 0.0005519
0.0000007 0.1306757 0.0000007
0.0993821 0.1306757 0.0000007
0.2461287 0.1306757 0.0000007
0.3740065 0.1306764 0.0000007
0.4997010 0.1306757 0.0000007
0.6249081 0.1306770 0.0000007
0.7499735 0.1306783 0.0000007
0.8749925 0.1306751 0.0000007
1.0000000 0.1306732 0.0000007
0.0000007 0.2589505 0.0000007
0.0000007 0.2589505 0.0000007
0.2082538 0.2589505 0.0000007
0.3660228 0.2589505 0.0000007
0.4973893 0.2589505 0.0000007
0.6241788 0.2589517 0.0000007
0.7497366 0.2589505 0.0000007
0.8749143 0.2589529 0.0000007
0.9999765 0.2589554 0.0000007
0.0000007 0.3861072 0.0000007
0.0000007 0.3861072 0.0000007
0.0000007 0.3861109 0.0000007
0.3220807 0.3861072 0.0000007
0.4869436 0.3861072 0.0000007
0.6210175 0.3861072 0.0000007
0.7487329 0.3861072 0.0000007
0.8746013 0.3861072 0.0000007
0.9998872 0.3861072 0.0000007
0.0000007 0.5124943 0.0000007
0.0000007 0.5124943 0.0000007
0.0000007 0.5124943 0.0000007
0.0000007 0.5124943 0.0000007
0.4395127 0.5124943 0.0000007
0.6092465 0.5124943 0.0000007
0.7451674 0.5124894 0.0000007
0.8734945 0.5124943 0.0000007
0.9995583 0.5124943 0.0000007
0.0000007 0.6382856 0.0000007
0.0000007 0.6382856 0.0000007
0.0000007 0.6382856 0.0000007
0.0000007 0.6382856 0.0000007
0.0000007 0.6382856 0.0000007
0.5598474 0.6382856 0.0000007
0.7329025 0.6382856 0.0000007
0.8698915 0.6382856 0.0000007
0.9984926 0.6382856 0.0000007
0.0000007 0.7635963 0.0000007
0.0000007 0.7635927 0.0000007
0.0000007 0.7635927 0.0000007
0.0000007 0.7635927 0.0000007
0.0000007 0.7635927 0.0000007
0.0000007 0.7635927 0.0000007
0.6826190 0.7635963 0.0000007
0.8577920 0.7635963 0.0000007
0.9951290 0.7635927 0.0000007
0.0000007 0.8884808 0.0000007
0.0000007 0.8884808 0.0000007
0.0000007 0.8884808 0.0000007
0.0000007 0.8884808 0.0000007
0.0000007 0.8884808 0.0000007
0.0000007 0.8884808 0.0000007
0.0000007 0.8884808 0.0000007
0.8075252 0.8884808 0.0000007
0.9837680 0.8884808 0.0000007
0.0000007 1.0000000 0.0000007
0.0000007 1.0000000 0.0000007
0.0000007 1.0000000 0.0000007
0.0000007 1.0000000 0.0000007
0.0000007 1.0000000 0.0000007
0.0000007 1.0000000 0.0000007
0.0000007 1.0000000 0.0000007
0.0000007 1.0000000 0.0000007
0.9343199 1.0000000 0.0000007
0.0937903 0.0000007 0.1253235
0.1428754 0.0000007 0.1253235
0.2537040 0.0000007 0.1253235
0.3759836 0.0000007 0.1253235
0.5002959 0.0000007 0.1253235
0.6250913 0.0000007 0.1253235
0.7500302 0.0000007 0.1253235
0.8750173 0.0000007 0.1253241
1.0000000 0.0000007 0.1253241
0.0000007 0.1249998 0.1249998
0.1249998 0.1249998 0.1249998
0.2500015 0.1249998 0.1249998
0.3749991 0.1249986 0.1249998
0.4999972 0.1250010 0.1249998
0.6250026 0.1250004 0.1250010
0.7499983 0.1250034 0.1249998
0.8750008 0.1250004 0.1250004
1.0000000 0.1250064 0.1250016
0.0000007 0.2579657 0.1224534
0.0000007 0.2579657 0.1224534
0.2143051 0.2579657 0.1224534
0.3671010 0.2579657 0.1224534
0.4976936 0.2579657 0.1224546
0.6242732 0.2579657 0.1224534
0.7497649 0.2579657 0.1224534
0.8749266 0.2579657 0.1224552
0.9999765 0.2579719 0.1224558
0.0000007 0.3858520 0.1101840
0.0000007 0.3858520 0.1101840
0.0000007 0.3858520 0.1101840
0.3237695 0.3858557 0.1101846
0.4872786 0.3858520 0.1101846
0.6211173 0.3858557 0.1101840
0.7487683 0.3858520 0.1101851
0.8746178 0.3858520 0.1101846
0.9998872 0.3858593 0.1101878
0.0000007 0.5124165 0.0000007
0.0000007 0.5124165 0.0000007
0.0000007 0.5124165 0.0000007
0.0000007 0.5124165 0.0000007
0.4400368 0.5124165 0.0000007
0.6093560 0.5124165 0.0000007
0.7452025 0.5124165 0.0000007
0.8735110 0.5124165 0.0000007
0.9995583 0.5124165 0.0000007
0.0000007 0.6382645 0.0000007
0.0000007 0.6382645 0.0000007
0.0000007 0.6382645 0.0000007
0.0000007 0.6382645 0.0000007
0.0000007 0.6382585 0.0000007
0.5600144 0.6382585 0.0000007
0.7329336 0.6382585 0.0000007
0.8699120 0.6382585 0.0000007
0.9984926 0.6382645 0.0000007
0.0000007 0.7635855 0.0000007
0.0000007 0.7635855 0.0000007
0.0000007 0.7635855 0.0000007
0.0000007 0.7635855 0.0000007
0.0000007 0.7635855 0.0000007
0.0000007 0.7635855 0.0000007
0.6826738 0.7635855 0.0000007
0.8578082 0.7635855 0.0000007
0.9951290 0.7635855 0.0000007
0.0000007 0.8884808 0.0000007
0.0000007 0.8884808 0.0000007
0.0000007 0.8884808 0.0000007
0.0000007 0.8884808 0.0000007
0.0000007 0.8884808 0.0000007
0.0000007 0.8884808 0.0000007
0.0000007 0.8884808 0.0000007
0.8075404 0.8884808 0.0000007
0.9837680 0.8884808 0.0000007
0.0000007 1.0000000 0.0000007
0.0000007 1.0000000 0.0000007
0.0000007 1.0000000 0.0000007
0.0000007 1.0000000 0.0000007
0.0000007 1.0000000 0.0000007
0.0000007 1.0000000 0.0000007
0.0000007 1.0000000 0.0000007
0.0000007 1.0000000 0.0000007
0.9343287 1.0000000 0.0000007
0.1988117 0.0000007 0.2505138
0.2128272 0.0000007 0.2505138
0.2778661 0.0000007 0.2505138
0.3832363 0.0000007 0.2505138
0.5025495 0.0000007 0.2505138
0.6258157 0.0000007 0.2505138
0.7502601 0.0000007 0.2505138
0.8750790 0.0000007 0.2505138
1.0000000 0.0000007 0.2505138
0.1913602 0.0000007 0.2504539
0.2066566 0.0000007 0.2504539
0.2750691 0.0000007 0.2504539
0.3823222 0.0000007 0.2504539
0.5022565 0.0000007 0.2504539
0.6257240 0.0000007 0.2504539
0.7502354 0.0000007 0.2504539
0.8750749 0.0000007 0.2504539
1.0000000 0.0000007 0.2504551
0.0000574 0.2500004 0.2500004
0.1249998 0.2500015 0.2500004
0.2500004 0.2500015 0.2500004
0.3749991 0.2500015 0.2500004
0.4999972 0.2500004 0.2500004
0.6249967 0.2500004 0.2500004
0.7499983 0.2500015 0.2500004
0.8750008 0.2500004 0.2500015
1.0000000 0.2500027 0.2500004
0.0000007 0.3838767 0.2480386
0.0000007 0.3838767 0.2480386
0.0000007 0.3838767 0.2480386
0.3358257 0.3838767 0.2480386
0.4898178 0.3838767 0.2480386
0.6218695 0.3838803 0.2480386
0.7490014 0.3838767 0.2480386
0.8746960 0.3838767 0.2480398
0.9999060 0.3838749 0.2480386
0.0000007 0.5118291 0.2408251
0.0000007 0.5118291 0.2408251
0.0000007 0.5118316 0.2408251
0.0000007 0.5118291 0.2408251
0.4439784 0.5118291 0.2408251
0.6101894 0.5118291 0.2408251
0.7454416 0.5118291 0.2408251
0.8735891 0.5118291 0.2408251
0.9995725 0.5118316 0.2408262
0.0000007 0.6380776 0.2123107
0.0000007 0.6380776 0.2123107
0.0000007 0.6380776 0.2123107
0.0000007 0.6380776 0.2123107
0.0000007 0.6380776 0.2123107
0.5613149 0.6380776 0.2123107
0.7332103 0.6380776 0.2123107
0.8699775 0.6380776 0.2123107
0.9985254 0.6380776 0.2123107
0.0000007 0.7635243 0.0000007
0.0000007 0.7635243 0.0000007
0.0000007 0.7635243 0.0000007
0.0000007 0.7635243 0.0000007
0.0000007 0.7635243 0.0000007
0.0000007 0.7635243 0.0000007
0.6831027 0.7635243 0.0000007
0.8578970 0.7635243 0.0000007
0.9951524 0.7635243 0.0000007
0.0000007 0.8884599 0.0000007
0.0000007 0.8884599 0.0000007
0.0000007 0.8884599 0.0000007
0.0000007 0.8884599 0.0000007
0.0000007 0.8884599 0.0000007
0.0000007 0.8884682 0.0000007
0.0000007 0.8884599 0.0000007
0.8076812 0.8884599 0.0000007
0.9837957 0.8884599 0.0000007
0.0000007 1.0000000 0.0000007
0.0000007 1.0000000 0.0000007
0.0000007 1.0000000 0.0000007
0.0000007 1.0000000 0.0000007
0.0000007 1.0000000 0.0000007
0.0000007 1.0000000 0.0000007
0.0000007 1.0000000 0.0000007
0.0000007 1.0000000 0.0000007
0.9343727 1.0000000 0.0000007
0.3098314 0.0000007 0.3756385
0.3139369 0.0000007 0.3756385
0.3406473 0.0000007 0.3756385
0.4093303 0.0000007 0.3756385
0.5116351 0.0000007 0.3756385
0.6288435 0.0000007 0.3756385
0.7512516 0.0000007 0.3756385
0.8754004 0.0000007 0.3756385
1.0000000 0.0000007 0.3756420
0.3078706 0.0000007 0.3756259
0.3120620 0.0000007 0.3756259
0.3392335 0.0000007 0.3756259
0.4086305 0.0000007 0.3756259
0.5113685 0.0000007 0.3756259
0.6287514 0.0000007 0.3756259
0.7512197 0.0000007 0.3756259
0.8753922 0.0000007 0.3756259
1.0000000 0.0000007 0.3756295
0.2912404 0.2036730 0.3755044
0.2962371 0.2036730 0.3755044
0.3276260 0.2036730 0.3755044
0.4030323 0.2036739 0.3755044
0.5092931 0.2036730 0.3755044
0.6280444 0.2036739 0.3755044
0.7509894 0.2036749 0.3755044
0.8753139 0.2036749 0.3755080
1.0000000 0.2036847 0.3755044
0.0000007 0.3749991 0.3749991
0.1249992 0.3749991 0.3750027
0.2500004 0.3749991 0.3749991
0.3749991 0.3750027 0.3749991
0.4999972 0.3749991 0.3749991
0.6249967 0.3749991 0.3749991
0.7499983 0.3749991 0.3749991
0.8750008 0.3750027 0.3749991
1.0000000 0.3749991 0.3750027
0.0000007 0.5093052 0.3732172
0.0000007 0.5093052 0.3732172
0.0000007 0.5093052 0.3732172
0.0000007 0.5093052 0.3732172
0.4592780 0.5093052 0.3732172
0.6136647 0.5093052 0.3732172
0.7464761 0.5093052 0.3732172
0.8739058 0.5093052 0.3732243
0.9996711 0.5093027 0.3732207
0.0000007 0.6372879 0.3672880
0.0000007 0.6372879 0.3672845
0.0000007 0.6372879 0.3672880
0.0000007 0.6372879 0.3672880
0.0000007 0.6372879 0.3672880
0.5667000 0.6372879 0.3672880
0.7343631 0.6372879 0.3672880
0.8703052 0.6372879 0.3672845
0.9986146 0.6372909 0.3672845
0.0000007 0.7632687 0.3461534
0.0000007 0.7632687 0.3461534
0.0000007 0.7632687 0.3461534
0.0000007 0.7632687 0.3461534
0.0000007 0.7632687 0.3461534
0.0000007 0.7632687 0.3461534
0.6849147 0.7632687 0.3461534
0.8582607 0.7632687 0.3461534
0.9952506 0.7632759 0.3461534
0.0000007 0.8883929 0.1964662
0.0000007 0.8883762 0.1964662
0.0000007 0.8883929 0.1964662
0.0000007 0.8883762 0.1964643
0.0000007 0.8883762 0.1964662
0.0000007 0.8883929 0.1964662
0.0000007 0.8883762 0.1964662
0.8082637 0.8883762 0.1964671
0.9839067 0.8883762 0.1964633
0.0000007 1.0000000 0.0000007
0.0000007 1.0000000 0.0000007
0.0000007 1.0000000 0.0000007
0.0000007 1.0000000 0.0000007
0.0000007 1.0000000 0.0000007
0.0000007 1.0000000 0.0000007
0.0000007 1.0000000 0.0000007
0.0000007 1.0000000 0.0000007
0.9345441 1.0000000 0.0000007
0.4252673 0.0000007 0.5007184
0.4265622 0.0000007 0.5007184
0.4360139 0.0000007 0.5007184
0.4687683 0.0000007 0.5007184
0.5384105 0.0000007 0.5007184
0.6387836 0.0000007 0.5007184
0.7546288 0.0000007 0.5007184
0.8764849 0.0000007 0.5007184
1.0000000 0.0000007 0.5007184
0.4246616 0.0000007 0.5007160
0.4259669 0.0000007 0.5007160
0.4354696 0.0000007 0.5007160
0.4683681 0.0000007 0.5007160
0.5381989 0.0000007 0.5007160
0.6387021 0.0000007 0.5007160
0.7545967 0.0000007 0.5007160
0.8764725 0.0000007 0.5007160
1.0000000 0.0000007 0.5007112
0.4198927 0.0000007 0.5006780
0.4212635 0.0000007 0.5006780
0.4311867 0.0000007 0.5006780
0.4652560 0.0000007 0.5006780
0.5365877 0.0000007 0.5006780
0.6380565 0.0000007 0.5006780
0.7543725 0.0000007 0.5006780
0.8763982 0.0000007 0.5006780
1.0000000 0.0000007 0.5006780
0.3966922 0.3357777 0.5005261
0.3983991 0.3357777 0.5005261
0.4106515 0.3357777 0.5005261
0.4508628 0.3357777 0.5005261
0.5294347 0.3357777 0.5005261
0.6352790 0.3357761 0.5005261
0.7534161 0.3357761 0.5005261
0.8760847 0.3357761 0.5005308
1.0000000 0.3357777 0.5005308
0.0000007 0.4999972 0.4999972
0.1249986 0.4999972 0.4999972
0.2500004 0.4999972 0.4999972
0.3750027 0.4999972 0.4999972
0.4999972 0.4999972 0.4999972
0.6249967 0.4999972 0.4999972
0.7499983 0.4999996 0.4999972
0.8750008 0.4999996 0.4999972
1.0000000 0.5000020 0.4999972
0.0000007 0.6344867 0.4982862
0.0000007 0.6344867 0.4982862
0.0000007 0.6344867 0.4982862
0.0000007 0.6344867 0.4982862
0.0000007 0.6344867 0.4982862
0.5836295 0.6344867 0.4982862
0.7382885 0.6344867 0.4982862
0.8714368 0.6344867 0.4982862
0.9989432 0.6344867 0.4982839
0.0000007 0.7623874 0.4927742
0.0000007 0.7623874 0.4927742
0.0000007 0.7623874 0.4927789
0.0000007 0.7623874 0.4927742
0.0000007 0.7623874 0.4927742
0.0000007 0.7623874 0.4927742
0.6910054 0.7623874 0.4927742
0.8595386 0.7623874 0.4927742
0.9955968 0.7623874 0.4927742
0.0000007 0.8881087 0.4733747
0.0000007 0.8881087 0.4733702
0.0000007 0.8881087 0.4733702
0.0000007 0.8881087 0.4733747
0.0000007 0.8881087 0.4733747
0.0000007 0.8881087 0.4733747
0.0000007 0.8881087 0.4733702
0.8102810 0.8881087 0.4733747
0.9842860 0.8881087 0.4733747
0.0000007 1.0000000 0.3589944
0.0000007 1.0000000 0.3589944
0.0000007 1.0000000 0.3589961
0.0000007 1.0000000 0.3589961
0.0000007 1.0000000 0.3589961
0.0000007 1.0000000 0.3589944
0.0000007 1.0000000 0.3589944
0.0000007 1.0000000 0.3589944
0.9351684 1.0000000 0.3589944
0.5442845 0.0000007 0.6257654
0.5447074 0.0000007 0.6257654
0.5479258 0.0000007 0.6257654
0.5606404 0.0000007 0.6257654
0.5960808 0.0000007 0.6257654
0.6656714 0.0000007 0.6257654
0.7647927 0.0000007 0.6257654
0.8798787 0.0000007 0.6257654
1.0000000 0.0000007 0.6257654
0.5440860 0.0000007 0.6257654
0.5445139 0.0000007 0.6257654
0.5477338 0.0000007 0.6257654
0.5604679 0.0000007 0.6257654
0.5959596 0.0000007 0.6257654
0.6656054 0.0000007 0.6257654
0.7647638 0.0000007 0.6257654
0.8798662 0.0000007 0.6257654
1.0000000 0.0000007 0.6257654
0.5425601 0.0000007 0.6257536
0.5429946 0.0000007 0.6257536
0.5462573 0.0000007 0.6257536
0.5591587 0.0000007 0.6257536
0.5950103 0.0000007 0.6257536
0.6650994 0.0000007 0.6257536
0.7645620 0.0000007 0.6257536
0.8798000 0.0000007 0.6257536
1.0000000 0.0000007 0.6257536
0.5358054 0.0000007 0.6257063
0.5362650 0.0000007 0.6257063
0.5397357 0.0000007 0.6257063
0.5533804 0.0000007 0.6257063
0.5908785 0.0000007 0.6257063
0.6629288 0.0000007 0.6257063
0.7636827 0.0000007 0.6257063
0.8794978 0.0000007 0.6257063
1.0000000 0.0000007 0.6257092
0.5082850 0.4631940 0.6255377
0.5088781 0.4631962 0.6255377
0.5133281 0.4631940 0.6255377
0.5304514 0.4631940 0.6255377
0.5751169 0.4631940 0.6255377
0.6550150 0.4631940 0.6255377
0.7605811 0.4631940 0.6255377
0.8784468 0.4631940 0.6255377
1.0000000 0.4631940 0.6255377
0.0000007 0.6249967 0.6249967
0.1250082 0.6249967 0.6249967
0.2499992 0.6249967 0.6249967
0.3749991 0.6249967 0.6249967
0.4999996 0.6249967 0.6249967
0.6249967 0.6249967 0.6249967
0.7499983 0.6249967 0.6249967
0.8750008 0.6250026 0.6249967
1.0000000 0.6249967 0.6249967
0.0000007 0.7595023 0.6233030
0.0000007 0.7595023 0.6233030
0.0000007 0.7595023 0.6233030
0.0000007 0.7595023 0.6233030
0.0000007 0.7595023 0.6233059
0.0000007 0.7595023 0.6233030
0.7085126 0.7595023 0.6233030
0.8635098 0.7595023 0.6233030
0.9966829 0.7595023 0.6233030
0.0000007 0.8872188 0.6178135
0.0000007 0.8872188 0.6178135
0.0000007 0.8872188 0.6178135
0.0000007 0.8872188 0.6178135
0.0000007 0.8872188 0.6178135
0.0000007 0.8872188 0.6178135
0.0000007 0.8872188 0.6178135
0.8164973 0.8872188 0.6178135
0.9855128 0.8872188 0.6178135
0.0000007 1.0000000 0.5977185
0.0000007 1.0000000 0.5977128
0.0000007 1.0000000 0.5977185
0.0000007 1.0000000 0.5977185
0.0000007 1.0000000 0.5977185
0.0000007 1.0000000 0.5977128
0.0000007 1.0000000 0.5977185
0.0000007 1.0000000 0.5977128
0.9371190 1.0000000 0.5977185
0.6663352 0.0000007 0.7507840
0.6664769 0.0000007 0.7507840
0.6675544 0.0000007 0.7507840
0.6720025 0.0000007 0.7507840
0.6862614 0.0000007 0.7507840
0.7224647 0.0000007 0.7507840
0.7914558 0.0000007 0.7507840
0.8898115 0.0000007 0.7507840
1.0000000 0.0000007 0.7507840
0.6662723 0.0000007 0.7507876
0.6664108 0.0000007 0.7507876
0.6674851 0.0000007 0.7507876
0.6719454 0.0000007 0.7507876
0.6862128 0.0000007 0.7507876
0.7224239 0.0000007 0.7507876
0.7914335 0.0000007 0.7507876
0.8897906 0.0000007 0.7507876
1.0000000 0.0000007 0.7507876
0.6657752 0.0000007 0.7507840
0.6659136 0.0000007 0.7507840
0.6669902 0.0000007 0.7507840
0.6714663 0.0000007 0.7507840
0.6857917 0.0000007 0.7507840
0.7221239 0.0000007 0.7507840
0.7912731 0.0000007 0.7507840
0.8897361 0.0000007 0.7507840
1.0000000 0.0000007 0.7507840
0.6636181 0.0000007 0.7507663
0.6637592 0.0000007 0.7507663
0.6648606 0.0000007 0.7507663
0.6694206 0.0000007 0.7507663
0.6839968 0.0000007 0.7507663
0.7208369 0.0000007 0.7507663
0.7905908 0.0000007 0.7507663
0.8894556 0.0000007 0.7507663
1.0000000 0.0000007 0.7507663
0.6557457 0.0000007 0.7507132
0.6559038 0.0000007 0.7507132
0.6570855 0.0000007 0.7507132
0.6619712 0.0000007 0.7507132
0.6774966 0.0000007 0.7507132
0.7162186 0.0000007 0.7507132
0.7881686 0.0000007 0.7507132
0.8885059 0.0000007 0.7507132
1.0000000 0.0000007 0.7507132
0.6259577 0.5888497 0.7505433
0.6261649 0.5888497 0.7505433
0.6277061 0.5888497 0.7505433
0.6340430 0.5888497 0.7505433
0.6536547 0.5888497 0.7505433
0.6999825 0.5888497 0.7505433
0.7800406 0.5888497 0.7505433
0.8853791 0.5888497 0.7505433
1.0000000 0.5888497 0.7505433
0.0000007 0.7499983 0.7499983
0.1249546 0.7499983 0.7499983
0.2499896 0.7499983 0.7499983
0.3749973 0.7499983 0.7499983
0.4999972 0.7499983 0.7499983
0.6249967 0.7499983 0.7499983
0.7499983 0.7499983 0.7499983
0.8750008 0.7499983 0.7499983
1.0000000 0.7500018 0.7499983
0.0000007 0.8843921 0.7482881
0.0000007 0.8843921 0.7482881
0.0000007 0.8843921 0.7482881
0.0000007 0.8843921 0.7482881
0.0000007 0.8843921 0.7482881
0.0000007 0.8843921 0.7482881
0.2517726 0.8843921 0.7482881
0.8338143 0.8843921 0.7482881
0.9892023 0.8843921 0.7482881
0.0000007 1.0000000 0.7425113
0.0000007 1.0000000 0.7425113
0.0000007 1.0000000 0.7425113
0.0000007 1.0000000 0.7425113
0.0000007 1.0000000 0.7425113
0.0000007 1.0000000 0.7425113
0.0000007 1.0000000 0.7425113
0.0000007 1.0000000 0.7425113
0.9429859 1.0000000 0.7425113
0.7910568 0.0000007 0.8757796
0.7910941 0.0000007 0.8757796
0.7914447 0.0000007 0.8757796
0.7929083 0.0000007 0.8757796
0.7978604 0.0000007 0.8757796
0.8123530 0.0000007 0.8757796
0.8479925 0.0000007 0.8757796
0.9159942 0.0000007 0.8757796
1.0000000 0.0000007 0.8757796
0.7910344 0.0000007 0.8757796
0.7910792 0.0000007 0.8757796
0.7914260 0.0000007 0.8757796
0.7928859 0.0000007 0.8757796
0.7978415 0.0000007 0.8757796
0.8123377 0.0000007 0.8757796
0.8479806 0.0000007 0.8757796
0.9159942 0.0000007 0.8757796
1.0000000 0.0000007 0.8757796
0.7908704 0.0000007 0.8757796
0.7909151 0.0000007 0.8757796
0.7912619 0.0000007 0.8757796
0.7927290 0.0000007 0.8757796
0.7976912 0.0000007 0.8757796
0.8122075 0.0000007 0.8757796
0.8478847 0.0000007 0.8757796
0.9159381 0.0000007 0.8757796
1.0000000 0.0000007 0.8757796
0.7901847 0.0000007 0.8757796
0.7902294 0.0000007 0.8757796
0.7905797 0.0000007 0.8757796
0.7920567 0.0000007 0.8757796
0.7970448 0.0000007 0.8757796
0.8116375 0.0000007 0.8757796
0.8474815 0.0000007 0.8757796
0.9157270 0.0000007 0.8757796
1.0000000 0.0000007 0.8757796
0.7877563 0.0000007 0.8757631
0.7878046 0.0000007 0.8757631
0.7881612 0.0000007 0.8757631
0.7896709 0.0000007 0.8757631
0.7947679 0.0000007 0.8757631
0.8096513 0.0000007 0.8757631
0.8460579 0.0000007 0.8757631
0.9149863 0.0000007 0.8757631
1.0000000 0.0000007 0.8757631
0.7795921 0.0000007 0.8757054
0.7796436 0.0000007 0.8757054
0.7800296 0.0000007 0.8757054
0.7816492 0.0000007 0.8757054
0.7871290 0.0000007 0.8757054
0.8030208 0.0000007 0.8757054
0.8413652 0.0000007 0.8757054
0.9125530 0.0000007 0.8757054
1.0000000 0.0000007 0.8757054
0.7494113 0.7134051 0.8755323
0.7494785 0.7134051 0.8755323
0.7499877 0.7134051 0.8755323
0.7521167 0.7134051 0.8755323
0.7592373 0.7134051 0.8755323
0.7793570 0.7134051 0.8755323
0.8253073 0.7134051 0.8755323
0.9046270 0.7134051 0.8755323
1.0000000 0.7134051 0.8755323
0.0000007 0.8750008 0.8750008
0.1249793 0.8750008 0.8750008
0.2500004 0.8750008 0.8750008
0.3749973 0.8750008 0.8750008
0.4999972 0.8750008 0.8750008
0.6250026 0.8750008 0.8750008
0.7500018 0.8750008 0.8750008
0.8750008 0.8750008 0.8750008
1.0000000 0.8750008 0.8750008
0.0000007 1.0000000 0.8732437
0.0000007 1.0000000 0.8732437
0.0000007 1.0000000 0.8732437
0.0000007 1.0000000 0.8732437
0.0000007 1.0000000 0.8732437
0.0000007 1.0000000 0.8732437
0.0000007 1.0000000 0.8732437
0.0000007 1.0000000 0.8732437
0.9594914 1.0000000 0.8732437
0.9181514 0.0000007 1.0000000
0.9181600 0.0000007 1.0000000
0.9182637 0.0000007 1.0000000
0.9187174 0.0000007 1.0000000
0.9202617 0.0000007 1.0000000
0.9250883 0.0000007 1.0000000
0.9387954 0.0000007 1.0000000
0.9728094 0.0000007 1.0000000
1.0000000 0.0000007 1.0000000
0.9181427 0.0000007 1.0000000
0.9181514 0.0000007 1.0000000
0.9182550 0.0000007 1.0000000
0.9187087 0.0000007 1.0000000
0.9202617 0.0000007 1.0000000
0.9250796 0.0000007 1.0000000
0.9387910 0.0000007 1.0000000
0.9728094 0.0000007 1.0000000
1.0000000 0.0000007 1.0000000
0.9180952 0.0000007 1.0000000
0.9181039 0.0000007 1.0000000
0.9182032 0.0000007 1.0000000
0.9186569 0.0000007 1.0000000
0.9202097 0.0000007 1.0000000
0.9250274 0.0000007 1.0000000
0.9387468 0.0000007 1.0000000
0.9727774 0.0000007 1.0000000
1.0000000 0.0000007 1.0000000
0.9178836 0.0000007 1.0000000
0.9178922 0.0000007 1.0000000
0.9180002 0.0000007 1.0000000
0.9184495 0.0000007 1.0000000
0.9200063 0.0000007 1.0000000
0.9248446 0.0000007 1.0000000
0.9385834 0.0000007 1.0000000
0.9726493 0.0000007 1.0000000
1.0000000 0.0000007 1.0000000
0.9171498 0.0000007 1.0000000
0.9171671 0.0000007 1.0000000
0.9172706 0.0000007 1.0000000
0.9177238 0.0000007 1.0000000
0.9192924 0.0000007 1.0000000
0.9241531 0.0000007 1.0000000
0.9379833 0.0000007 1.0000000
0.9722242 0.0000007 1.0000000
1.0000000 0.0000007 1.0000000
0.9147754 0.0000007 1.0000000
0.9147926 0.0000007 1.0000000
0.9149002 0.0000007 1.0000000
0.9153609 0.0000007 1.0000000
0.9169599 0.0000007 1.0000000
0.9219386 0.0000007 1.0000000
0.9360397 0.0000007 1.0000000
0.9708403 0.0000007 1.0000000
1.0000000 0.0000007 1.0000000
0.9070139 0.0000007 1.0000000
0.9070309 0.0000007 1.0000000
0.9071590 0.0000007 1.0000000
0.9076457 0.0000007 1.0000000
0.9093684 0.0000007 1.0000000
0.9147022 0.0000007 1.0000000
0.9297518 0.0000007 1.0000000
0.9663912 0.0000007 1.0000000
1.0000000 0.0000007 1.0000000
0.8781533 0.8369504 1.0000000
0.8781739 0.8369504 1.0000000
0.8783269 0.8369504 1.0000000
0.8789887 0.8369504 1.0000000
0.8812340 0.8369504 1.0000000
0.8881463 0.8369504 1.0000000
0.9071590 0.8369504 1.0000000
0.9510468 0.8369504 1.0000000
1.0000000 0.8369504 1.0000000
0.0000007 1.0000000 1.0000000
0.1251187 1.0000000 1.0000000
0.2499202 1.0000000 1.0000000
0.3750080 1.0000000 1.0000000
0.4999972 1.0000000 1.0000000
0.6249967 1.0000000 1.0000000
0.7500018 1.0000000 1.0000000
0.8750008 1.0000000 1.0000000
1.0000000 1.0000000 1.0000000
