looks/cb_trit_g22.cube
LUT_3D_SIZE 6
0.0000000 0.0000000 0.0000000
0.2000000 0.0000620 0.0000223
0.4000000 0.0001566 0.0000000
0.6000000 0.0002596 0.0000785
0.7999999 0.0002994 0.0000785
0.9999999 0.0003082 0.0001475
0.0000000 0.2116593 0.0000000
0.1508478 0.2116593 0.0000000
0.3811757 0.2116593 0.0000000
0.5886245 0.2116593 0.0000000
0.7919887 0.2116593 0.0000000
0.9938851 0.2116593 0.0000000
0.0000000 0.4233185 0.0000000
0.0000000 0.4233185 0.0000000
0.3016955 0.4233185 0.0000000
0.5453582 0.4233186 0.0000000
0.7623513 0.4233185 0.0000000
0.9715207 0.4233186 0.0000000
0.0000000 0.6349778 0.0000000
0.0000000 0.6349778 0.0000000
0.0000000 0.6349778 0.0000000
0.4525433 0.6349778 0.0000000
0.7038434 0.6349778 0.0000000
0.9286550 0.6349778 0.0000000
0.0000000 0.8466371 0.0000000
0.0000000 0.8466371 0.0000000
0.0000000 0.8466371 0.0000000
0.2368667 0.8466370 0.0000000
0.6033908 0.8466372 0.0000000
0.8596746 0.8466371 0.0000000
0.0000000 1.0000000 0.0000000
0.0000000 1.0000000 0.0000000
0.0000000 1.0000000 0.0000000
0.0000000 1.0000000 0.0000000
0.4218459 1.0000000 0.0000000
0.7542384 1.0000000 0.0000000
0.1408424 0.0000000 0.2006573
0.2377114 0.0000000 0.2006573
0.4178168 0.0000000 0.2006573
0.6111224 0.0000000 0.2006573
0.8079160 0.0000000 0.2006573
1.0000000 0.0000000 0.2006573
0.0002132 0.2000000 0.2000000
0.2000000 0.2000000 0.2000000
0.4000000 0.2000000 0.2000000
0.6000000 0.2000000 0.2000000
0.7999999 0.2000001 0.2000000
0.9999999 0.2000000 0.2000000
0.0000000 0.4183761 0.1976153
0.0000000 0.4183761 0.1976153
0.3261617 0.4183761 0.1976153
0.5577995 0.4183761 0.1976154
0.7707334 0.4183761 0.1976154
0.9778036 0.4183762 0.1976154
0.0000000 0.6319521 0.1931333
0.0000000 0.6319521 0.1931333
0.0000000 0.6319521 0.1931333
0.4680018 0.6319522 0.1931333
0.7130566 0.6319521 0.1931333
0.9352849 0.6319520 0.1931333
0.0000000 0.8444976 0.1861837
0.0000000 0.8444977 0.1861837
0.0000000 0.8444976 0.1861837
0.2685999 0.8444976 0.1861837
0.6144397 0.8444976 0.1861837
0.8669424 0.8444976 0.1861837
0.0000000 1.0000000 0.1762641
0.0000000 1.0000000 0.1762642
0.0000000 1.0000000 0.1762641
0.0000000 1.0000000 0.1762641
0.4386091 1.0000000 0.1762642
0.7627276 1.0000000 0.1762641
0.2816848 0.0000000 0.4013147
0.3356733 0.0000000 0.4013147
0.4754227 0.0000000 0.4013147
0.6492370 0.0000000 0.4013147
0.8356337 0.0000000 0.4013147
1.0000000 0.0000000 0.4013147
0.2519489 0.1489328 0.4010290
0.3121071 0.1489328 0.4010290
0.4602639 0.1489328 0.4010290
0.6389078 0.1489328 0.4010290
0.8280348 0.1489329 0.4010290
1.0000000 0.1489329 0.4010290
0.0000000 0.4000000 0.4000000
0.1999998 0.4000000 0.4000000
0.4000000 0.4000000 0.4000000
0.6000000 0.4000001 0.4000000
0.8000000 0.4000000 0.4000000
1.0000000 0.4000000 0.4000000
0.0000000 0.6209288 0.3980977
0.0000000 0.6209288 0.3980977
0.2430598 0.6209288 0.3980977
0.5191016 0.6209288 0.3980977
0.7450563 0.6209288 0.3980977
0.9586654 0.6209288 0.3980977
0.0000000 0.8367521 0.3952307
0.0000000 0.8367521 0.3952307
0.0000000 0.8367521 0.3952307
0.3568863 0.8367521 0.3952307
0.6523234 0.8367522 0.3952307
0.8924842 0.8367521 0.3952307
0.0000000 1.0000000 0.3913157
0.0000000 1.0000000 0.3913157
0.0000000 1.0000000 0.3913157
0.0000000 1.0000000 0.3913157
0.4933565 1.0000000 0.3913157
0.7923483 1.0000000 0.3913157
0.4225272 0.0000000 0.6019720
0.4578030 0.0000000 0.6019720
0.5638290 0.0000000 0.6019720
0.7131341 0.0000000 0.6019720
0.8839563 0.0000000 0.6019720
1.0000000 0.0000000 0.6019720
0.4049598 0.0000000 0.6017964
0.4419141 0.0000000 0.6017964
0.5515513 0.0000000 0.6017964
0.7039220 0.0000000 0.6017964
0.8768577 0.0000000 0.6017964
1.0000000 0.0000000 0.6017964
0.3324716 0.3632249 0.6011648
0.3780847 0.3632249 0.6011648
0.5044230 0.3632249 0.6011648
0.6695416 0.3632249 0.6011648
0.8507503 0.3632249 0.6011648
1.0000000 0.3632249 0.6011648
0.0004894 0.6000000 0.6000000
0.2000000 0.6000000 0.6000000
0.4000001 0.6000000 0.6000000
0.5999999 0.6000000 0.6000000
0.8000000 0.6000000 0.6000000
1.0000000 0.6000000 0.6000000
0.0000000 0.8222659 0.5982521
0.0000000 0.8222659 0.5982521
0.0318053 0.8222659 0.5982522
0.4726866 0.8222659 0.5982522
0.7158930 0.8222660 0.5982521
0.9373351 0.8222659 0.5982522
0.0000000 1.0000000 0.5958800
0.0000000 1.0000000 0.5958800
0.0000000 1.0000000 0.5958800
0.1388234 1.0000000 0.5958800
0.5785442 1.0000000 0.5958800
0.8436481 1.0000000 0.5958800
0.5633696 0.0000000 0.8026293
0.5889084 0.0000000 0.8026293
0.6713467 0.0000000 0.8026293
0.7975863 0.0000000 0.8026293
0.9508455 0.0000000 0.8026293
1.0000000 0.0000000 0.8026293
0.5510796 0.0000000 0.8025050
0.5772696 0.0000000 0.8025050
0.6614311 0.0000000 0.8025050
0.7895457 0.0000000 0.8025050
0.9443465 0.0000000 0.8025050
1.0000000 0.0000000 0.8025050
0.5038977 0.2978657 0.8020580
0.5328870 0.2978657 0.8020579
0.6242142 0.2978656 0.8020580
0.7597935 0.2978657 0.8020580
0.9205278 0.2978656 0.8020580
1.0000000 0.2978657 0.8020580
0.3993059 0.5669388 0.8012343
0.4368302 0.5669389 0.8012343
0.5476652 0.5669388 0.8012343
0.7010269 0.5669389 0.8012343
0.8746357 0.5669388 0.8012343
1.0000000 0.5669388 0.8012343
0.0000000 0.8000000 0.8000000
0.1999992 0.8000000 0.8000000
0.3999997 0.8000001 0.8000000
0.5999998 0.8000000 0.8000000
0.7999998 0.8000001 0.8000000
0.9999999 0.8000000 0.8000000
0.0000000 1.0000000 0.7983282
0.0000000 1.0000000 0.7983281
0.0000000 1.0000000 0.7983282
0.4166145 1.0000000 0.7983282
0.6833399 1.0000000 0.7983282
0.9140719 1.0000000 0.7983282
0.7042120 0.0000000 1.0000000
0.7239518 0.0000000 1.0000000
0.7901047 0.0000000 1.0000000
0.8970292 0.0000000 1.0000000
1.0000000 0.0000000 1.0000000
1.0000000 0.0000000 1.0000000
0.6948575 0.0000000 1.0000000
0.7149068 0.0000000 1.0000000
0.7819716 0.0000000 1.0000000
0.8900556 0.0000000 1.0000000
1.0000000 0.0000000 1.0000000
1.0000000 0.0000000 1.0000000
0.6599071 0.1616010 1.0000000
0.6811942 0.1616012 1.0000000
0.7518581 0.1616010 1.0000000
0.8644274 0.1616012 1.0000000
1.0000000 0.1616012 1.0000000
1.0000000 0.1616010 1.0000000
0.5889839 0.5181845 1.0000000
0.6132545 0.5181845 1.0000000
0.6922761 0.5181845 1.0000000
0.8147044 0.5181845 1.0000000
0.9647649 0.5181845 1.0000000
1.0000000 0.5181845 1.0000000
0.4579048 0.7686687 1.0000000
0.4901782 0.7686687 1.0000000
0.5894190 0.7686689 1.0000000
0.7326441 0.7686688 1.0000000
0.8991260 0.7686688 1.0000000
1.0000000 0.7686687 1.0000000
0.0000000 1.0000000 1.0000000
0.1999990 1.0000000 1.0000000
0.4000003 1.0000000 1.0000000
0.6000000 1.0000000 1.0000000
0.7999998 0.9999999 1.0000000
0.9999999 1.0000000 1.0000000
