looks/cb_trit_pq.cube
LUT_3D_SIZE 17
0.0000007 0.0000007 0.0000007
0.0625000 0.0000105 0.0000044
0.1249998 0.0000221 0.0000007
0.1875007 0.0000382 0.0000101
0.2500004 0.0000302 0.0000168
0.3124999 0.0000741 0.0000223
0.3750027 0.0001286 0.0000300
0.4374969 0.0001373 0.0000412
0.4999972 0.0002692 0.0000007
0.5625013 0.0002356 0.0000812
0.6249967 0.0002310 0.0001165
0.6875004 0.0004999 0.0001694
0.7499983 0.0006867 0.0000007
0.8124985 0.0000007 0.0002490
0.8750008 0.0009858 0.0000007
0.9374982 0.0016403 0.0006996
1.0000000 0.0028631 0.0005519
0.0000007 0.0658606 0.0000007
0.0477607 0.0658606 0.0000007
0.1213830 0.0658606 0.0000007
0.1860911 0.0658612 0.0000007
0.2493567 0.0658609 0.0000007
0.3121796 0.0658609 0.0000007
0.3748314 0.0658609 0.0000007
0.4374096 0.0658615 0.0000007
0.4999474 0.0658615 0.0000007
0.5624720 0.0658622 0.0000007
0.6249819 0.0658638 0.0000007
0.6874939 0.0658644 0.0000007
0.7499948 0.0658699 0.0000007
0.8124946 0.0658785 0.0000007
0.8750008 0.0658750 0.0000007
0.9374982 0.0658593 0.0000007
1.0000000 0.0658962 0.0000007
0.0000007 0.1306757 0.0000007
0.0000007 0.1306757 0.0000007
0.0993821 0.1306757 0.0000007
0.1787668 0.1306757 0.0000007
0.2461287 0.1306757 0.0000007
0.3105935 0.1306757 0.0000007
0.3740065 0.1306764 0.0000007
0.4369612 0.1306770 0.0000007
0.4997010 0.1306757 0.0000007
0.5623336 0.1306757 0.0000007
0.6249081 0.1306770 0.0000007
0.6874452 0.1306770 0.0000007
0.7499735 0.1306783 0.0000007
0.8124831 0.1306808 0.0000007
0.8749925 0.1306751 0.0000007
0.9374982 0.1306883 0.0000007
1.0000000 0.1306732 0.0000007
0.0000007 0.1949891 0.0000007
0.0000007 0.1949891 0.0000007
0.0000007 0.1949891 0.0000007
0.1530643 0.1949891 0.0000007
0.2363664 0.1949891 0.0000007
0.3060023 0.1949891 0.0000007
0.3716505 0.1949891 0.0000007
0.4357013 0.1949891 0.0000007
0.4990050 0.1949900 0.0000007
0.5619424 0.1949891 0.0000007
0.6246865 0.1949891 0.0000007
0.6873251 0.1949891 0.0000007
0.7498993 0.1949900 0.0000007
0.8124411 0.1949872 0.0000007
0.8749637 0.1949909 0.0000007
0.9374805 0.1949919 0.0000007
0.9999906 0.1949928 0.0000007
0.0000007 0.2589505 0.0000007
0.0000007 0.2589505 0.0000007
0.0000007 0.2589505 0.0000007
0.0000007 0.2589505 0.0000007
0.2082538 0.2589505 0.0000007
0.2944919 0.2589505 0.0000007
0.3660228 0.2589505 0.0000007
0.4327398 0.2589505 0.0000007
0.4973893 0.2589505 0.0000007
0.5610413 0.2589505 0.0000007
0.6241788 0.2589517 0.0000007
0.6870331 0.2589517 0.0000007
0.7497366 0.2589505 0.0000007
0.8123530 0.2589505 0.0000007
0.8749143 0.2589529 0.0000007
0.9374540 0.2589517 0.0000007
0.9999765 0.2589554 0.0000007
0.0000007 0.3226402 0.0000007
0.0000007 0.3226402 0.0000007
0.0000007 0.3226402 0.0000007
0.0000007 0.3226402 0.0000007
0.0000007 0.3226402 0.0000007
0.2646542 0.3226402 0.0000007
0.3532228 0.3226402 0.0000007
0.4263232 0.3226402 0.0000007
0.4939580 0.3226402 0.0000007
0.5591481 0.3226417 0.0000007
0.6231174 0.3226402 0.0000007
0.6864364 0.3226402 0.0000007
0.7493972 0.3226402 0.0000007
0.8121578 0.3226402 0.0000007
0.8748196 0.3226417 0.0000007
0.9373923 0.3226417 0.0000007
0.9999389 0.3226386 0.0000007
0.0000007 0.3861072 0.0000007
0.0000007 0.3861072 0.0000007
0.0000007 0.3861072 0.0000007
0.0000007 0.3861072 0.0000007
0.0000007 0.3861109 0.0000007
0.1064234 0.3861072 0.0000007
0.3220807 0.3861072 0.0000007
0.4125451 0.3861072 0.0000007
0.4869436 0.3861072 0.0000007
0.5553674 0.3861072 0.0000007
0.6210175 0.3861072 0.0000007
0.6852576 0.3861072 0.0000007
0.7487329 0.3861072 0.0000007
0.8117867 0.3861109 0.0000007
0.8746013 0.3861072 0.0000007
0.9372821 0.3861090 0.0000007
0.9998872 0.3861072 0.0000007
0.0000007 0.4493819 0.0000007
0.0000007 0.4493819 0.0000007
0.0000007 0.4493819 0.0000007
0.0000007 0.4493819 0.0000007
0.0000007 0.4493819 0.0000007
0.0000007 0.4493819 0.0000007
0.1916561 0.4493819 0.0000007
0.3804009 0.4493819 0.0000007
0.4724458 0.4493819 0.0000007
0.5479258 0.4493819 0.0000007
0.6169903 0.4493819 0.0000007
0.6830220 0.4493819 0.0000007
0.7474873 0.4493862 0.0000007
0.8110832 0.4493862 0.0000007
0.8742185 0.4493819 0.0000007
0.9370617 0.4493819 0.0000007
0.9997650 0.4493819 0.0000007
0.0000007 0.5124943 0.0000007
0.0000007 0.5124943 0.0000007
0.0000007 0.5124943 0.0000007
0.0000007 0.5124943 0.0000007
0.0000007 0.5124943 0.0000007
0.0000007 0.5124943 0.0000007
0.0000007 0.5124943 0.0000007
0.2598259 0.5124943 0.0000007
0.4395127 0.5124943 0.0000007
0.5328996 0.5124943 0.0000007
0.6092465 0.5124943 0.0000007
0.6788385 0.5124943 0.0000007
0.7451674 0.5124894 0.0000007
0.8097962 0.5124894 0.0000007
0.8734945 0.5124943 0.0000007
0.9366739 0.5124943 0.0000007
0.9995583 0.5124943 0.0000007
0.0000007 0.5754545 0.0000007
0.0000007 0.5754599 0.0000007
0.0000007 0.5754545 0.0000007
0.0000007 0.5754599 0.0000007
0.0000007 0.5754599 0.0000007
0.0000007 0.5754545 0.0000007
0.0000007 0.5754545 0.0000007
0.0000007 0.5754545 0.0000007
0.3235011 0.5754545 0.0000007
0.4993505 0.5754599 0.0000007
0.5938630 0.5754545 0.0000007
0.6709147 0.5754599 0.0000007
0.7408983 0.5754599 0.0000007
0.8074567 0.5754599 0.0000007
0.8722125 0.5754545 0.0000007
0.9359694 0.5754545 0.0000007
0.9991732 0.5754599 0.0000007
0.0000007 0.6382856 0.0000007
0.0000007 0.6382856 0.0000007
0.0000007 0.6382856 0.0000007
0.0000007 0.6382856 0.0000007
0.0000007 0.6382856 0.0000007
0.0000007 0.6382856 0.0000007
0.0000007 0.6382856 0.0000007
0.0000007 0.6382856 0.0000007
0.0000007 0.6382856 0.0000007
0.3853659 0.6382856 0.0000007
0.5598474 0.6382856 0.0000007
0.6553153 0.6382856 0.0000007
0.7329025 0.6382856 0.0000007
0.8031797 0.6382856 0.0000007
0.8698915 0.6382856 0.0000007
0.9346979 0.6382856 0.0000007
0.9984926 0.6382856 0.0000007
0.0000007 0.7009977 0.0000007
0.0000007 0.7009977 0.0000007
0.0000007 0.7009977 0.0000007
0.0000007 0.7009977 0.0000007
0.0000007 0.7009977 0.0000007
0.0000007 0.7009977 0.0000007
0.0000007 0.7009977 0.0000007
0.0000007 0.7009977 0.0000007
0.0000007 0.7009977 0.0000007
0.0000007 0.7009977 0.0000007
0.4462587 0.7009977 0.0000007
0.6209499 0.7009977 0.0000007
0.7172164 0.7009977 0.0000007
0.7951987 0.7009977 0.0000007
0.8656631 0.7009977 0.0000007
0.9324409 0.7009944 0.0000007
0.9972873 0.7009944 0.0000007
0.0000007 0.7635963 0.0000007
0.0000007 0.7635963 0.0000007
0.0000007 0.7635927 0.0000007
0.0000007 0.7635927 0.0000007
0.0000007 0.7635927 0.0000007
0.0000007 0.7635927 0.0000007
0.0000007 0.7635927 0.0000007
0.0000007 0.7635927 0.0000007
0.0000007 0.7635927 0.0000007
0.0000007 0.7635963 0.0000007
0.0000007 0.7635927 0.0000007
0.5065989 0.7635927 0.0000007
0.6826190 0.7635963 0.0000007
0.7795444 0.7635927 0.0000007
0.8577920 0.7635963 0.0000007
0.9283359 0.7635927 0.0000007
0.9951290 0.7635927 0.0000007
0.0000007 0.8260852 0.0000007
0.0000007 0.8260852 0.0000007
0.0000007 0.8260852 0.0000007
0.0000007 0.8260813 0.0000007
0.0000007 0.8260852 0.0000007
0.0000007 0.8260813 0.0000007
0.0000007 0.8260813 0.0000007
0.0000007 0.8260852 0.0000007
0.0000007 0.8260813 0.0000007
0.0000007 0.8260852 0.0000007
0.0000007 0.8260813 0.0000007
0.0000007 0.8260852 0.0000007
0.5664613 0.8260852 0.0000007
0.7448160 0.8260852 0.0000007
0.8422929 0.8260813 0.0000007
0.9206601 0.8260813 0.0000007
0.9911895 0.8260852 0.0000007
0.0000007 0.8884808 0.0000007
0.0000007 0.8884808 0.0000007
0.0000007 0.8884808 0.0000007
0.0000007 0.8884808 0.0000007
0.0000007 0.8884808 0.0000007
0.0000007 0.8884808 0.0000007
0.0000007 0.8884808 0.0000007
0.0000007 0.8884808 0.0000007
0.0000007 0.8884808 0.0000007
0.0000007 0.8884808 0.0000007
0.0000007 0.8884808 0.0000007
0.0000007 0.8884808 0.0000007
0.0000007 0.8884808 0.0000007
0.6257802 0.8884808 0.0000007
0.8075252 0.8884808 0.0000007
0.9053978 0.8884808 0.0000007
0.9837680 0.8884808 0.0000007
0.0000007 0.9507874 0.0000007
0.0000007 0.9507874 0.0000007
0.0000007 0.9507874 0.0000007
0.0000007 0.9507874 0.0000007
0.0000007 0.9507874 0.0000007
0.0000007 0.9507874 0.0000007
0.0000007 0.9507874 0.0000007
0.0000007 0.9507874 0.0000007
0.0000007 0.9507874 0.0000007
0.0000007 0.9507874 0.0000007
0.0000007 0.9507874 0.0000007
0.0000007 0.9507874 0.0000007
0.0000007 0.9507874 0.0000007
0.0000007 0.9507874 0.0000007
0.6845299 0.9507874 0.0000007
0.8706987 0.9507874 0.0000007
0.9688660 0.9507874 0.0000007
0.0000007 1.0000000 0.0000007
0.0000007 1.0000000 0.0000007
0.0000007 1.0000000 0.0000007
0.0000007 1.0000000 0.0000007
0.0000007 1.0000000 0.0000007
0.0000007 1.0000000 0.0000007
0.0000007 1.0000000 0.0000007
0.0000007 1.0000000 0.0000007
0.0000007 1.0000000 0.0000007
0.0000007 1.0000000 0.0000007
0.0000007 1.0000000 0.0000007
0.0000007 1.0000000 0.0000007
0.0000007 1.0000000 0.0000007
0.0000007 1.0000000 0.0000007
0.0000007 1.0000000 0.0000007
0.7422311 1.0000000 0.0000007
0.9343199 1.0000000 0.0000007
0.0446433 0.0000007 0.0626908
0.0731927 0.0000007 0.0626908
0.1284116 0.0000007 0.0626908
0.1888837 0.0000007 0.0626908
0.2506396 0.0000007 0.0626908
0.3128190 0.0000007 0.0626908
0.3751669 0.0000007 0.0626908
0.4375904 0.0000007 0.0626908
0.5000494 0.0000007 0.0626911
0.5625306 0.0000007 0.0626908
0.6250174 0.0000007 0.0626914
0.6875134 0.0000007 0.0626911
0.7500054 0.0000007 0.0626917
0.8124985 0.0000007 0.0626935
0.8750090 0.0000007 0.0626929
0.9374982 0.0000007 0.0626929
1.0000000 0.0000007 0.0626987
0.0000007 0.0625000 0.0625000
0.0625000 0.0625000 0.0625000
0.1250010 0.0625000 0.0625000
0.1875007 0.0625000 0.0625000
0.2500004 0.0625000 0.0625000
0.3124999 0.0625003 0.0625000
0.3749991 0.0625000 0.0625000
0.4374969 0.0625003 0.0625003
0.4999972 0.0625009 0.0625000
0.5625013 0.0625009 0.0625003
0.6249967 0.0625031 0.0625003
0.6875004 0.0625015 0.0625006
0.7499983 0.0625158 0.0625006
0.8124985 0.0625085 0.0625009
0.8750008 0.0625049 0.0625009
0.9374982 0.0625192 0.0625049
1.0000000 0.0625600 0.0625149
0.0000007 0.1297508 0.0615513
0.0000007 0.1297508 0.0615513
0.1046289 0.1297508 0.0615513
0.1803216 0.1297495 0.0615513
0.2467972 0.1297508 0.0615513
0.3109181 0.1297495 0.0615510
0.3741738 0.1297508 0.0615510
0.4370546 0.1297508 0.0615513
0.4997507 0.1297508 0.0615510
0.5623628 0.1297514 0.0615513
0.6249229 0.1297508 0.0615516
0.6874549 0.1297489 0.0615522
0.7499735 0.1297545 0.0615513
0.8124831 0.1297476 0.0615528
0.8750008 0.1297558 0.0615549
0.9374982 0.1297758 0.0615528
1.0000000 0.1297364 0.0615630
0.0000007 0.1946245 0.0587625
0.0000007 0.1946245 0.0587625
0.0000007 0.1946245 0.0587625
0.1552916 0.1946245 0.0587625
0.2371153 0.1946245 0.0587625
0.3063441 0.1946245 0.0587625
0.3718291 0.1946245 0.0587625
0.4357924 0.1946245 0.0587625
0.4990570 0.1946245 0.0587628
0.5619717 0.1946245 0.0587628
0.6247013 0.1946245 0.0587628
0.6873316 0.1946245 0.0587634
0.7499028 0.1946283 0.0587622
0.8124411 0.1946236 0.0587651
0.8749719 0.1946245 0.0587662
0.9374805 0.1946273 0.0587682
0.9999859 0.1946311 0.0587771
0.0000007 0.2587847 0.0514412
0.0000007 0.2587847 0.0514412
0.0000007 0.2587847 0.0514415
0.0000007 0.2587847 0.0514412
0.2093127 0.2587847 0.0514412
0.2948802 0.2587847 0.0514415
0.3662075 0.2587847 0.0514412
0.4328344 0.2587847 0.0514412
0.4974365 0.2587847 0.0514417
0.5610679 0.2587847 0.0514415
0.6241935 0.2587847 0.0514417
0.6870461 0.2587847 0.0514427
0.7497436 0.2587859 0.0514417
0.8123530 0.2587847 0.0514435
0.8749225 0.2587847 0.0514450
0.9374540 0.2587871 0.0514475
0.9999765 0.2587908 0.0514530
0.0000007 0.3225571 0.0273285
0.0000007 0.3225571 0.0273285
0.0000007 0.3225571 0.0273289
0.0000007 0.3225571 0.0273287
0.0000007 0.3225571 0.0273287
0.2651936 0.3225571 0.0273287
0.3534297 0.3225571 0.0273285
0.4264224 0.3225571 0.0273289
0.4940095 0.3225571 0.0273289
0.5591772 0.3225571 0.0273289
0.6231321 0.3225571 0.0273299
0.6864429 0.3225571 0.0273304
0.7494043 0.3225586 0.0273304
0.8121578 0.3225571 0.0273319
0.8748196 0.3225571 0.0273350
0.9373923 0.3225602 0.0273475
0.9999389 0.3225586 0.0273475
0.0000007 0.3860649 0.0000007
0.0000007 0.3860649 0.0000007
0.0000007 0.3860649 0.0000007
0.0000007 0.3860649 0.0000007
0.0000007 0.3860649 0.0000007
0.1110640 0.3860649 0.0000007
0.3223695 0.3860649 0.0000007
0.4126608 0.3860649 0.0000007
0.4870013 0.3860649 0.0000007
0.5553963 0.3860649 0.0000007
0.6210351 0.3860649 0.0000007
0.6852673 0.3860649 0.0000007
0.7487365 0.3860649 0.0000007
0.8117905 0.3860649 0.0000007
0.8746096 0.3860649 0.0000007
0.9372821 0.3860686 0.0000007
0.9998872 0.3860649 0.0000007
0.0000007 0.4493584 0.0000007
0.0000007 0.4493584 0.0000007
0.0000007 0.4493584 0.0000007
0.0000007 0.4493584 0.0000007
0.0000007 0.4493584 0.0000007
0.0000007 0.4493584 0.0000007
0.1929638 0.4493584 0.0000007
0.3805602 0.4493584 0.0000007
0.4725108 0.4493584 0.0000007
0.5479569 0.4493584 0.0000007
0.6170078 0.4493584 0.0000007
0.6830350 0.4493584 0.0000007
0.7474873 0.4493627 0.0000007
0.8110908 0.4493584 0.0000007
0.8742185 0.4493584 0.0000007
0.9370617 0.4493627 0.0000007
0.9997650 0.4493627 0.0000007
0.0000007 0.5124797 0.0000007
0.0000007 0.5124797 0.0000007
0.0000007 0.5124797 0.0000007
0.0000007 0.5124797 0.0000007
0.0000007 0.5124797 0.0000007
0.0000007 0.5124797 0.0000007
0.0000007 0.5124797 0.0000007
0.2603954 0.5124797 0.0000007
0.4396024 0.5124797 0.0000007
0.5329350 0.5124797 0.0000007
0.6092667 0.5124797 0.0000007
0.6788449 0.5124797 0.0000007
0.7451744 0.5124797 0.0000007
0.8098000 0.5124797 0.0000007
0.8735027 0.5124797 0.0000007
0.9366739 0.5124797 0.0000007
0.9995583 0.5124797 0.0000007
0.0000007 0.5754517 0.0000007
0.0000007 0.5754517 0.0000007
0.0000007 0.5754517 0.0000007
0.0000007 0.5754517 0.0000007
0.0000007 0.5754517 0.0000007
0.0000007 0.5754517 0.0000007
0.0000007 0.5754517 0.0000007
0.0000007 0.5754517 0.0000007
0.3237834 0.5754517 0.0000007
0.4994026 0.5754517 0.0000007
0.5938799 0.5754517 0.0000007
0.6709242 0.5754517 0.0000007
0.7409053 0.5754517 0.0000007
0.8074567 0.5754517 0.0000007
0.8722125 0.5754490 0.0000007
0.9359605 0.5754490 0.0000007
0.9991732 0.5754517 0.0000007
0.0000007 0.6382827 0.0000007
0.0000007 0.6382827 0.0000007
0.0000007 0.6382827 0.0000007
0.0000007 0.6382827 0.0000007
0.0000007 0.6382827 0.0000007
0.0000007 0.6382827 0.0000007
0.0000007 0.6382827 0.0000007
0.0000007 0.6382827 0.0000007
0.0000007 0.6382827 0.0000007
0.3855200 0.6382827 0.0000007
0.5598712 0.6382827 0.0000007
0.6553276 0.6382827 0.0000007
0.7329094 0.6382827 0.0000007
0.8031797 0.6382827 0.0000007
0.8698915 0.6382827 0.0000007
0.9347067 0.6382796 0.0000007
0.9984926 0.6382827 0.0000007
0.0000007 0.7009944 0.0000007
0.0000007 0.7009944 0.0000007
0.0000007 0.7009944 0.0000007
0.0000007 0.7009944 0.0000007
0.0000007 0.7009944 0.0000007
0.0000007 0.7009944 0.0000007
0.0000007 0.7009944 0.0000007
0.0000007 0.7009944 0.0000007
0.0000007 0.7009944 0.0000007
0.0000007 0.7009944 0.0000007
0.4463414 0.7009944 0.0000007
0.6209676 0.7009977 0.0000007
0.7172232 0.7009944 0.0000007
0.7952062 0.7009944 0.0000007
0.8656713 0.7009944 0.0000007
0.9324453 0.7009944 0.0000007
0.9972873 0.7009977 0.0000007
0.0000007 0.7635927 0.0000007
0.0000007 0.7635927 0.0000007
0.0000007 0.7635927 0.0000007
0.0000007 0.7635927 0.0000007
0.0000007 0.7635927 0.0000007
0.0000007 0.7635927 0.0000007
0.0000007 0.7635927 0.0000007
0.0000007 0.7635927 0.0000007
0.0000007 0.7635927 0.0000007
0.0000007 0.7635927 0.0000007
0.0000007 0.7635927 0.0000007
0.5066469 0.7635927 0.0000007
0.6826286 0.7635927 0.0000007
0.7795554 0.7635927 0.0000007
0.8578001 0.7635927 0.0000007
0.9283359 0.7635927 0.0000007
0.9951197 0.7635927 0.0000007
0.0000007 0.8260852 0.0000007
0.0000007 0.8260852 0.0000007
0.0000007 0.8260852 0.0000007
0.0000007 0.8260852 0.0000007
0.0000007 0.8260852 0.0000007
0.0000007 0.8260852 0.0000007
0.0000007 0.8260852 0.0000007
0.0000007 0.8260852 0.0000007
0.0000007 0.8260852 0.0000007
0.0000007 0.8260852 0.0000007
0.0000007 0.8260852 0.0000007
0.0000007 0.8260852 0.0000007
0.5664908 0.8260852 0.0000007
0.7448230 0.8260852 0.0000007
0.8422969 0.8260852 0.0000007
0.9206514 0.8260852 0.0000007
0.9911895 0.8260852 0.0000007
0.0000007 0.8884891 0.0000007
0.0000007 0.8884891 0.0000007
0.0000007 0.8884891 0.0000007
0.0000007 0.8884891 0.0000007
0.0000007 0.8884891 0.0000007
0.0000007 0.8884891 0.0000007
0.0000007 0.8884891 0.0000007
0.0000007 0.8884891 0.0000007
0.0000007 0.8884891 0.0000007
0.0000007 0.8884891 0.0000007
0.0000007 0.8884891 0.0000007
0.0000007 0.8884891 0.0000007
0.0000007 0.8884891 0.0000007
0.6257950 0.8884891 0.0000007
0.8075290 0.8884891 0.0000007
0.9053978 0.8884891 0.0000007
0.9837680 0.8884891 0.0000007
0.0000007 0.9507874 0.0000007
0.0000007 0.9507874 0.0000007
0.0000007 0.9507874 0.0000007
0.0000007 0.9507874 0.0000007
0.0000007 0.9507874 0.0000007
0.0000007 0.9507874 0.0000007
0.0000007 0.9507874 0.0000007
0.0000007 0.9507874 0.0000007
0.0000007 0.9507874 0.0000007
0.0000007 0.9507874 0.0000007
0.0000007 0.9507874 0.0000007
0.0000007 0.9507874 0.0000007
0.0000007 0.9507874 0.0000007
0.0000007 0.9507874 0.0000007
0.6845428 0.9507874 0.0000007
0.8706987 0.9507874 0.0000007
0.9688660 0.9507874 0.0000007
0.0000007 1.0000000 0.0000007
0.0000007 1.0000000 0.0000007
0.0000007 1.0000000 0.0000007
0.0000007 1.0000000 0.0000007
0.0000007 1.0000000 0.0000007
0.0000007 1.0000000 0.0000007
0.0000007 1.0000000 0.0000007
0.0000007 1.0000000 0.0000007
0.0000007 1.0000000 0.0000007
0.0000007 1.0000000 0.0000007
0.0000007 1.0000000 0.0000007
0.0000007 1.0000000 0.0000007
0.0000007 1.0000000 0.0000007
0.0000007 1.0000000 0.0000007
0.0000007 1.0000000 0.0000007
0.7422381 1.0000000 0.0000007
0.9343287 1.0000000 0.0000007
0.0937903 0.0000007 0.1253235
0.1056258 0.0000007 0.1253235
0.1428754 0.0000007 0.1253235
0.1953196 0.0000007 0.1253235
0.2537040 0.0000007 0.1253235
0.3143669 0.0000007 0.1253235
0.3759836 0.0000007 0.1253235
0.4380312 0.0000007 0.1253235
0.5002959 0.0000007 0.1253235
0.5626664 0.0000007 0.1253235
0.6250913 0.0000007 0.1253235
0.6875523 0.0000007 0.1253247
0.7500302 0.0000007 0.1253235
0.8125138 0.0000007 0.1253241
0.8750173 0.0000007 0.1253241
0.9375070 0.0000007 0.1253247
1.0000000 0.0000007 0.1253241
0.0872460 0.0392966 0.1252697
0.1004783 0.0392966 0.1252697
0.1401797 0.0392966 0.1252697
0.1940511 0.0392966 0.1252697
0.2530872 0.0392962 0.1252697
0.3140522 0.0392966 0.1252691
0.3758154 0.0392968 0.1252691
0.4379438 0.0392964 0.1252691
0.5002462 0.0392960 0.1252691
0.5626398 0.0392976 0.1252691
0.6250765 0.0393032 0.1252691
0.6875458 0.0393122 0.1252691
0.7500266 0.0393247 0.1252679
0.8125138 0.0393103 0.1252697
0.8750090 0.0393344 0.1252691
0.9375070 0.0394257 0.1252697
1.0000000 0.0394422 0.1252721
0.0000007 0.1249998 0.1249998
0.0625000 0.1249998 0.1249998
0.1249998 0.1249998 0.1249998
0.1875007 0.1249998 0.1249998
0.2500015 0.1249998 0.1249998
0.3124999 0.1249998 0.1249998
0.3749991 0.1249986 0.1249998
0.4374969 0.1249998 0.1249998
0.4999972 0.1250010 0.1249998
0.5625013 0.1249998 0.1249998
0.6250026 0.1250004 0.1250010
0.6875004 0.1249986 0.1249998
0.7499983 0.1250034 0.1249998
0.8124985 0.1250010 0.1250004
0.8750008 0.1250004 0.1250004
0.9374982 0.1250227 0.1249998
1.0000000 0.1250064 0.1250016
0.0000007 0.1928148 0.1242397
0.0000007 0.1928148 0.1242391
0.0000007 0.1928148 0.1242391
0.1652712 0.1928148 0.1242397
0.2406984 0.1928148 0.1242391
0.3080013 0.1928148 0.1242391
0.3726688 0.1928148 0.1242391
0.4362417 0.1928148 0.1242391
0.4993031 0.1928148 0.1242397
0.5621100 0.1928148 0.1242397
0.6247811 0.1928148 0.1242397
0.6873770 0.1928157 0.1242391
0.7499276 0.1928184 0.1242391
0.8124563 0.1928148 0.1242403
0.8749802 0.1928157 0.1242403
0.9374893 0.1928222 0.1242421
0.9999906 0.1928231 0.1242427
0.0000007 0.2579657 0.1224534
0.0000007 0.2579657 0.1224534
0.0000007 0.2579657 0.1224534
0.0000007 0.2579657 0.1224534
0.2143051 0.2579657 0.1224534
0.2967564 0.2579657 0.1224534
0.3671010 0.2579657 0.1224534
0.4332951 0.2579657 0.1224534
0.4976936 0.2579657 0.1224546
0.5612113 0.2579657 0.1224534
0.6242732 0.2579657 0.1224534
0.6870883 0.2579657 0.1224546
0.7497649 0.2579657 0.1224534
0.8123645 0.2579657 0.1224540
0.8749266 0.2579657 0.1224552
0.9374540 0.2579694 0.1224534
0.9999765 0.2579719 0.1224558
0.0000007 0.3221529 0.1185729
0.0000007 0.3221529 0.1185729
0.0000007 0.3221529 0.1185729
0.0000007 0.3221529 0.1185740
0.0050193 0.3221529 0.1185740
0.2677942 0.3221529 0.1185729
0.3544460 0.3221529 0.1185740
0.4269129 0.3221529 0.1185740
0.4942720 0.3221529 0.1185740
0.5593202 0.3221529 0.1185740
0.6232116 0.3221529 0.1185729
0.6864883 0.3221529 0.1185740
0.7494255 0.3221529 0.1185740
0.8121769 0.3221529 0.1185729
0.8748278 0.3221545 0.1185746
0.9374011 0.3221529 0.1185752
0.9999483 0.3221529 0.1185752
0.0000007 0.3858520 0.1101840
0.0000007 0.3858520 0.1101840
0.0000007 0.3858520 0.1101840
0.0000007 0.3858520 0.1101840
0.0000007 0.3858520 0.1101840
0.1296113 0.3858520 0.1101840
0.3237695 0.3858557 0.1101846
0.4132221 0.3858520 0.1101840
0.4872786 0.3858520 0.1101846
0.5555462 0.3858557 0.1101846
0.6211173 0.3858557 0.1101840
0.6853158 0.3858557 0.1101851
0.7487683 0.3858520 0.1101851
0.8118020 0.3858575 0.1101846
0.8746178 0.3858520 0.1101846
0.9372821 0.3858557 0.1101862
0.9998872 0.3858593 0.1101878
0.0000007 0.4492497 0.0899334
0.0000007 0.4492497 0.0899334
0.0000007 0.4492497 0.0899334
0.0000007 0.4492497 0.0899334
0.0000007 0.4492497 0.0899334
0.0000007 0.4492497 0.0899334
0.1990799 0.4492497 0.0899329
0.3813304 0.4492497 0.0899334
0.4728270 0.4492497 0.0899334
0.5481152 0.4492497 0.0899334
0.6170924 0.4492497 0.0899329
0.6830801 0.4492497 0.0899329
0.7475120 0.4492454 0.0899325
0.8111023 0.4492497 0.0899342
0.8742267 0.4492454 0.0899338
0.9370705 0.4492454 0.0899373
0.9997697 0.4492454 0.0899355
0.0000007 0.5124165 0.0000007
0.0000007 0.5124165 0.0000007
0.0000007 0.5124165 0.0000007
0.0000007 0.5124165 0.0000007
0.0000007 0.5124165 0.0000007
0.0000007 0.5124165 0.0000007
0.0000007 0.5124165 0.0000007
0.2631406 0.5124165 0.0000007
0.4400368 0.5124165 0.0000007
0.5331193 0.5124165 0.0000007
0.6093560 0.5124165 0.0000007
0.6788898 0.5124165 0.0000007
0.7452025 0.5124165 0.0000007
0.8098192 0.5124165 0.0000007
0.8735110 0.5124165 0.0000007
0.9366739 0.5124165 0.0000007
0.9995583 0.5124165 0.0000007
0.0000007 0.5754163 0.0000007
0.0000007 0.5754163 0.0000007
0.0000007 0.5754163 0.0000007
0.0000007 0.5754163 0.0000007
0.0000007 0.5754163 0.0000007
0.0000007 0.5754163 0.0000007
0.0000007 0.5754163 0.0000007
0.0000007 0.5754163 0.0000007
0.3251647 0.5754163 0.0000007
0.4996465 0.5754163 0.0000007
0.5939838 0.5754163 0.0000007
0.6709749 0.5754163 0.0000007
0.7409297 0.5754163 0.0000007
0.8074719 0.5754163 0.0000007
0.8722289 0.5754163 0.0000007
0.9359694 0.5754136 0.0000007
0.9991732 0.5754163 0.0000007
0.0000007 0.6382645 0.0000007
0.0000007 0.6382645 0.0000007
0.0000007 0.6382645 0.0000007
0.0000007 0.6382645 0.0000007
0.0000007 0.6382645 0.0000007
0.0000007 0.6382645 0.0000007
0.0000007 0.6382645 0.0000007
0.0000007 0.6382645 0.0000007
0.0000007 0.6382585 0.0000007
0.3862615 0.6382585 0.0000007
0.5600144 0.6382585 0.0000007
0.6553864 0.6382645 0.0000007
0.7329336 0.6382585 0.0000007
0.8031987 0.6382645 0.0000007
0.8699120 0.6382585 0.0000007
0.9347155 0.6382645 0.0000007
0.9984926 0.6382645 0.0000007
0.0000007 0.7009811 0.0000007
0.0000007 0.7009811 0.0000007
0.0000007 0.7009844 0.0000007
0.0000007 0.7009844 0.0000007
0.0000007 0.7009811 0.0000007
0.0000007 0.7009844 0.0000007
0.0000007 0.7009811 0.0000007
0.0000007 0.7009811 0.0000007
0.0000007 0.7009811 0.0000007
0.0000007 0.7009811 0.0000007
0.4467506 0.7009811 0.0000007
0.6210439 0.7009844 0.0000007
0.7172536 0.7009844 0.0000007
0.7952212 0.7009844 0.0000007
0.8656794 0.7009844 0.0000007
0.9324453 0.7009844 0.0000007
0.9972873 0.7009844 0.0000007
0.0000007 0.7635855 0.0000007
0.0000007 0.7635855 0.0000007
0.0000007 0.7635855 0.0000007
0.0000007 0.7635855 0.0000007
0.0000007 0.7635855 0.0000007
0.0000007 0.7635855 0.0000007
0.0000007 0.7635855 0.0000007
0.0000007 0.7635855 0.0000007
0.0000007 0.7635855 0.0000007
0.0000007 0.7635855 0.0000007
0.0000007 0.7635855 0.0000007
0.5068800 0.7635855 0.0000007
0.6826738 0.7635855 0.0000007
0.7795700 0.7635855 0.0000007
0.8578082 0.7635855 0.0000007
0.9283447 0.7635855 0.0000007
0.9951290 0.7635855 0.0000007
