looks/cb_trit_g22.cube
LUT_3D_SIZE 11
0.0000000 0.0000000 0.0000000
0.1000000 0.0000143 0.0000119
0.2000000 0.0000620 0.0000223
0.3000000 0.0000984 0.0000418
0.4000000 0.0001566 0.0000000
0.5000000 0.0001948 0.0000000
0.6000000 0.0002596 0.0000785
0.7000000 0.0002585 0.0000785
0.7999999 0.0002994 0.0000785
0.9000000 0.0004904 0.0001076
0.9999999 0.0003082 0.0001475
0.0000000 0.1058296 0.0000000
0.0754239 0.1058296 0.0000000
0.1905878 0.1058296 0.0000000
0.2943122 0.1058296 0.0000000
0.3959944 0.1058297 0.0000000
0.4969425 0.1058297 0.0000000
0.5975463 0.1058297 0.0000000
0.6979622 0.1058296 0.0000000
0.7982647 0.1058298 0.0000000
0.8984938 0.1058299 0.0000000
0.9986729 0.1058299 0.0000000
0.0000000 0.2116593 0.0000000
0.0000000 0.2116593 0.0000000
0.1508478 0.2116593 0.0000000
0.2726792 0.2116593 0.0000000
0.3811757 0.2116593 0.0000000
0.4857604 0.2116593 0.0000000
0.5886245 0.2116593 0.0000000
0.6905769 0.2116593 0.0000000
0.7919887 0.2116593 0.0000000
0.8930544 0.2116594 0.0000000
0.9938851 0.2116593 0.0000000
0.0000000 0.3174889 0.0000000
0.0000000 0.3174889 0.0000000
0.0000000 0.3174889 0.0000000
0.2262717 0.3174889 0.0000000
0.3519216 0.3174889 0.0000000
0.4643274 0.3174889 0.0000000
0.5717636 0.3174889 0.0000000
0.6767296 0.3174889 0.0000000
0.7802783 0.3174889 0.0000000
0.8829366 0.3174890 0.0000000
0.9849992 0.3174889 0.0000000
0.0000000 0.4233185 0.0000000
0.0000000 0.4233185 0.0000000
0.0000000 0.4233185 0.0000000
0.1184328 0.4233185 0.0000000
0.3016955 0.4233185 0.0000000
0.4298373 0.4233186 0.0000000
0.5453582 0.4233186 0.0000000
0.6553509 0.4233185 0.0000000
0.7623513 0.4233185 0.0000000
0.8675327 0.4233186 0.0000000
0.9715207 0.4233186 0.0000000
0.0000000 0.5291482 0.0000000
0.0000000 0.5291482 0.0000000
0.0000000 0.5291482 0.0000000
0.0000000 0.5291481 0.0000000
0.2109234 0.5291482 0.0000000
0.3771195 0.5291482 0.0000000
0.5070210 0.5291482 0.0000000
0.6250519 0.5291482 0.0000000
0.7372866 0.5291482 0.0000000
0.8461764 0.5291482 0.0000000
0.9529392 0.5291482 0.0000000
0.0000000 0.6349778 0.0000000
0.0000000 0.6349778 0.0000000
0.0000000 0.6349778 0.0000000
0.0000000 0.6349778 0.0000000
0.0000000 0.6349778 0.0000000
0.2934063 0.6349778 0.0000000
0.4525433 0.6349778 0.0000000
0.5837556 0.6349778 0.0000000
0.7038434 0.6349778 0.0000000
0.8180376 0.6349778 0.0000000
0.9286550 0.6349778 0.0000000
0.0000000 0.7408074 0.0000000
0.0000000 0.7408074 0.0000000
0.0000000 0.7408074 0.0000000
0.0000000 0.7408074 0.0000000
0.0000000 0.7408074 0.0000000
0.1027358 0.7408074 0.0000000
0.3728074 0.7408074 0.0000000
0.5279674 0.7408074 0.0000000
0.6601945 0.7408074 0.0000000
0.7819946 0.7408075 0.0000000
0.8979067 0.7408075 0.0000000
0.0000000 0.8466371 0.0000000
0.0000000 0.8466371 0.0000000
0.0000000 0.8466371 0.0000000
0.0000000 0.8466371 0.0000000
0.0000000 0.8466371 0.0000000
0.0000000 0.8466371 0.0000000
0.2368667 0.8466370 0.0000000
0.4508045 0.8466370 0.0000000
0.6033908 0.8466372 0.0000000
0.7364277 0.8466372 0.0000000
0.8596746 0.8466371 0.0000000
0.0000000 0.9524667 0.0000000
0.0000000 0.9524667 0.0000000
0.0000000 0.9524668 0.0000000
0.0000000 0.9524668 0.0000000
0.0000000 0.9524667 0.0000000
0.0000000 0.9524668 0.0000000
0.0000000 0.9524667 0.0000000
0.3340041 0.9524667 0.0000000
0.5280350 0.9524668 0.0000000
0.6788149 0.9524668 0.0000000
0.8125131 0.9524667 0.0000000
0.0000000 1.0000000 0.0000000
0.0000000 1.0000000 0.0000000
0.0000000 1.0000000 0.0000000
0.0000000 1.0000000 0.0000000
0.0000000 1.0000000 0.0000000
0.0000000 1.0000000 0.0000000
0.0000000 1.0000000 0.0000000
0.0000000 1.0000000 0.0000000
0.4218459 1.0000000 0.0000000
0.6047996 1.0000000 0.0000000
0.7542384 1.0000000 0.0000000
0.0704212 0.0000000 0.1003287
0.1188557 0.0000000 0.1003287
0.2089084 0.0000000 0.1003287
0.3055612 0.0000000 0.1003287
0.4039581 0.0000000 0.1003287
0.5030351 0.0000000 0.1003287
0.6024416 0.0000000 0.1003287
0.7020306 0.0000000 0.1003287
0.8017307 0.0000000 0.1003287
0.9015031 0.0000000 0.1003287
1.0000000 0.0000000 0.1003287
0.0000503 0.1000000 0.1000000
0.1000000 0.1000000 0.1000000
0.2000000 0.1000000 0.1000000
0.3000000 0.1000000 0.1000000
0.4000000 0.1000000 0.1000000
0.5000000 0.1000001 0.1000000
0.6000000 0.1000001 0.1000000
0.6999999 0.1000001 0.1000000
0.7999999 0.1000002 0.1000000
0.9000000 0.1000003 0.1000000
0.9999999 0.1000002 0.1000000
0.0000000 0.2091880 0.0988077
0.0000000 0.2091880 0.0988077
0.1630809 0.2091880 0.0988077
0.2788998 0.2091880 0.0988077
0.3853668 0.2091880 0.0988077
0.4889019 0.2091881 0.0988077
0.5911226 0.2091880 0.0988077
0.6926408 0.2091881 0.0988077
0.7937405 0.2091881 0.0988077
0.8945714 0.2091882 0.0988077
0.9952196 0.2091881 0.0988077
0.0000000 0.3159761 0.0965667
0.0000000 0.3159761 0.0965667
0.0000000 0.3159761 0.0965667
0.2340010 0.3159761 0.0965667
0.3565283 0.3159761 0.0965667
0.4676423 0.3159761 0.0965666
0.5743499 0.3159761 0.0965667
0.6788441 0.3159761 0.0965667
0.7820615 0.3159761 0.0965667
0.8844745 0.3159762 0.0965667
0.9863483 0.3159761 0.0965667
0.0000000 0.4222488 0.0930919
0.0000000 0.4222488 0.0930919
0.0000000 0.4222488 0.0930918
0.1343001 0.4222488 0.0930918
0.3072199 0.4222488 0.0930918
0.4334710 0.4222488 0.0930919
0.5480947 0.4222488 0.0930918
0.6575481 0.4222488 0.0930918
0.7641850 0.4222488 0.0930919
0.8691034 0.4222488 0.0930918
0.9728922 0.4222488 0.0930919
0.0000000 0.5283301 0.0881321
0.0000000 0.5283302 0.0881321
0.0000000 0.5283302 0.0881321
0.0000000 0.5283301 0.0881321
0.2193046 0.5283301 0.0881321
0.3813639 0.5283301 0.0881321
0.5100060 0.5283302 0.0881321
0.6273772 0.5283302 0.0881321
0.7391950 0.5283302 0.0881321
0.8477947 0.5283302 0.0881321
0.9543428 0.5283303 0.0881321
0.0000000 0.6343207 0.0812923
0.0000000 0.6343208 0.0812922
0.0000000 0.6343208 0.0812922
0.0000000 0.6343208 0.0812923
0.0000000 0.6343208 0.0812923
0.2991146 0.6343208 0.0812922
0.4559612 0.6343208 0.0812923
0.5862786 0.6343208 0.0812923
0.7058607 0.6343208 0.0812923
0.8197228 0.6343208 0.0812923
0.9301027 0.6343208 0.0812923
0.0000000 0.7402614 0.0718592
0.0000000 0.7402614 0.0718592
0.0000000 0.7402614 0.0718593
0.0000000 0.7402614 0.0718592
0.0000000 0.7402614 0.0718592
0.1210915 0.7402614 0.0718593
0.3771105 0.7402614 0.0718592
0.5308117 0.7402614 0.0718592
0.6623726 0.7402614 0.0718593
0.7837735 0.7402614 0.0718593
0.8994140 0.7402616 0.0718592
0.0000000 0.8461720 0.0582420
0.0000000 0.8461720 0.0582419
0.0000000 0.8461720 0.0582419
0.0000000 0.8461720 0.0582420
0.0000000 0.8461720 0.0582419
0.0000000 0.8461720 0.0582420
0.2441964 0.8461720 0.0582421
0.4542382 0.8461719 0.0582421
0.6058162 0.8461720 0.0582420
0.7383392 0.8461720 0.0582419
0.8612627 0.8461720 0.0582422
0.0000000 0.9520630 0.0345593
0.0000000 0.9520630 0.0345595
0.0000000 0.9520630 0.0345595
0.0000000 0.9520630 0.0345595
0.0000000 0.9520630 0.0345593
0.0000000 0.9520631 0.0345593
0.0000000 0.9520630 0.0345593
0.3389035 0.9520630 0.0345595
0.5308788 0.9520630 0.0345595
0.6809217 0.9520631 0.0345593
0.8142122 0.9520630 0.0345595
0.0000000 1.0000000 0.0000000
0.0000000 1.0000000 0.0000000
0.0000000 1.0000000 0.0000000
0.0000000 1.0000000 0.0000000
0.0000000 1.0000000 0.0000000
0.0000000 1.0000000 0.0000000
0.0000000 1.0000000 0.0000000
0.0000000 1.0000000 0.0000000
0.4255624 1.0000000 0.0000000
0.6072185 1.0000000 0.0000000
0.7560957 1.0000000 0.0000000
0.1408424 0.0000000 0.2006573
0.1678367 0.0000000 0.2006573
0.2377114 0.0000000 0.2006573
0.3246185 0.0000000 0.2006573
0.4178168 0.0000000 0.2006573
0.5137687 0.0000000 0.2006573
0.6111224 0.0000000 0.2006573
0.7092732 0.0000000 0.2006573
0.8079160 0.0000000 0.2006573
0.9068819 0.0000000 0.2006573
1.0000000 0.0000000 0.2006573
0.1259744 0.0744664 0.2005145
0.1560535 0.0744664 0.2005145
0.2301320 0.0744664 0.2005145
0.3194539 0.0744664 0.2005145
0.4140174 0.0744664 0.2005145
0.5108100 0.0744665 0.2005145
0.6087225 0.0744666 0.2005145
0.7072674 0.0744666 0.2005145
0.8062011 0.0744669 0.2005145
0.9053895 0.0744665 0.2005145
1.0000000 0.0744665 0.2005145
0.0002132 0.2000000 0.2000000
0.1000000 0.2000000 0.2000000
0.2000000 0.2000000 0.2000000
0.3000000 0.2000000 0.2000000
0.4000000 0.2000000 0.2000000
0.5000000 0.2000000 0.2000000
0.6000000 0.2000000 0.2000000
0.6999999 0.2000001 0.2000000
0.7999999 0.2000001 0.2000000
0.9000000 0.2000000 0.2000000
0.9999999 0.2000000 0.2000000
0.0000000 0.3104644 0.1990488
0.0000000 0.3104644 0.1990488
0.1215297 0.3104644 0.1990488
0.2595509 0.3104644 0.1990488
0.3725281 0.3104644 0.1990488
0.4793326 0.3104645 0.1990488
0.5835340 0.3104644 0.1990488
0.6863809 0.3104644 0.1990488
0.7884324 0.3104644 0.1990488
0.8899771 0.3104645 0.1990488
0.9911798 0.3104644 0.1990488
0.0000000 0.4183761 0.1976153
0.0000000 0.4183761 0.1976153
0.0000000 0.4183761 0.1976153
0.1784432 0.4183761 0.1976153
0.3261617 0.4183761 0.1976153
0.4462422 0.4183761 0.1976154
0.5577995 0.4183761 0.1976154
0.6653752 0.4183760 0.1976153
0.7707334 0.4183761 0.1976154
0.8747221 0.4183761 0.1976154
0.9778036 0.4183762 0.1976154
0.0000000 0.5253771 0.1956579
0.0000000 0.5253772 0.1956578
0.0000000 0.5253771 0.1956579
0.0000000 0.5253771 0.1956578
0.2466780 0.5253771 0.1956579
0.3961741 0.5253772 0.1956578
0.5205678 0.5253772 0.1956578
0.6356517 0.5253771 0.1956578
0.7460074 0.5253772 0.1956578
0.8535820 0.5253772 0.1956579
0.9593684 0.5253772 0.1956578
0.0000000 0.6319521 0.1931333
0.0000000 0.6319521 0.1931333
0.0000000 0.6319521 0.1931333
0.0000000 0.6319521 0.1931333
0.0000000 0.6319521 0.1931333
0.3186328 0.6319522 0.1931333
0.4680018 0.6319522 0.1931333
0.5952427 0.6319521 0.1931333
0.7130566 0.6319521 0.1931333
0.8257467 0.6319522 0.1931333
0.9352849 0.6319520 0.1931333
0.0000000 0.7382948 0.1899939
0.0000000 0.7382948 0.1899939
0.0000000 0.7382948 0.1899939
0.0000000 0.7382948 0.1899939
0.0000000 0.7382948 0.1899939
0.1693224 0.7382948 0.1899939
0.3921128 0.7382948 0.1899939
0.5408891 0.7382948 0.1899938
0.6701318 0.7382947 0.1899939
0.7901277 0.7382947 0.1899939
0.9048077 0.7382948 0.1899939
0.0000000 0.8444976 0.1861837
0.0000000 0.8444976 0.1861837
0.0000000 0.8444977 0.1861837
0.0000000 0.8444976 0.1861837
0.0000000 0.8444976 0.1861837
0.0000000 0.8444975 0.1861837
0.2685999 0.8444976 0.1861837
0.4663321 0.8444976 0.1861837
0.6144397 0.8444976 0.1861837
0.7451608 0.8444976 0.1861837
0.8669424 0.8444976 0.1861837
0.0000000 0.9506099 0.1816352
0.0000000 0.9506099 0.1816353
0.0000000 0.9506100 0.1816352
0.0000000 0.9506099 0.1816352
0.0000000 0.9506099 0.1816352
0.0000000 0.9506100 0.1816352
0.0000000 0.9506100 0.1816352
0.3558556 0.9506099 0.1816353
0.5409544 0.9506100 0.1816352
0.6884311 0.9506100 0.1816352
0.8202844 0.9506099 0.1816352
0.0000000 1.0000000 0.1762641
0.0000000 1.0000000 0.1762641
0.0000000 1.0000000 0.1762642
0.0000000 1.0000000 0.1762641
0.0000000 1.0000000 0.1762641
0.0000000 1.0000000 0.1762641
0.0000000 1.0000000 0.1762641
0.1071319 1.0000000 0.1762641
0.4386091 1.0000000 0.1762642
0.6158181 1.0000000 0.1762641
0.7627276 1.0000000 0.1762641
0.2112636 0.0000000 0.3009860
0.2289015 0.0000000 0.3009860
0.2819145 0.0000000 0.3009860
0.3565671 0.0000000 0.3009860
0.4419781 0.0000000 0.3009860
0.5328521 0.0000000 0.3009860
0.6267253 0.0000000 0.3009860
0.7223771 0.0000000 0.3009860
0.8191548 0.0000000 0.3009860
0.9166836 0.0000000 0.3009860
1.0000000 0.0000000 0.3009860
0.2024799 0.0000000 0.3008982
0.2209570 0.0000000 0.3008982
0.2757757 0.0000000 0.3008982
0.3519610 0.0000000 0.3008982
0.4384288 0.0000000 0.3008982
0.5300209 0.0000000 0.3008982
0.6243972 0.0000000 0.3008982
0.7204151 0.0000000 0.3008982
0.8174682 0.0000000 0.3008982
0.9152103 0.0000000 0.3008982
1.0000000 0.0000000 0.3008982
0.1662359 0.1816124 0.3005824
0.1890424 0.1816124 0.3005824
0.2522115 0.1816124 0.3005824
0.3347708 0.1816124 0.3005824
0.4253752 0.1816124 0.3005824
0.5196897 0.1816125 0.3005824
0.6159408 0.1816124 0.3005824
0.7133082 0.1816125 0.3005824
0.8113703 0.1816125 0.3005824
0.9098907 0.1816126 0.3005824
1.0000000 0.1816126 0.3005824
0.0000000 0.3000000 0.3000000
0.0999998 0.3000000 0.3000000
0.2000000 0.3000000 0.3000000
0.3000001 0.3000000 0.3000000
0.4000000 0.3000000 0.3000000
0.4999999 0.3000000 0.3000000
0.6000000 0.3000000 0.3000000
0.6999999 0.3000000 0.3000000
0.8000000 0.3000000 0.3000000
0.8999999 0.3000002 0.3000000
0.9999999 0.3000001 0.3000000
0.0000000 0.4111330 0.2991261
0.0000000 0.4111330 0.2991261
0.0159052 0.4111330 0.2991261
0.2363435 0.4111329 0.2991261
0.3579465 0.4111330 0.2991261
0.4686676 0.4111330 0.2991261
0.5751514 0.4111330 0.2991261
0.6795001 0.4111330 0.2991261
0.7826152 0.4111330 0.2991261
0.8849524 0.4111330 0.2991261
0.9867674 0.4111330 0.2991261
0.0000000 0.5198888 0.2979400
0.0000000 0.5198888 0.2979400
0.0000000 0.5198888 0.2979400
0.0694129 0.5198888 0.2979400
0.2892721 0.5198888 0.2979400
0.4218242 0.5198888 0.2979400
0.5393640 0.5198888 0.2979400
0.6505531 0.5198888 0.2979400
0.7583551 0.5198888 0.2979400
0.8641131 0.5198888 0.2979400
0.9685370 0.5198888 0.2979400
0.0000000 0.6275640 0.2964230
0.0000000 0.6275641 0.2964230
0.0000000 0.6275641 0.2964230
0.0000000 0.6275641 0.2964230
0.1510807 0.6275641 0.2964230
0.3512304 0.6275641 0.2964230
0.4892426 0.6275641 0.2964230
0.6113321 0.6275641 0.2964230
0.7260789 0.6275641 0.2964230
0.8366992 0.6275641 0.2964230
0.9447344 0.6275641 0.2964230
0.0000000 0.7346582 0.2945567
0.0000000 0.7346583 0.2945568
0.0000000 0.7346582 0.2945568
0.0000000 0.7346583 0.2945567
0.0000000 0.7346583 0.2945567
0.2299280 0.7346582 0.2945567
0.4180605 0.7346582 0.2945568
0.5588716 0.7346582 0.2945567
0.6841393 0.7346583 0.2945567
0.8016657 0.7346582 0.2945567
0.9146360 0.7346584 0.2945567
0.0000000 0.8414051 0.2923224
0.0000000 0.8414051 0.2923224
0.0000000 0.8414050 0.2923224
0.0000000 0.8414051 0.2923224
0.0000000 0.8414051 0.2923224
0.0000000 0.8414051 0.2923224
0.3076480 0.8414050 0.2923224
0.4876597 0.8414050 0.2923224
0.6299446 0.8414050 0.2923224
0.7575249 0.8414051 0.2923224
0.8772816 0.8414050 0.2923224
0.0000000 0.9479282 0.2896999
0.0000000 0.9479282 0.2897000
0.0000000 0.9479282 0.2896999
0.0000000 0.9479282 0.2896999
0.0000000 0.9479282 0.2896999
0.0000000 0.9479282 0.2896999
0.0000000 0.9479282 0.2897000
0.3847543 0.9479281 0.2897000
0.5589343 0.9479282 0.2896999
0.7020026 0.9479282 0.2896999
0.8313233 0.9479282 0.2896999
0.0000000 1.0000000 0.2866679
0.0000000 1.0000000 0.2866679
0.0000000 1.0000000 0.2866679
0.0000000 1.0000000 0.2866679
0.0000000 1.0000000 0.2866679
0.0000000 1.0000000 0.2866679
0.0000000 1.0000000 0.2866679
0.1924691 1.0000000 0.2866679
0.4614787 1.0000000 0.2866679
0.6312826 1.0000000 0.2866679
0.7747568 1.0000000 0.2866679
0.2816848 0.0000000 0.4013147
0.2944542 0.0000000 0.4013147
0.3356733 0.0000000 0.4013147
0.3987931 0.0000000 0.4013147
0.4754227 0.0000000 0.4013147
0.5599636 0.0000000 0.4013147
0.6492370 0.0000000 0.4013147
0.7414680 0.0000000 0.4013146
0.8356337 0.0000000 0.4013147
0.9311191 0.0000000 0.4013146
1.0000000 0.0000000 0.4013147
0.2755398 0.0000000 0.4012525
0.2886348 0.0000000 0.4012525
0.3307156 0.0000000 0.4012525
0.3947729 0.0000000 0.4012525
0.4721733 0.0000000 0.4012525
0.5572969 0.0000000 0.4012525
0.6470058 0.0000000 0.4012525
0.7395664 0.0000000 0.4012525
0.8339869 0.0000000 0.4012525
0.9296732 0.0000000 0.4012525
1.0000000 0.0000000 0.4012525
0.2519489 0.1489328 0.4010290
0.2664436 0.1489328 0.4010290
0.3121071 0.1489328 0.4010290
0.3798967 0.1489329 0.4010290
0.4602639 0.1489328 0.4010290
0.5475816 0.1489328 0.4010290
0.6389078 0.1489328 0.4010290
0.7326822 0.1489329 0.4010290
0.8280348 0.1489329 0.4010290
0.9244534 0.1489329 0.4010290
1.0000000 0.1489329 0.4010290
0.1996529 0.2834694 0.4006172
0.2184150 0.2834694 0.4006172
0.2738324 0.2834695 0.4006172
0.3505135 0.2834694 0.4006172
0.4373178 0.2834694 0.4006172
0.5291365 0.2834695 0.4006172
0.6236711 0.2834694 0.4006172
0.7198035 0.2834694 0.4006171
0.8169428 0.2834695 0.4006172
0.9147515 0.2834695 0.4006171
1.0000000 0.2834694 0.4006172
0.0000000 0.4000000 0.4000000
0.0999997 0.4000000 0.4000000
0.1999998 0.4000000 0.4000000
0.3000000 0.4000000 0.4000000
0.4000000 0.4000000 0.4000000
0.4999999 0.4000000 0.4000000
0.6000000 0.4000001 0.4000000
0.6999999 0.4000000 0.4000000
0.8000000 0.4000000 0.4000000
0.9000000 0.4000000 0.4000000
1.0000000 0.4000000 0.4000000
0.0000000 0.5115444 0.3991641
0.0000000 0.5115444 0.3991641
0.0000000 0.5115444 0.3991641
0.2083074 0.5115443 0.3991641
0.3416700 0.5115444 0.3991641
0.4570360 0.5115444 0.3991641
0.5661035 0.5115444 0.3991641
0.6721145 0.5115445 0.3991641
0.7763924 0.5115445 0.3991641
0.8795888 0.5115444 0.3991641
0.9820645 0.5115444 0.3991641
0.0000000 0.6209288 0.3980977
0.0000000 0.6209288 0.3980977
0.0000000 0.6209288 0.3980977
0.0000000 0.6209288 0.3980977
0.2430598 0.6209288 0.3980977
0.3941367 0.6209288 0.3980977
0.5191016 0.6209288 0.3980977
0.6344988 0.6209287 0.3980977
0.7450563 0.6209288 0.3980977
0.8527730 0.6209288 0.3980977
0.9586654 0.6209288 0.3980977
0.0000000 0.7291763 0.3967900
0.0000000 0.7291763 0.3967900
0.0000000 0.7291763 0.3967900
0.0000000 0.7291762 0.3967900
0.0000000 0.7291763 0.3967900
0.2952142 0.7291763 0.3967900
0.4536206 0.7291762 0.3967900
0.5845497 0.7291762 0.3967900
0.7044778 0.7291762 0.3967900
0.8185676 0.7291763 0.3967900
0.9291098 0.7291763 0.3967900
0.0000000 0.8367521 0.3952307
0.0000000 0.8367521 0.3952307
0.0000000 0.8367521 0.3952307
0.0000000 0.8367521 0.3952307
0.0000000 0.8367521 0.3952307
0.0000000 0.8367522 0.3952307
0.3568863 0.8367521 0.3952307
0.5176275 0.8367521 0.3952307
0.6523234 0.8367522 0.3952307
0.7755855 0.8367521 0.3952307
0.8924842 0.8367521 0.3952307
0.0000000 0.9438985 0.3934094
0.0000000 0.9438985 0.3934094
0.0000000 0.9438985 0.3934094
0.0000000 0.9438986 0.3934095
0.0000000 0.9438985 0.3934094
0.0000000 0.9438986 0.3934094
0.1687432 0.9438984 0.3934095
0.4236779 0.9438984 0.3934095
0.5846097 0.9438986 0.3934094
0.7217405 0.9438985 0.3934094
0.8475196 0.9438984 0.3934095
0.0000000 1.0000000 0.3913157
0.0000000 1.0000000 0.3913157
0.0000000 1.0000000 0.3913157
0.0000000 1.0000000 0.3913157
0.0000000 1.0000000 0.3913157
0.0000000 1.0000000 0.3913157
0.0000000 1.0000000 0.3913157
0.2687263 1.0000000 0.3913157
0.4933565 1.0000000 0.3913157
0.6536070 1.0000000 0.3913157
0.7923483 1.0000000 0.3913157
0.3521059 0.0000000 0.5016433
0.3619758 0.0000000 0.5016433
0.3950523 0.0000000 0.5016433
0.4485146 0.0000000 0.5016433
0.5165765 0.0000000 0.5016433
0.5942784 0.0000000 0.5016433
0.6782510 0.0000000 0.5016433
0.7663693 0.0000000 0.5016433
0.8573048 0.0000000 0.5016433
0.9502128 0.0000000 0.5016433
1.0000000 0.0000000 0.5016433
0.3474287 0.0000000 0.5015957
0.3574534 0.0000000 0.5015957
0.3909858 0.0000000 0.5015957
0.4450278 0.0000000 0.5015957
0.5136371 0.0000000 0.5015957
0.5917963 0.0000000 0.5015957
0.6761343 0.0000000 0.5015957
0.7645419 0.0000000 0.5015957
0.8557080 0.0000000 0.5015957
0.9488019 0.0000000 0.5015957
1.0000000 0.0000000 0.5015957
0.3299535 0.0808006 0.5014248
0.3405972 0.0808005 0.5014248
0.3759290 0.0808005 0.5014247
0.4322137 0.0808006 0.5014248
0.5029001 0.0808005 0.5014248
0.5827684 0.0808006 0.5014248
0.6684585 0.0808006 0.5014247
0.7579293 0.0808006 0.5014247
0.8499381 0.0808005 0.5014248
0.9437088 0.0808009 0.5014247
1.0000000 0.0808006 0.5014248
0.2944918 0.2590923 0.5011098
0.3066273 0.2590923 0.5011098
0.3461380 0.2590923 0.5011099
0.4073523 0.2590923 0.5011099
0.4823825 0.2590923 0.5011098
0.5656974 0.2590923 0.5011098
0.6540464 0.2590922 0.5011099
0.7455731 0.2590923 0.5011098
0.8391929 0.2590923 0.5011099
0.9342467 0.2590925 0.5011098
1.0000000 0.2590925 0.5011098
0.2289523 0.3843344 0.5006382
0.2450890 0.3843344 0.5006382
0.2947097 0.3843344 0.5006382
0.3663222 0.3843344 0.5006382
0.4495631 0.3843344 0.5006382
0.5389334 0.3843344 0.5006382
0.6317407 0.3843344 0.5006382
0.7266121 0.3843344 0.5006382
0.8227998 0.3843344 0.5006382
0.9198703 0.3843344 0.5006382
1.0000000 0.3843343 0.5006382
0.0000000 0.5000000 0.5000000
0.0999997 0.5000000 0.5000000
0.2000002 0.5000000 0.5000000
0.3000000 0.5000000 0.5000000
0.3999999 0.5000000 0.5000000
0.5000001 0.5000000 0.5000000
0.6000000 0.5000000 0.5000000
0.6999999 0.5000000 0.5000000
0.8000000 0.5000000 0.5000000
0.8999999 0.5000001 0.5000000
0.9999999 0.5000001 0.5000000
0.0000000 0.6118233 0.4991866
0.0000000 0.6118233 0.4991866
0.0000000 0.6118233 0.4991866
0.1730567 0.6118232 0.4991867
0.3235844 0.6118233 0.4991867
0.4444770 0.6118233 0.4991866
0.5564502 0.6118233 0.4991866
0.6642839 0.6118232 0.4991867
0.7698189 0.6118233 0.4991866
0.8739365 0.6118233 0.4991867
0.9771165 0.6118233 0.4991867
0.0000000 0.7216876 0.4981907
0.0000000 0.7216877 0.4981907
0.0000000 0.7216877 0.4981907
0.0000000 0.7216877 0.4981907
0.1796172 0.7216877 0.4981907
0.3625692 0.7216876 0.4981907
0.4969359 0.7216876 0.4981907
0.6172419 0.7216876 0.4981907
0.7308950 0.7216876 0.4981907
0.8407663 0.7216876 0.4981907
0.9482519 0.7216878 0.4981907
0.0000000 0.8304137 0.4970052
0.0000000 0.8304137 0.4970052
0.0000000 0.8304137 0.4970052
0.0000000 0.8304137 0.4970052
0.0000000 0.8304137 0.4970052
0.2186779 0.8304137 0.4970052
0.4126895 0.8304137 0.4970051
0.5550944 0.8304136 0.4970051
0.6811804 0.8304138 0.4970052
0.7992215 0.8304138 0.4970051
0.9125504 0.8304137 0.4970052
0.0000000 0.9384193 0.4956232
0.0000000 0.9384192 0.4956232
0.0000000 0.9384193 0.4956232
0.0000000 0.9384193 0.4956232
0.0000000 0.9384193 0.4956232
0.0000000 0.9384193 0.4956232
0.2762066 0.9384193 0.4956232
0.4703019 0.9384193 0.4956232
0.6172978 0.9384193 0.4956232
0.7474305 0.9384193 0.4956232
0.8688360 0.9384192 0.4956232
0.0000000 1.0000000 0.4940383
0.0000000 1.0000000 0.4940383
0.0000000 1.0000000 0.4940383
0.0000000 1.0000000 0.4940383
0.0000000 1.0000000 0.4940383
0.0000000 1.0000000 0.4940383
0.0000000 1.0000000 0.4940383
0.3423002 1.0000000 0.4940383
0.5328686 1.0000000 0.4940383
0.6823988 1.0000000 0.4940383
0.8154041 1.0000000 0.4940383
0.4225272 0.0000000 0.6019720
0.4305008 0.0000000 0.6019720
0.4578030 0.0000000 0.6019720
0.5035101 0.0000000 0.6019720
0.5638290 0.0000000 0.6019720
0.6347606 0.0000000 0.6019720
0.7131341 0.0000000 0.6019720
0.7967067 0.0000000 0.6019720
0.8839563 0.0000000 0.6019720
0.9738556 0.0000000 0.6019720
1.0000000 0.0000000 0.6019720
0.4187790 0.0000000 0.6019338
0.4268366 0.0000000 0.6019338
0.4544016 0.0000000 0.6019338
0.5004783 0.0000000 0.6019338
0.5611843 0.0000000 0.6019338
0.6324680 0.0000000 0.6019338
0.7111414 0.0000000 0.6019338
0.7949628 0.0000000 0.6019338
0.8824172 0.0000000 0.6019338
0.9724855 0.0000000 0.6019338
1.0000000 0.0000000 0.6019338
0.4049598 0.0000000 0.6017964
0.4133413 0.0000000 0.6017964
0.4419141 0.0000000 0.6017964
0.4893932 0.0000000 0.6017964
0.5515513 0.0000000 0.6017964
0.6241428 0.0000000 0.6017964
0.7039220 0.0000000 0.6017964
0.7886553 0.0000000 0.6017964
0.8768577 0.0000000 0.6017964
0.9675417 0.0000000 0.6017964
1.0000000 0.0000000 0.6017964
0.3779233 0.2233993 0.6015435
0.3870112 0.2233993 0.6015435
0.4177482 0.2233992 0.6015435
0.4681607 0.2233992 0.6015435
0.5332715 0.2233992 0.6015435
0.6084603 0.2233993 0.6015435
0.6903959 0.2233992 0.6015435
0.7768845 0.2233992 0.6015435
0.8665125 0.2233992 0.6015435
0.9583616 0.2233994 0.6015435
1.0000000 0.2233992 0.6015435
0.3324716 0.3632249 0.6011648
0.3430219 0.3632249 0.6011648
0.3780847 0.3632249 0.6011648
0.4340388 0.3632249 0.6011648
0.5044230 0.3632249 0.6011648
0.5840451 0.3632248 0.6011648
0.6695416 0.3632249 0.6011648
0.7588611 0.3632248 0.6011648
0.8507503 0.3632249 0.6011648
0.9444252 0.3632250 0.6011648
1.0000000 0.3632249 0.6011648
0.2554170 0.4848355 0.6006525
0.2696894 0.4848355 0.6006525
0.3147976 0.4848355 0.6006525
0.3820259 0.4848355 0.6006525
0.4619571 0.4848356 0.6006525
0.5489571 0.4848356 0.6006525
0.6400512 0.4848356 0.6006525
0.7336525 0.4848357 0.6006525
0.8288729 0.4848356 0.6006525
0.9251876 0.4848357 0.6006525
1.0000000 0.4848357 0.6006525
0.0004894 0.6000000 0.6000000
0.1000002 0.6000000 0.6000000
0.2000000 0.6000000 0.6000000
0.3000003 0.6000000 0.6000000
0.4000001 0.6000000 0.6000000
0.4999997 0.6000001 0.6000000
0.5999999 0.6000000 0.6000000
